luts/Cool.cube
TITLE "Cool"
LUT_3D_SIZE 9
DOMAIN_MIN 0.0 0.0 0.0
DOMAIN_MAX 1.0 1.0 1.0
0.000000 0.000000 0.000000
0.112500 0.000000 0.000000
0.225000 0.000000 0.000000
0.337500 0.000000 0.000000
0.450000 0.000000 0.000000
0.562500 0.000000 0.000000
0.675000 0.000000 0.000000
0.787500 0.000000 0.000000
0.900000 0.000000 0.000000
0.000000 0.125000 0.000000
0.112500 0.125000 0.000000
0.225000 0.125000 0.000000
0.337500 0.125000 0.000000
0.450000 0.125000 0.000000
0.562500 0.125000 0.000000
0.675000 0.125000 0.000000
0.787500 0.125000 0.000000
0.900000 0.125000 0.000000
0.000000 0.250000 0.000000
0.112500 0.250000 0.000000
0.225000 0.250000 0.000000
0.337500 0.250000 0.000000
0.450000 0.250000 0.000000
0.562500 0.250000 0.000000
0.675000 0.250000 0.000000
0.787500 0.250000 0.000000
0.900000 0.250000 0.000000
0.000000 0.375000 0.000000
0.112500 0.375000 0.000000
0.225000 0.375000 0.000000
0.337500 0.375000 0.000000
0.450000 0.375000 0.000000
0.562500 0.375000 0.000000
0.675000 0.375000 0.000000
0.787500 0.375000 0.000000
0.900000 0.375000 0.000000
0.000000 0.500000 0.000000
0.112500 0.500000 0.000000
0.225000 0.500000 0.000000
0.337500 0.500000 0.000000
0.450000 0.500000 0.000000
0.562500 0.500000 0.000000
0.675000 0.500000 0.000000
0.787500 0.500000 0.000000
0.900000 0.500000 0.000000
0.000000 0.625000 0.000000
0.112500 0.625000 0.000000
0.225000 0.625000 0.000000
0.337500 0.625000 0.000000
0.450000 0.625000 0.000000
0.562500 0.625000 0.000000
0.675000 0.625000 0.000000
0.787500 0.625000 0.000000
0.900000 0.625000 0.000000
0.000000 0.750000 0.000000
0.112500 0.750000 0.000000
0.225000 0.750000 0.000000
0.337500 0.750000 0.000000
0.450000 0.750000 0.000000
0.562500 0.750000 0.000000
0.675000 0.750000 0.000000
0.787500 0.750000 0.000000
0.900000 0.750000 0.000000
0.000000 0.875000 0.000000
0.112500 0.875000 0.000000
0.225000 0.875000 0.000000
0.337500 0.875000 0.000000
0.450000 0.875000 0.000000
0.562500 0.875000 0.000000
0.675000 0.875000 0.000000
0.787500 0.875000 0.000000
0.900000 0.875000 0.000000
0.000000 1.000000 0.000000
0.112500 1.000000 0.000000
0.225000 1.000000 0.000000
0.337500 1.000000 0.000000
0.450000 1.000000 0.000000
0.562500 1.000000 0.000000
0.675000 1.000000 0.000000
0.787500 1.000000 0.000000
0.900000 1.000000 0.000000
0.000000 0.000000 0.137500
0.112500 0.000000 0.137500
0.225000 0.000000 0.137500
0.337500 0.000000 0.137500
0.450000 0.000000 0.137500
0.562500 0.000000 0.137500
0.675000 0.000000 0.137500
0.787500 0.000000 0.137500
0.900000 0.000000 0.137500
0.000000 0.125000 0.137500
0.112500 0.125000 0.137500
0.225000 0.125000 0.137500
0.337500 0.125000 0.137500
0.450000 0.125000 0.137500
0.562500 0.125000 0.137500
0.675000 0.125000 0.137500
0.787500 0.125000 0.137500
0.900000 0.125000 0.137500
0.000000 0.250000 0.137500
0.112500 0.250000 0.137500
0.225000 0.250000 0.137500
0.337500 0.250000 0.137500
0.450000 0.250000 0.137500
0.562500 0.250000 0.137500
0.675000 0.250000 0.137500
0.787500 0.250000 0.137500
0.900000 0.250000 0.137500
0.000000 0.375000 0.137500
0.112500 0.375000 0.137500
0.225000 0.375000 0.137500
0.337500 0.375000 0.137500
0.450000 0.375000 0.137500
0.562500 0.375000 0.137500
0.675000 0.375000 0.137500
0.787500 0.375000 0.137500
0.900000 0.375000 0.137500
0.000000 0.500000 0.137500
0.112500 0.500000 0.137500
0.225000 0.500000 0.137500
0.337500 0.500000 0.137500
0.450000 0.500000 0.137500
0.562500 0.500000 0.137500
0.675000 0.500000 0.137500
0.787500 0.500000 0.137500
0.900000 0.500000 0.137500
0.000000 0.625000 0.137500
0.112500 0.625000 0.137500
0.225000 0.625000 0.137500
0.337500 0.625000 0.137500
0.450000 0.625000 0.137500
0.562500 0.625000 0.137500
0.675000 0.625000 0.137500
0.787500 0.625000 0.137500
0.900000 0.625000 0.137500
0.000000 0.750000 0.137500
0.112500 0.750000 0.137500
0.225000 0.750000 0.137500
0.337500 0.750000 0.137500
0.450000 0.750000 0.137500
0.562500 0.750000 0.137500
0.675000 0.750000 0.137500
0.787500 0.750000 0.137500
0.900000 0.750000 0.137500
0.000000 0.875000 0.137500
0.112500 0.875000 0.137500
0.225000 0.875000 0.137500
0.337500 0.875000 0.137500
0.450000 0.875000 0.137500
0.562500 0.875000 0.137500
0.675000 0.875000 0.137500
0.787500 0.875000 0.137500
0.900000 0.875000 0.137500
0.000000 1.000000 0.137500
0.112500 1.000000 0.137500
0.225000 1.000000 0.137500
0.337500 1.000000 0.137500
0.450000 1.000000 0.137500
0.562500 1.000000 0.137500
0.675000 1.000000 0.137500
0.787500 1.000000 0.137500
0.900000 1.000000 0.137500
0.000000 0.000000 0.275000
0.112500 0.000000 0.275000
0.225000 0.000000 0.275000
0.337500 0.000000 0.275000
0.450000 0.000000 0.275000
0.562500 0.000000 0.275000
0.675000 0.000000 0.275000
0.787500 0.000000 0.275000
0.900000 0.000000 0.275000
0.000000 0.125000 0.275000
0.112500 0.125000 0.275000
0.225000 0.125000 0.275000
0.337500 0.125000 0.275000
0.450000 0.125000 0.275000
0.562500 0.125000 0.275000
0.675000 0.125000 0.275000
0.787500 0.125000 0.275000
0.900000 0.125000 0.275000
0.000000 0.250000 0.275000
0.112500 0.250000 0.275000
0.225000 0.250000 0.275000
0.337500 0.250000 0.275000
0.450000 0.250000 0.275000
0.562500 0.250000 0.275000
0.675000 0.250000 0.275000
0.787500 0.250000 0.275000
0.900000 0.250000 0.275000
0.000000 0.375000 0.275000
0.112500 0.375000 0.275000
0.225000 0.375000 0.275000
0.337500 0.375000 0.275000
0.450000 0.375000 0.275000
0.562500 0.375000 0.275000
0.675000 0.375000 0.275000
0.787500 0.375000 0.275000
0.900000 0.375000 0.275000
0.000000 0.500000 0.275000
0.112500 0.500000 0.275000
0.225000 0.500000 0.275000
0.337500 0.500000 0.275000
0.450000 0.500000 0.275000
0.562500 0.500000 0.275000
0.675000 0.500000 0.275000
0.787500 0.500000 0.275000
0.900000 0.500000 0.275000
0.000000 0.625000 0.275000
0.112500 0.625000 0.275000
0.225000 0.625000 0.275000
0.337500 0.625000 0.275000
0.450000 0.625000 0.275000
0.562500 0.625000 0.275000
0.675000 0.625000 0.275000
0.787500 0.625000 0.275000
0.900000 0.625000 0.275000
0.000000 0.750000 0.275000
0.112500 0.750000 0.275000
0.225000 0.750000 0.275000
0.337500 0.750000 0.275000
0.450000 0.750000 0.275000
0.562500 0.750000 0.275000
0.675000 0.750000 0.275000
0.787500 0.750000 0.275000
0.900000 0.750000 0.275000
0.000000 0.875000 0.275000
0.112500 0.875000 0.275000
0.225000 0.875000 0.275000
0.337500 0.875000 0.275000
0.450000 0.875000 0.275000
0.562500 0.875000 0.275000
0.675000 0.875000 0.275000
0.787500 0.875000 0.275000
0.900000 0.875000 0.275000
0.000000 1.000000 0.275000
0.112500 1.000000 0.275000
0.225000 1.000000 0.275000
0.337500 1.000000 0.275000
0.450000 1.000000 0.275000
0.562500 1.000000 0.275000
0.675000 1.000000 0.275000
0.787500 1.000000 0.275000
0.900000 1.000000 0.275000
0.000000 0.000000 0.412500
0.112500 0.000000 0.412500
0.225000 0.000000 0.412500
0.337500 0.000000 0.412500
0.450000 0.000000 0.412500
0.562500 0.000000 0.412500
0.675000 0.000000 0.412500
0.787500 0.000000 0.412500
0.900000 0.000000 0.412500
0.000000 0.125000 0.412500
0.112500 0.125000 0.412500
0.225000 0.125000 0.412500
0.337500 0.125000 0.412500
0.450000 0.125000 0.412500
0.562500 0.125000 0.412500
0.675000 0.125000 0.412500
0.787500 0.125000 0.412500
0.900000 0.125000 0.412500
0.000000 0.250000 0.412500
0.112500 0.250000 0.412500
0.225000 0.250000 0.412500
0.337500 0.250000 0.412500
0.450000 0.250000 0.412500
0.562500 0.250000 0.412500
0.675000 0.250000 0.412500
0.787500 0.250000 0.412500
0.900000 0.250000 0.412500
0.000000 0.375000 0.412500
0.112500 0.375000 0.412500
0.225000 0.375000 0.412500
0.337500 0.375000 0.412500
0.450000 0.375000 0.412500
0.562500 0.375000 0.412500
0.675000 0.375000 0.412500
0.787500 0.375000 0.412500
0.900000 0.375000 0.412500
0.000000 0.500000 0.412500
0.112500 0.500000 0.412500
0.225000 0.500000 0.412500
0.337500 0.500000 0.412500
0.450000 0.500000 0.412500
0.562500 0.500000 0.412500
0.675000 0.500000 0.412500
0.787500 0.500000 0.412500
0.900000 0.500000 0.412500
0.000000 0.625000 0.412500
0.112500 0.625000 0.412500
0.225000 0.625000 0.412500
0.337500 0.625000 0.412500
0.450000 0.625000 0.412500
0.562500 0.625000 0.412500
0.675000 0.625000 0.412500
0.787500 0.625000 0.412500
0.900000 0.625000 0.412500
0.000000 0.750000 0.412500
0.112500 0.750000 0.412500
0.225000 0.750000 0.412500
0.337500 0.750000 0.412500
0.450000 0.750000 0.412500
0.562500 0.750000 0.412500
0.675000 0.750000 0.412500
0.787500 0.750000 0.412500
0.900000 0.750000 0.412500
0.000000 0.875000 0.412500
0.112500 0.875000 0.412500
0.225000 0.875000 0.412500
0.337500 0.875000 0.412500
0.450000 0.875000 0.412500
0.562500 0.875000 0.412500
0.675000 0.875000 0.412500
0.787500 0.875000 0.412500
0.900000 0.875000 0.412500
0.000000 1.000000 0.412500
0.112500 1.000000 0.412500
0.225000 1.000000 0.412500
0.337500 1.000000 0.412500
0.450000 1.000000 0.412500
0.562500 1.000000 0.412500
0.675000 1.000000 0.412500
0.787500 1.000000 0.412500
0.900000 1.000000 0.412500
0.000000 0.000000 0.550000
0.112500 0.000000 0.550000
0.225000 0.000000 0.550000
0.337500 0.000000 0.550000
0.450000 0.000000 0.550000
0.562500 0.000000 0.550000
0.675000 0.000000 0.550000
0.787500 0.000000 0.550000
0.900000 0.000000 0.550000
0.000000 0.125000 0.550000
0.112500 0.125000 0.550000
0.225000 0.125000 0.550000
0.337500 0.125000 0.550000
0.450000 0.125000 0.550000
0.562500 0.125000 0.550000
0.675000 0.125000 0.550000
0.787500 0.125000 0.550000
0.900000 0.125000 0.550000
0.000000 0.250000 0.550000
0.112500 0.250000 0.550000
0.225000 0.250000 0.550000
0.337500 0.250000 0.550000
0.450000 0.250000 0.550000
0.562500 0.250000 0.550000
0.675000 0.250000 0.550000
0.787500 0.250000 0.550000
0.900000 0.250000 0.550000
0.000000 0.375000 0.550000
0.112500 0.375000 0.550000
0.225000 0.375000 0.550000
0.337500 0.375000 0.550000
0.450000 0.375000 0.550000
0.562500 0.375000 0.550000
0.675000 0.375000 0.550000
0.787500 0.375000 0.550000
0.900000 0.375000 0.550000
0.000000 0.500000 0.550000
0.112500 0.500000 0.550000
0.225000 0.500000 0.550000
0.337500 0.500000 0.550000
0.450000 0.500000 0.550000
0.562500 0.500000 0.550000
0.675000 0.500000 0.550000
0.787500 0.500000 0.550000
0.900000 0.500000 0.550000
0.000000 0.625000 0.550000
0.112500 0.625000 0.550000
0.225000 0.625000 0.550000
0.337500 0.625000 0.550000
0.450000 0.625000 0.550000
0.562500 0.625000 0.550000
0.675000 0.625000 0.550000
0.787500 0.625000 0.550000
0.900000 0.625000 0.550000
0.000000 0.750000 0.550000
0.112500 0.750000 0.550000
0.225000 0.750000 0.550000
0.337500 0.750000 0.550000
0.450000 0.750000 0.550000
0.562500 0.750000 0.550000
0.675000 0.750000 0.550000
0.787500 0.750000 0.550000
0.900000 0.750000 0.550000
0.000000 0.875000 0.550000
0.112500 0.875000 0.550000
0.225000 0.875000 0.550000
0.337500 0.875000 0.550000
0.450000 0.875000 0.550000
0.562500 0.875000 0.550000
0.675000 0.875000 0.550000
0.787500 0.875000 0.550000
0.900000 0.875000 0.550000
0.000000 1.000000 0.550000
0.112500 1.000000 0.550000
0.225000 1.000000 0.550000
0.337500 1.000000 0.550000
0.450000 1.000000 0.550000
0.562500 1.000000 0.550000
0.675000 1.000000 0.550000
0.787500 1.000000 0.550000
0.900000 1.000000 0.550000
0.000000 0.000000 0.687500
0.112500 0.000000 0.687500
0.225000 0.000000 0.687500
0.337500 0.000000 0.687500
0.450000 0.000000 0.687500
0.562500 0.000000 0.687500
0.675000 0.000000 0.687500
0.787500 0.000000 0.687500
0.900000 0.000000 0.687500
0.000000 0.125000 0.687500
0.112500 0.125000 0.687500
0.225000 0.125000 0.687500
0.337500 0.125000 0.687500
0.450000 0.125000 0.687500
0.562500 0.125000 0.687500
0.675000 0.125000 0.687500
0.787500 0.125000 0.687500
0.900000 0.125000 0.687500
0.000000 0.250000 0.687500
0.112500 0.250000 0.687500
0.225000 0.250000 0.687500
0.337500 0.250000 0.687500
0.450000 0.250000 0.687500
0.562500 0.250000 0.687500
0.675000 0.250000 0.687500
0.787500 0.250000 0.687500
0.900000 0.250000 0.687500
0.000000 0.375000 0.687500
0.112500 0.375000 0.687500
0.225000 0.375000 0.687500
0.337500 0.375000 0.687500
0.450000 0.375000 0.687500
0.562500 0.375000 0.687500
0.675000 0.375000 0.687500
0.787500 0.375000 0.687500
0.900000 0.375000 0.687500
0.000000 0.500000 0.687500
0.112500 0.500000 0.687500
0.225000 0.500000 0.687500
0.337500 0.500000 0.687500
0.450000 0.500000 0.687500
0.562500 0.500000 0.687500
0.675000 0.500000 0.687500
0.787500 0.500000 0.687500
0.900000 0.500000 0.687500
0.000000 0.625000 0.687500
0.112500 0.625000 0.687500
0.225000 0.625000 0.687500
0.337500 0.625000 0.687500
0.450000 0.625000 0.687500
0.562500 0.625000 0.687500
0.675000 0.625000 0.687500
0.787500 0.625000 0.687500
0.900000 0.625000 0.687500
0.000000 0.750000 0.687500
0.112500 0.750000 0.687500
0.225000 0.750000 0.687500
0.337500 0.750000 0.687500
0.450000 0.750000 0.687500
0.562500 0.750000 0.687500
0.675000 0.750000 0.687500
0.787500 0.750000 0.687500
0.900000 0.750000 0.687500
0.000000 0.875000 0.687500
0.112500 0.875000 0.687500
0.225000 0.875000 0.687500
0.337500 0.875000 0.687500
0.450000 0.875000 0.687500
0.562500 0.875000 0.687500
0.675000 0.875000 0.687500
0.787500 0.875000 0.687500
0.900000 0.875000 0.687500
0.000000 1.000000 0.687500
0.112500 1.000000 0.687500
0.225000 1.000000 0.687500
0.337500 1.000000 0.687500
0.450000 1.000000 0.687500
0.562500 1.000000 0.687500
0.675000 1.000000 0.687500
0.787500 1.000000 0.687500
0.900000 1.000000 0.687500
0.000000 0.000000 0.825000
0.112500 0.000000 0.825000
0.225000 0.000000 0.825000
0.337500 0.000000 0.825000
0.450000 0.000000 0.825000
0.562500 0.000000 0.825000
0.675000 0.000000 0.825000
0.787500 0.000000 0.825000
0.900000 0.000000 0.825000
0.000000 0.125000 0.825000
0.112500 0.125000 0.825000
0.225000 0.125000 0.825000
0.337500 0.125000 0.825000
0.450000 0.125000 0.825000
0.562500 0.125000 0.825000
0.675000 0.125000 0.825000
0.787500 0.125000 0.825000
0.900000 0.125000 0.825000
0.000000 0.250000 0.825000
0.112500 0.250000 0.825000
0.225000 0.250000 0.825000
0.337500 0.250000 0.825000
0.450000 0.250000 0.825000
0.562500 0.250000 0.825000
0.675000 0.250000 0.825000
0.787500 0.250000 0.825000
0.900000 0.250000 0.825000
0.000000 0.375000 0.825000
0.112500 0.375000 0.825000
0.225000 0.375000 0.825000
0.337500 0.375000 0.825000
0.450000 0.375000 0.825000
0.562500 0.375000 0.825000
0.675000 0.375000 0.825000
0.787500 0.375000 0.825000
0.900000 0.375000 0.825000
0.000000 0.500000 0.825000
0.112500 0.500000 0.825000
0.225000 0.500000 0.825000
0.337500 0.500000 0.825000
0.450000 0.500000 0.825000
0.562500 0.500000 0.825000
0.675000 0.500000 0.825000
0.787500 0.500000 0.825000
0.900000 0.500000 0.825000
0.000000 0.625000 0.825000
0.112500 0.625000 0.825000
0.225000 0.625000 0.825000
0.337500 0.625000 0.825000
0.450000 0.625000 0.825000
0.562500 0.625000 0.825000
0.675000 0.625000 0.825000
0.787500 0.625000 0.825000
0.900000 0.625000 0.825000
0.000000 0.750000 0.825000
0.112500 0.750000 0.825000
0.225000 0.750000 0.825000
0.337500 0.750000 0.825000
0.450000 0.750000 0.825000
0.562500 0.750000 0.825000
0.675000 0.750000 0.825000
0.787500 0.750000 0.825000
0.900000 0.750000 0.825000
0.000000 0.875000 0.825000
0.112500 0.875000 0.825000
0.225000 0.875000 0.825000
0.337500 0.875000 0.825000
0.450000 0.875000 0.825000
0.562500 0.875000 0.825000
0.675000 0.875000 0.825000
0.787500 0.875000 0.825000
0.900000 0.875000 0.825000
0.000000 1.000000 0.825000
0.112500 1.000000 0.825000
0.225000 1.000000 0.825000
0.337500 1.000000 0.825000
0.450000 1.000000 0.825000
0.562500 1.000000 0.825000
0.675000 1.000000 0.825000
0.787500 1.000000 0.825000
0.900000 1.000000 0.825000
0.000000 0.000000 0.962500
0.112500 0.000000 0.962500
0.225000 0.000000 0.962500
0.337500 0.000000 0.962500
0.450000 0.000000 0.962500
0.562500 0.000000 0.962500
0.675000 0.000000 0.962500
0.787500 0.000000 0.962500
0.900000 0.000000 0.962500
0.000000 0.125000 0.962500
0.112500 0.125000 0.962500
0.225000 0.125000 0.962500
0.337500 0.125000 0.962500
0.450000 0.125000 0.962500
0.562500 0.125000 0.962500
0.675000 0.125000 0.962500
0.787500 0.125000 0.962500
0.900000 0.125000 0.962500
0.000000 0.250000 0.962500
0.112500 0.250000 0.962500
0.225000 0.250000 0.962500
0.337500 0.250000 0.962500
0.450000 0.250000 0.962500
0.562500 0.250000 0.962500
0.675000 0.250000 0.962500
0.787500 0.250000 0.962500
0.900000 0.250000 0.962500
0.000000 0.375000 0.962500
0.112500 0.375000 0.962500
0.225000 0.375000 0.962500
0.337500 0.375000 0.962500
0.450000 0.375000 0.962500
0.562500 0.375000 0.962500
0.675000 0.375000 0.962500
0.787500 0.375000 0.962500
0.900000 0.375000 0.962500
0.000000 0.500000 0.962500
0.112500 0.500000 0.962500
0.225000 0.500000 0.962500
0.337500 0.500000 0.962500
0.450000 0.500000 0.962500
0.562500 0.500000 0.962500
0.675000 0.500000 0.962500
0.787500 0.500000 0.962500
0.900000 0.500000 0.962500
0.000000 0.625000 0.962500
0.112500 0.625000 0.962500
0.225000 0.625000 0.962500
0.337500 0.625000 0.962500
0.450000 0.625000 0.962500
0.562500 0.625000 0.962500
0.675000 0.625000 0.962500
0.787500 0.625000 0.962500
0.900000 0.625000 0.962500
0.000000 0.750000 0.962500
0.112500 0.750000 0.962500
0.225000 0.750000 0.962500
0.337500 0.750000 0.962500
0.450000 0.750000 0.962500
0.562500 0.750000 0.962500
0.675000 0.750000 0.962500
0.787500 0.750000 0.962500
0.900000 0.750000 0.962500
0.000000 0.875000 0.962500
0.112500 0.875000 0.962500
0.225000 0.875000 0.962500
0.337500 0.875000 0.962500
0.450000 0.875000 0.962500
0.562500 0.875000 0.962500
0.675000 0.875000 0.962500
0.787500 0.875000 0.962500
0.900000 0.875000 0.962500
0.000000 1.000000 0.962500
0.112500 1.000000 0.962500
0.225000 1.000000 0.962500
0.337500 1.000000 0.962500
0.450000 1.000000 0.962500
0.562500 1.000000 0.962500
0.675000 1.000000 0.962500
0.787500 1.000000 0.962500
0.900000 1.000000 0.962500
0.000000 0.000000 1.000000
0.112500 0.000000 1.000000
0.225000 0.000000 1.000000
0.337500 0.000000 1.000000
0.450000 0.000000 1.000000
0.562500 0.000000 1.000000
0.675000 0.000000 1.000000
0.787500 0.000000 1.000000
0.900000 0.000000 1.000000
0.000000 0.125000 1.000000
0.112500 0.125000 1.000000
0.225000 0.125000 1.000000
0.337500 0.125000 1.000000
0.450000 0.125000 1.000000
0.562500 0.125000 1.000000
0.675000 0.125000 1.000000
0.787500 0.125000 1.000000
0.900000 0.125000 1.000000
0.000000 0.250000 1.000000
0.112500 0.250000 1.000000
0.225000 0.250000 1.000000
0.337500 0.250000 1.000000
0.450000 0.250000 1.000000
0.562500 0.250000 1.000000
0.675000 0.250000 1.000000
0.787500 0.250000 1.000000
0.900000 0.250000 1.000000
0.000000 0.375000 1.000000
0.112500 0.375000 1.000000
0.225000 0.375000 1.000000
0.337500 0.375000 1.000000
0.450000 0.375000 1.000000
0.562500 0.375000 1.000000
0.675000 0.375000 1.000000
0.787500 0.375000 1.000000
0.900000 0.375000 1.000000
0.000000 0.500000 1.000000
0.112500 0.500000 1.000000
0.225000 0.500000 1.000000
0.337500 0.500000 1.000000
0.450000 0.500000 1.000000
0.562500 0.500000 1.000000
0.675000 0.500000 1.000000
0.787500 0.500000 1.000000
0.900000 0.500000 1.000000
0.000000 0.625000 1.000000
0.112500 0.625000 1.000000
0.225000 0.625000 1.000000
0.337500 0.625000 1.000000
0.450000 0.625000 1.000000
0.562500 0.625000 1.000000
0.675000 0.625000 1.000000
0.787500 0.625000 1.000000
0.900000 0.625000 1.000000
0.000000 0.750000 1.000000
0.112500 0.750000 1.000000
0.225000 0.750000 1.000000
0.337500 0.750000 1.000000
0.450000 0.750000 1.000000
0.562500 0.750000 1.000000
0.675000 0.750000 1.000000
0.787500 0.750000 1.000000
0.900000 0.750000 1.000000
0.000000 0.875000 1.000000
0.112500 0.875000 1.000000
0.225000 0.875000 1.000000
0.337500 0.875000 1.000000
0.450000 0.875000 1.000000
0.562500 0.875000 1.000000
0.675000 0.875000 1.000000
0.787500 0.875000 1.000000
0.900000 0.875000 1.000000
0.000000 1.000000 1.000000
0.112500 1.000000 1.000000
0.225000 1.000000 1.000000
0.337500 1.000000 1.000000
0.450000 1.000000 1.000000
0.562500 1.000000 1.000000
0.675000 1.000000 1.000000
0.787500 1.000000 1.000000
0.900000 1.000000 1.000000
