luts/Kodachrome.cube
TITLE "Kodachrome"
LUT_3D_SIZE 5
DOMAIN_MIN 0.0 0.0 0.0
DOMAIN_MAX 1.0 1.0 1.0
0.000000 0.000000 0.000000
0.207969 0.000000 0.000000
0.665500 0.000000 0.000000
1.000000 0.000000 0.000000
1.000000 0.000000 0.000000
0.000000 0.175469 0.000000
0.177547 0.161406 0.000000
0.635078 0.130469 0.000000
1.000000 0.099531 0.000000
1.000000 0.085469 0.000000
0.000000 0.561500 0.000000
0.110619 0.547437 0.000000
0.568150 0.516500 0.000000
1.000000 0.485563 0.000000
1.000000 0.471500 0.000000
0.000000 0.947531 0.000000
0.043691 0.933469 0.000000
0.501222 0.902531 0.000000
0.958753 0.871594 0.000000
1.000000 0.857531 0.000000
0.000000 1.000000 0.000000
0.013269 1.000000 0.000000
0.470800 1.000000 0.000000
0.928331 1.000000 0.000000
1.000000 1.000000 0.000000
0.000000 0.000000 0.178172
0.202297 0.000000 0.165516
0.659828 0.000000 0.137672
1.000000 0.000000 0.109828
1.000000 0.000000 0.097172
0.000000 0.170312 0.153281
0.171875 0.156250 0.140625
0.629406 0.125313 0.112781
1.000000 0.094375 0.084937
1.000000 0.080312 0.072281
0.000000 0.556344 0.098522
0.104947 0.542281 0.085866
0.562478 0.511344 0.058022
1.000000 0.480406 0.030178
1.000000 0.466344 0.017522
0.000000 0.942375 0.043763
0.038019 0.928312 0.031106
0.495550 0.897375 0.003263
0.953081 0.866437 0.000000
1.000000 0.852375 0.000000
0.000000 1.000000 0.018872
0.007597 1.000000 0.006216
0.465128 1.000000 0.000000
0.922659 1.000000 0.000000
1.000000 1.000000 0.000000
0.000000 0.000000 0.570150
0.189819 0.000000 0.557494
0.647350 0.000000 0.529650
1.000000 0.000000 0.501806
1.000000 0.000000 0.489150
0.000000 0.158969 0.545259
0.159397 0.144906 0.532603
0.616928 0.113969 0.504759
1.000000 0.083031 0.476916
1.000000 0.068969 0.464259
0.000000 0.545000 0.490500
0.092469 0.530937 0.477844
0.550000 0.500000 0.450000
1.000000 0.469063 0.422156
1.000000 0.455000 0.409500
0.000000 0.931031 0.435741
0.025541 0.916969 0.423084
0.483072 0.886031 0.395241
0.940603 0.855094 0.367397
1.000000 0.841031 0.354741
0.000000 1.000000 0.410850
0.000000 1.000000 0.398194
0.452650 1.000000 0.370350
0.910181 1.000000 0.342506
1.000000 1.000000 0.329850
0.000000 0.000000 0.962128
0.177341 0.000000 0.949472
0.634872 0.000000 0.921628
1.000000 0.000000 0.893784
1.000000 0.000000 0.881128
0.000000 0.147625 0.937238
0.146919 0.133563 0.924581
0.604450 0.102625 0.896738
1.000000 0.071687 0.868894
1.000000 0.057625 0.856237
0.000000 0.533656 0.882478
0.079991 0.519594 0.869822
0.537522 0.488656 0.841978
0.995053 0.457719 0.814134
1.000000 0.443656 0.801478
0.000000 0.919688 0.827719
0.013063 0.905625 0.815063
0.470594 0.874687 0.787219
0.928125 0.843750 0.759375
1.000000 0.829687 0.746719
0.000000 1.000000 0.802828
0.000000 1.000000 0.790172
0.440172 1.000000 0.762328
0.897703 1.000000 0.734484
1.000000 1.000000 0.721828
0.000000 0.000000 1.000000
0.171669 0.000000 1.000000
0.629200 0.000000 1.000000
1.000000 0.000000 1.000000
1.000000 0.000000 1.000000
0.000000 0.142469 1.000000
0.141247 0.128406 1.000000
0.598778 0.097469 1.000000
1.000000 0.066531 1.000000
1.000000 0.052469 1.000000
0.000000 0.528500 1.000000
0.074319 0.514437 1.000000
0.531850 0.483500 1.000000
0.989381 0.452563 0.992306
1.000000 0.438500 0.979650
0.000000 0.914531 1.000000
0.007391 0.900469 0.993234
0.464922 0.869531 0.965391
0.922453 0.838594 0.937547
1.000000 0.824531 0.924891
0.000000 1.000000 0.981000
0.000000 1.000000 0.968344
0.434500 1.000000 0.940500
0.892031 1.000000 0.912656
1.000000 1.000000 0.900000
