luts/Kodachrome.3dl
0 127 255 383 511 639 767 895 1023
0 0 0
0 0 50
0 0 182
0 0 369
0 0 583
0 0 797
0 0 984
0 0 1023
0 0 1023
0 49 0
0 47 43
0 44 175
0 38 362
0 32 576
0 26 790
0 20 977
0 17 1023
0 15 1023
0 179 0
0 178 24
0 174 156
0 168 343
0 162 557
0 156 771
0 151 958
0 147 1023
0 145 1023
0 363 0
0 362 0
0 358 130
0 352 317
0 346 531
0 340 745
0 335 932
0 331 1023
0 329 1023
0 574 0
0 572 0
0 569 100
0 563 287
0 557 501
0 551 715
0 545 902
0 542 1023
0 540 1023
0 785 0
0 783 0
0 780 70
0 774 257
0 768 471
0 762 686
0 756 872
0 753 1005
0 751 1023
0 969 0
0 967 0
0 964 44
0 958 231
0 952 445
0 946 659
0 940 846
0 937 978
0 935 1023
0 1023 0
0 1023 0
0 1023 26
0 1023 213
0 1023 427
0 1023 641
0 1023 828
0 1023 960
0 1023 1010
0 1023 0
0 1023 0
0 1023 19
0 1023 206
0 1023 420
0 1023 634
0 1023 821
0 1023 953
0 1023 1003
58 0 0
56 0 46
52 0 178
46 0 365
39 0 579
33 0 793
27 0 980
22 0 1023
21 0 1023
49 45 0
48 43 39
44 40 171
38 34 358
31 28 572
24 22 786
18 16 973
14 13 1023
12 11 1023
27 175 0
25 174 21
21 170 153
15 164 340
8 158 554
2 152 768
0 147 955
0 143 1023
0 141 1023
0 359 0
0 358 0
0 354 127
0 348 313
0 342 528
0 336 742
0 331 929
0 327 1023
0 325 1023
0 570 0
0 569 0
0 565 97
0 559 284
0 553 498
0 547 712
0 541 899
0 538 1023
0 536 1023
0 781 0
0 779 0
0 776 67
0 770 254
0 764 468
0 758 682
0 752 869
0 749 1001
0 747 1023
0 965 0
0 963 0
0 960 41
0 954 228
0 948 442
0 942 656
0 936 843
0 933 975
0 931 1023
0 1023 0
0 1023 0
0 1023 22
0 1023 209
0 1023 423
0 1023 637
0 1023 824
0 1023 956
0 1023 1007
0 1023 0
0 1023 0
0 1023 15
0 1023 202
0 1023 416
0 1023 630
0 1023 817
0 1023 949
0 1023 1000
212 0 0
211 0 37
206 0 169
201 0 356
194 0 570
187 0 784
181 0 971
177 0 1023
175 0 1023
204 34 0
202 33 30
198 29 162
192 24 349
185 18 563
178 11 777
172 6 964
168 2 1023
167 1 1023
181 165 0
180 163 11
175 159 143
169 154 330
163 148 544
156 142 759
150 136 945
146 132 1023
144 131 1023
149 349 0
148 347 0
143 343 117
137 338 304
131 332 518
124 326 732
118 320 919
114 316 1023
112 315 1023
113 560 0
111 558 0
107 554 87
101 549 274
94 543 488
87 536 703
81 531 889
77 527 1021
76 526 1023
76 770 0
74 769 0
70 765 57
64 760 244
58 754 458
51 747 673
45 742 859
41 738 992
39 737 1023
44 954 0
43 953 0
38 949 31
32 944 218
26 938 432
19 931 646
13 926 833
9 922 965
7 921 1016
22 1023 0
20 1023 0
16 1023 13
10 1023 200
3 1023 414
0 1023 628
0 1023 815
0 1023 947
0 1023 997
13 1023 0
11 1023 0
7 1023 6
1 1023 193
0 1023 407
0 1023 621
0 1023 808
0 1023 940
0 1023 990
430 0 0
429 0 23
425 0 156
419 0 342
412 0 557
405 0 771
399 0 958
395 0 1023
393 0 1023
422 20 0
420 18 16
416 14 149
410 9 335
403 3 550
396 0 764
390 0 951
386 0 1023
385 0 1023
399 150 0
398 148 0
393 145 130
387 139 317
381 133 531
374 127 745
368 121 932
364 118 1023
362 116 1023
367 334 0
366 332 0
361 329 104
356 323 291
349 317 505
342 311 719
336 305 906
332 302 1023
330 300 1023
331 545 0
329 543 0
325 540 74
319 534 261
312 528 475
305 522 689
299 516 876
295 512 1008
294 511 1023
294 756 0
293 754 0
288 750 44
282 745 231
276 739 445
269 733 659
263 727 846
259 723 978
257 722 1023
262 940 0
261 938 0
256 934 18
251 929 205
244 923 419
237 917 633
231 911 820
227 907 952
225 906 1002
240 1023 0
238 1023 0
234 1023 0
228 1023 186
221 1023 401
214 1023 615
208 1023 802
204 1023 934
203 1023 984
231 1023 0
230 1023 0
225 1023 0
219 1023 179
213 1023 394
206 1023 608
200 1023 795
196 1023 927
194 1023 977
680 0 0
679 0 8
675 0 140
669 0 327
662 0 541
655 0 755
649 0 942
645 0 1023
643 0 1023
672 3 0
670 1 1
666 0 133
660 0 320
653 0 534
646 0 748
640 0 935
636 0 1023
635 0 1023
649 133 0
648 132 0
643 128 115
637 122 302
631 116 516
624 110 730
618 104 917
614 101 1023
612 99 1023
617 317 0
616 316 0
611 312 89
606 306 276
599 300 490
592 294 704
586 288 891
582 285 1023
580 283 1023
581 528 0
579 526 0
575 523 59
569 517 246
562 511 460
555 505 674
549 499 861
545 496 993
544 494 1023
544 739 0
543 737 0
538 734 29
532 728 216
526 722 430
519 716 644
513 710 831
509 706 963
507 705 1013
512 923 0
511 921 0
506 918 3
501 912 190
494 906 404
487 900 618
481 894 805
477 890 937
475 889 987
490 1023 0
488 1023 0
484 1023 0
478 1023 171
471 1023 385
464 1023 600
458 1023 786
454 1021 919
453 1019 969
481 1023 0
480 1023 0
475 1023 0
469 1023 164
463 1023 378
456 1023 593
450 1023 779
446 1023 912
444 1023 962
930 0 0
929 0 0
924 0 125
919 0 312
912 0 526
905 0 740
899 0 927
895 0 1023
893 0 1023
922 0 0
920 0 0
916 0 118
910 0 305
903 0 519
896 0 733
890 0 920
886 0 1023
885 0 1023
899 116 0
898 115 0
893 111 100
887 105 286
881 99 501
874 93 715
868 88 902
864 84 1023
862 82 1023
867 300 0
866 299 0
861 295 74
856 289 260
849 283 475
842 277 689
836 272 876
832 268 1008
830 266 1023
831 511 0
829 510 0
825 506 44
819 500 230
812 494 445
805 488 659
799 482 846
795 479 978
794 477 1023
794 722 0
793 720 0
788 717 14
782 711 201
776 705 415
769 699 629
763 693 816
759 690 948
757 688 998
762 906 0
761 904 0
756 901 0
750 895 174
744 889 389
737 883 603
731 877 790
727 874 922
725 872 972
740 1023 0
738 1023 0
734 1023 0
728 1023 156
721 1019 370
714 1013 584
708 1008 771
704 1004 903
703 1002 953
731 1023 0
730 1023 0
725 1023 0
719 1023 149
713 1023 363
706 1023 577
700 1023 764
696 1023 896
694 1023 946
1023 0 0
1023 0 0
1023 0 112
1023 0 299
1023 0 513
1023 0 727
1023 0 914
1023 0 1023
1023 0 1023
1023 0 0
1023 0 0
1023 0 105
1023 0 292
1023 0 506
1023 0 720
1023 0 907
1023 0 1023
1023 0 1023
1023 101 0
1023 100 0
1023 96 86
1023 91 273
1023 84 487
1023 78 702
1023 73 888
1023 69 1021
1023 68 1023
1023 285 0
1023 284 0
1023 280 60
1023 275 247
1023 268 461
1023 262 675
1023 257 862
1023 253 994
1023 252 1023
1023 496 0
1023 495 0
1023 491 30
1023 486 217
1023 479 431
1023 473 646
1017 468 832
1013 464 965
1012 462 1015
1012 707 0
1011 706 0
1006 702 0
1000 696 187
994 690 401
987 684 616
981 679 802
977 675 935
975 673 985
980 891 0
979 890 0
975 886 0
969 880 161
962 874 375
955 868 590
949 863 776
945 859 908
943 857 959
958 1021 0
956 1020 0
952 1016 0
946 1011 143
939 1004 357
932 998 571
926 993 758
922 989 890
921 988 940
949 1023 0
948 1023 0
943 1023 0
937 1023 136
931 1023 350
924 1023 564
918 1023 751
914 1023 883
912 1023 933
1023 0 0
1023 0 0
1023 0 102
1023 0 289
1023 0 503
1023 0 718
1023 0 904
1023 0 1023
1023 0 1023
1023 0 0
1023 0 0
1023 0 95
1023 0 282
1023 0 496
1023 0 711
1023 0 897
1023 0 1023
1023 0 1023
1023 91 0
1023 89 0
1023 86 77
1023 80 264
1023 74 478
1023 68 692
1023 62 879
1023 59 1011
1023 57 1023
1023 275 0
1023 273 0
1023 270 51
1023 264 238
1023 258 452
1023 252 666
1023 246 853
1023 243 985
1023 241 1023
1023 486 0
1023 484 0
1023 481 21
1023 475 208
1023 469 422
1023 463 636
1023 457 823
1023 453 955
1023 452 1005
1023 697 0
1023 695 0
1023 691 0
1023 686 178
1023 680 392
1023 674 606
1023 668 793
1023 664 925
1023 663 975
1023 881 0
1023 879 0
1023 875 0
1023 870 152
1023 864 366
1023 858 580
1023 852 767
1023 848 899
1023 847 949
1023 1011 0
1023 1009 0
1023 1006 0
1023 1000 133
1023 994 347
1023 988 562
1023 982 748
1023 979 881
1023 977 931
1023 1023 0
1023 1023 0
1023 1023 0
1023 1023 126
1023 1023 340
1023 1023 555
1023 1023 741
1023 1023 874
1023 1023 924
1023 0 0
1023 0 0
1023 0 99
1023 0 286
1023 0 500
1023 0 714
1023 0 901
1023 0 1023
1023 0 1023
1023 0 0
1023 0 0
1023 0 92
1023 0 279
1023 0 493
1023 0 707
1023 0 894
1023 0 1023
1023 0 1023
1023 87 0
1023 85 0
1023 82 73
1023 76 260
1023 70 474
1023 64 689
1023 58 875
1023 55 1008
1023 53 1023
1023 271 0
1023 269 0
1023 266 47
1023 260 234
1023 254 448
1023 248 663
1023 242 849
1023 239 981
1023 237 1023
1023 482 0
1023 480 0
1023 477 17
1023 471 204
1023 465 418
1023 459 633
1023 453 819
1023 450 952
1023 448 1002
1023 693 0
1023 691 0
1023 687 0
1023 682 174
1023 676 388
1023 670 603
1023 664 789
1023 660 922
1023 659 972
1023 877 0
1023 875 0
1023 871 0
1023 866 148
1023 860 362
1023 854 577
1023 848 763
1023 844 896
1023 843 946
1023 1007 0
1023 1005 0
1023 1002 0
1023 996 130
1023 990 344
1023 984 558
1023 978 745
1023 975 877
1023 973 927
1023 1023 0
1023 1023 0
1023 1023 0
1023 1023 123
1023 1023 337
1023 1023 551
1023 1023 738
1023 1023 870
1023 1023 920
