luts/Kodachrome.3dl
0 255 511 767 1023
0 0 0
0 0 182
0 0 583
0 0 984
0 0 1023
0 179 0
0 174 156
0 162 557
0 151 958
0 145 1023
0 574 0
0 569 100
0 557 501
0 545 902
0 540 1023
0 969 0
0 964 44
0 952 445
0 940 846
0 935 1023
0 1023 0
0 1023 19
0 1023 420
0 1023 821
0 1023 1003
212 0 0
206 0 169
194 0 570
181 0 971
175 0 1023
181 165 0
175 159 143
163 148 544
150 136 945
144 131 1023
113 560 0
107 554 87
94 543 488
81 531 889
76 526 1023
44 954 0
38 949 31
26 938 432
13 926 833
7 921 1016
13 1023 0
7 1023 6
0 1023 407
0 1023 808
0 1023 990
680 0 0
675 0 140
662 0 541
649 0 942
643 0 1023
649 133 0
643 128 115
631 116 516
618 104 917
612 99 1023
581 528 0
575 523 59
562 511 460
549 499 861
544 494 1023
512 923 0
506 918 3
494 906 404
481 894 805
475 889 987
481 1023 0
475 1023 0
463 1023 378
450 1023 779
444 1023 962
1023 0 0
1023 0 112
1023 0 513
1023 0 914
1023 0 1023
1023 101 0
1023 96 86
1023 84 487
1023 73 888
1023 68 1023
1023 496 0
1023 491 30
1023 479 431
1017 468 832
1012 462 1015
980 891 0
975 886 0
962 874 375
949 863 776
943 857 959
949 1023 0
943 1023 0
931 1023 350
918 1023 751
912 1023 933
1023 0 0
1023 0 99
1023 0 500
1023 0 901
1023 0 1023
1023 87 0
1023 82 73
1023 70 474
1023 58 875
1023 53 1023
1023 482 0
1023 477 17
1023 465 418
1023 453 819
1023 448 1002
1023 877 0
1023 871 0
1023 860 362
1023 848 763
1023 843 946
1023 1023 0
1023 1023 0
1023 1023 337
1023 1023 738
1023 1023 920
