luts/Kodachrome.cube
TITLE "Kodachrome"
LUT_3D_SIZE 9
DOMAIN_MIN 0.0 0.0 0.0
DOMAIN_MAX 1.0 1.0 1.0
0.000000 0.000000 0.000000
0.057191 0.000000 0.000000
0.207969 0.000000 0.000000
0.421137 0.000000 0.000000
0.665500 0.000000 0.000000
0.909863 0.000000 0.000000
1.000000 0.000000 0.000000
1.000000 0.000000 0.000000
1.000000 0.000000 0.000000
0.000000 0.048254 0.000000
0.048825 0.044387 0.000000
0.199603 0.034191 0.000000
0.412771 0.019777 0.000000
0.657134 0.003254 0.000000
0.901497 0.000000 0.000000
1.000000 0.000000 0.000000
1.000000 0.000000 0.000000
1.000000 0.000000 0.000000
0.000000 0.175469 0.000000
0.026770 0.171602 0.000000
0.177547 0.161406 0.000000
0.390715 0.146992 0.000000
0.635078 0.130469 0.000000
0.879441 0.113945 0.000000
1.000000 0.099531 0.000000
1.000000 0.089336 0.000000
1.000000 0.085469 0.000000
0.000000 0.355324 0.000000
0.000000 0.351457 0.000000
0.146364 0.341262 0.000000
0.359532 0.326848 0.000000
0.603896 0.310324 0.000000
0.848259 0.293801 0.000000
1.000000 0.279387 0.000000
1.000000 0.269191 0.000000
1.000000 0.265324 0.000000
0.000000 0.561500 0.000000
0.000000 0.557633 0.000000
0.110619 0.547437 0.000000
0.323787 0.533023 0.000000
0.568150 0.516500 0.000000
0.812513 0.499977 0.000000
1.000000 0.485563 0.000000
1.000000 0.475367 0.000000
1.000000 0.471500 0.000000
0.000000 0.767676 0.000000
0.000000 0.763809 0.000000
0.074873 0.753613 0.000000
0.288041 0.739199 0.000000
0.532404 0.722676 0.000000
0.776768 0.706152 0.000000
0.989936 0.691738 0.000000
1.000000 0.681543 0.000000
1.000000 0.677676 0.000000
0.000000 0.947531 0.000000
0.000000 0.943664 0.000000
0.043691 0.933469 0.000000
0.256859 0.919055 0.000000
0.501222 0.902531 0.000000
0.745585 0.886008 0.000000
0.958753 0.871594 0.000000
1.000000 0.861398 0.000000
1.000000 0.857531 0.000000
0.000000 1.000000 0.000000
0.000000 1.000000 0.000000
0.021635 1.000000 0.000000
0.234803 1.000000 0.000000
0.479166 1.000000 0.000000
0.723529 1.000000 0.000000
0.936697 0.998809 0.000000
1.000000 0.988613 0.000000
1.000000 0.984746 0.000000
0.000000 1.000000 0.000000
0.000000 1.000000 0.000000
0.013269 1.000000 0.000000
0.226437 1.000000 0.000000
0.470800 1.000000 0.000000
0.715163 1.000000 0.000000
0.928331 1.000000 0.000000
1.000000 1.000000 0.000000
1.000000 1.000000 0.000000
0.000000 0.000000 0.048997
0.055632 0.000000 0.045517
0.206409 0.000000 0.036341
0.419577 0.000000 0.023368
0.663940 0.000000 0.008497
0.908303 0.000000 0.000000
1.000000 0.000000 0.000000
1.000000 0.000000 0.000000
1.000000 0.000000 0.000000
0.000000 0.046836 0.042152
0.047266 0.042969 0.038672
0.198043 0.032773 0.029496
0.411211 0.018359 0.016523
0.655574 0.001836 0.001652
0.899938 0.000000 0.000000
1.000000 0.000000 0.000000
1.000000 0.000000 0.000000
1.000000 0.000000 0.000000
0.000000 0.174051 0.024107
0.025210 0.170184 0.020626
0.175987 0.159988 0.011450
0.389155 0.145574 0.000000
0.633518 0.129051 0.000000
0.877882 0.112527 0.000000
1.000000 0.098113 0.000000
1.000000 0.087918 0.000000
1.000000 0.084051 0.000000
0.000000 0.353906 0.000000
0.000000 0.350039 0.000000
0.144805 0.339844 0.000000
0.357973 0.325430 0.000000
0.602336 0.308906 0.000000
0.846699 0.292383 0.000000
1.000000 0.277969 0.000000
1.000000 0.267773 0.000000
1.000000 0.263906 0.000000
0.000000 0.560082 0.000000
0.000000 0.556215 0.000000
0.109059 0.546020 0.000000
0.322227 0.531605 0.000000
0.566590 0.515082 0.000000
0.810953 0.498559 0.000000
1.000000 0.484145 0.000000
1.000000 0.473949 0.000000
1.000000 0.470082 0.000000
0.000000 0.766258 0.000000
0.000000 0.762391 0.000000
0.073313 0.752195 0.000000
0.286481 0.737781 0.000000
0.530845 0.721258 0.000000
0.775208 0.704734 0.000000
0.988376 0.690320 0.000000
1.000000 0.680125 0.000000
1.000000 0.676258 0.000000
0.000000 0.946113 0.000000
0.000000 0.942246 0.000000
0.042131 0.932051 0.000000
0.255299 0.917637 0.000000
0.499662 0.901113 0.000000
0.744025 0.884590 0.000000
0.957193 0.870176 0.000000
1.000000 0.859980 0.000000
1.000000 0.856113 0.000000
0.000000 1.000000 0.000000
0.000000 1.000000 0.000000
0.020075 1.000000 0.000000
0.233243 1.000000 0.000000
0.477606 1.000000 0.000000
0.721970 1.000000 0.000000
0.935138 0.997391 0.000000
1.000000 0.987195 0.000000
1.000000 0.983328 0.000000
0.000000 1.000000 0.000000
0.000000 1.000000 0.000000
0.011709 1.000000 0.000000
0.224877 1.000000 0.000000
0.469240 1.000000 0.000000
0.713603 1.000000 0.000000
0.926771 1.000000 0.000000
1.000000 1.000000 0.000000
1.000000 1.000000 0.000000
0.000000 0.000000 0.178172
0.051520 0.000000 0.174691
0.202297 0.000000 0.165516
0.415465 0.000000 0.152543
0.659828 0.000000 0.137672
0.904191 0.000000 0.122801
1.000000 0.000000 0.109828
1.000000 0.000000 0.100652
1.000000 0.000000 0.097172
0.000000 0.043098 0.171327
0.043154 0.039230 0.167846
0.193931 0.029035 0.158671
0.407099 0.014621 0.145698
0.651462 0.000000 0.130827
0.895825 0.000000 0.115956
1.000000 0.000000 0.102983
1.000000 0.000000 0.093807
1.000000 0.000000 0.090327
0.000000 0.170312 0.153281
0.021098 0.166445 0.149801
0.171875 0.156250 0.140625
0.385043 0.141836 0.127652
0.629406 0.125313 0.112781
0.873770 0.108789 0.097910
1.000000 0.094375 0.084937
1.000000 0.084180 0.075762
1.000000 0.080312 0.072281
0.000000 0.350168 0.127768
0.000000 0.346301 0.124288
0.140693 0.336105 0.115112
0.353861 0.321691 0.102139
0.598224 0.305168 0.087268
0.842587 0.288645 0.072397
1.000000 0.274230 0.059425
1.000000 0.264035 0.050249
1.000000 0.260168 0.046768
0.000000 0.556344 0.098522
0.000000 0.552477 0.095041
0.104947 0.542281 0.085866
0.318115 0.527867 0.072893
0.562478 0.511344 0.058022
0.806841 0.494820 0.043151
1.000000 0.480406 0.030178
1.000000 0.470211 0.021002
1.000000 0.466344 0.017522
0.000000 0.762520 0.069275
0.000000 0.758652 0.065795
0.069201 0.748457 0.056619
0.282369 0.734043 0.043646
0.526732 0.717520 0.028775
0.771096 0.700996 0.013904
0.984264 0.686582 0.000932
1.000000 0.676387 0.000000
1.000000 0.672520 0.000000
0.000000 0.942375 0.043763
0.000000 0.938508 0.040282
0.038019 0.928312 0.031106
0.251187 0.913898 0.018134
0.495550 0.897375 0.003263
0.739913 0.880852 0.000000
0.953081 0.866437 0.000000
1.000000 0.856242 0.000000
1.000000 0.852375 0.000000
0.000000 1.000000 0.025717
0.000000 1.000000 0.022236
0.015963 1.000000 0.013061
0.229131 1.000000 0.000088
0.473494 1.000000 0.000000
0.717857 1.000000 0.000000
0.931025 0.993652 0.000000
1.000000 0.983457 0.000000
1.000000 0.979590 0.000000
0.000000 1.000000 0.018872
0.000000 1.000000 0.015391
0.007597 1.000000 0.006216
0.220765 1.000000 0.000000
0.465128 1.000000 0.000000
0.709491 1.000000 0.000000
0.922659 1.000000 0.000000
1.000000 1.000000 0.000000
1.000000 1.000000 0.000000
0.000000 0.000000 0.360798
0.045706 0.000000 0.357318
0.196483 0.000000 0.348142
0.409651 0.000000 0.335169
0.654014 0.000000 0.320298
0.898378 0.000000 0.305427
1.000000 0.000000 0.292454
1.000000 0.000000 0.283279
1.000000 0.000000 0.279798
0.000000 0.037813 0.353953
0.037340 0.033945 0.350473
0.188117 0.023750 0.341297
0.401285 0.009336 0.328324
0.645648 0.000000 0.313453
0.890012 0.000000 0.298582
1.000000 0.000000 0.285609
1.000000 0.000000 0.276434
1.000000 0.000000 0.272953
0.000000 0.165027 0.335907
0.015284 0.161160 0.332427
0.166061 0.150965 0.323251
0.379229 0.136551 0.310279
0.623593 0.120027 0.295407
0.867956 0.103504 0.280536
1.000000 0.089090 0.267564
1.000000 0.078895 0.258388
1.000000 0.075027 0.254907
0.000000 0.344883 0.310395
0.000000 0.341016 0.306914
0.134879 0.330820 0.297738
0.348047 0.316406 0.284766
0.592410 0.299883 0.269895
0.836773 0.283359 0.255023
1.000000 0.268945 0.242051
1.000000 0.258750 0.232875
1.000000 0.254883 0.229395
0.000000 0.551059 0.281148
0.000000 0.547191 0.277668
0.099133 0.536996 0.268492
0.312301 0.522582 0.255519
0.556664 0.506059 0.240648
0.801028 0.489535 0.225777
1.000000 0.475121 0.212804
1.000000 0.464926 0.203629
1.000000 0.461059 0.200148
0.000000 0.757234 0.251902
0.000000 0.753367 0.248421
0.063387 0.743172 0.239245
0.276555 0.728758 0.226273
0.520919 0.712234 0.211402
0.765282 0.695711 0.196530
0.978450 0.681297 0.183558
1.000000 0.671102 0.174382
1.000000 0.667234 0.170902
0.000000 0.937090 0.226389
0.000000 0.933223 0.222908
0.032205 0.923027 0.213732
0.245373 0.908613 0.200760
0.489736 0.892090 0.185889
0.734100 0.875566 0.171018
0.947268 0.861152 0.158045
1.000000 0.850957 0.148869
1.000000 0.847090 0.145389
0.000000 1.000000 0.208343
0.000000 1.000000 0.204863
0.010149 1.000000 0.195687
0.223317 1.000000 0.182714
0.467680 1.000000 0.167843
0.712044 1.000000 0.152972
0.925212 0.988367 0.139999
1.000000 0.978172 0.130823
1.000000 0.974305 0.127343
0.000000 1.000000 0.201498
0.000000 1.000000 0.198018
0.001783 1.000000 0.188842
0.214951 1.000000 0.175869
0.459314 1.000000 0.160998
0.703678 1.000000 0.146127
0.916846 1.000000 0.133154
1.000000 1.000000 0.123979
1.000000 1.000000 0.120498
0.000000 0.000000 0.570150
0.039041 0.000000 0.566670
0.189819 0.000000 0.557494
0.402987 0.000000 0.544521
0.647350 0.000000 0.529650
0.891713 0.000000 0.514779
1.000000 0.000000 0.501806
1.000000 0.000000 0.492630
1.000000 0.000000 0.489150
0.000000 0.031754 0.563305
0.030675 0.027887 0.559825
0.181453 0.017691 0.550649
0.394621 0.003277 0.537676
0.638984 0.000000 0.522805
0.883347 0.000000 0.507934
1.000000 0.000000 0.494961
1.000000 0.000000 0.485786
1.000000 0.000000 0.482305
0.000000 0.158969 0.545259
0.008620 0.155102 0.541779
0.159397 0.144906 0.532603
0.372565 0.130492 0.519630
0.616928 0.113969 0.504759
0.861291 0.097445 0.489888
1.000000 0.083031 0.476916
1.000000 0.072836 0.467740
1.000000 0.068969 0.464259
0.000000 0.338824 0.519746
0.000000 0.334957 0.516266
0.128214 0.324762 0.507090
0.341382 0.310348 0.494118
0.585746 0.293824 0.479246
0.830109 0.277301 0.464375
1.000000 0.262887 0.451403
1.000000 0.252691 0.442227
1.000000 0.248824 0.438746
0.000000 0.545000 0.490500
0.000000 0.541133 0.487020
0.092469 0.530937 0.477844
0.305637 0.516523 0.464871
0.550000 0.500000 0.450000
0.794363 0.483477 0.435129
1.000000 0.469063 0.422156
1.000000 0.458867 0.412980
1.000000 0.455000 0.409500
0.000000 0.751176 0.461254
0.000000 0.747309 0.457773
0.056723 0.737113 0.448597
0.269891 0.722699 0.435625
0.514254 0.706176 0.420754
0.758618 0.689652 0.405882
0.971786 0.675238 0.392910
1.000000 0.665043 0.383734
1.000000 0.661176 0.380254
0.000000 0.931031 0.435741
0.000000 0.927164 0.432260
0.025541 0.916969 0.423084
0.238709 0.902555 0.410112
0.483072 0.886031 0.395241
0.727435 0.869508 0.380370
0.940603 0.855094 0.367397
1.000000 0.844898 0.358221
1.000000 0.841031 0.354741
0.000000 1.000000 0.417695
0.000000 1.000000 0.414214
0.003485 1.000000 0.405039
0.216653 1.000000 0.392066
0.461016 1.000000 0.377195
0.705379 0.996723 0.362324
0.918547 0.982309 0.349351
1.000000 0.972113 0.340175
1.000000 0.968246 0.336695
0.000000 1.000000 0.410850
0.000000 1.000000 0.407370
0.000000 1.000000 0.398194
0.208287 1.000000 0.385221
0.452650 1.000000 0.370350
0.697013 1.000000 0.355479
0.910181 1.000000 0.342506
1.000000 1.000000 0.333330
1.000000 1.000000 0.329850
0.000000 0.000000 0.779502
0.032377 0.000000 0.776021
0.183154 0.000000 0.766846
0.396322 0.000000 0.753873
0.640686 0.000000 0.739002
0.885049 0.000000 0.724131
1.000000 0.000000 0.711158
1.000000 0.000000 0.701982
1.000000 0.000000 0.698502
0.000000 0.025695 0.772657
0.024011 0.021828 0.769177
0.174788 0.011633 0.760001
0.387956 0.000000 0.747028
0.632320 0.000000 0.732157
0.876683 0.000000 0.717286
1.000000 0.000000 0.704313
1.000000 0.000000 0.695138
1.000000 0.000000 0.691657
0.000000 0.152910 0.754611
0.001955 0.149043 0.751131
0.152732 0.138848 0.741955
0.365900 0.124434 0.728982
0.610264 0.107910 0.714111
0.854627 0.091387 0.699240
1.000000 0.076973 0.686268
1.000000 0.066777 0.677092
1.000000 0.062910 0.673611
0.000000 0.332766 0.729098
0.000000 0.328898 0.725618
0.121550 0.318703 0.716442
0.334718 0.304289 0.703470
0.579081 0.287766 0.688598
0.823445 0.271242 0.673727
1.000000 0.256828 0.660755
1.000000 0.246633 0.651579
1.000000 0.242766 0.648098
0.000000 0.538941 0.699852
0.000000 0.535074 0.696371
0.085804 0.524879 0.687196
0.298972 0.510465 0.674223
0.543336 0.493941 0.659352
0.787699 0.477418 0.644481
1.000000 0.463004 0.631508
1.000000 0.452809 0.622332
1.000000 0.448941 0.618852
0.000000 0.745117 0.670605
0.000000 0.741250 0.667125
0.050059 0.731055 0.657949
0.263227 0.716641 0.644977
0.507590 0.700117 0.630105
0.751953 0.683594 0.615234
0.965121 0.669180 0.602262
1.000000 0.658984 0.593086
1.000000 0.655117 0.589605
0.000000 0.924973 0.645093
0.000000 0.921105 0.641612
0.018876 0.910910 0.632436
0.232044 0.896496 0.619464
0.476407 0.879973 0.604593
0.720771 0.863449 0.589722
0.933939 0.849035 0.576749
1.000000 0.838840 0.567573
1.000000 0.834973 0.564093
0.000000 1.000000 0.627047
0.000000 1.000000 0.623566
0.000000 1.000000 0.614391
0.209988 1.000000 0.601418
0.454352 1.000000 0.586547
0.698715 0.990664 0.571676
0.911883 0.976250 0.558703
1.000000 0.966055 0.549527
1.000000 0.962188 0.546047
0.000000 1.000000 0.620202
0.000000 1.000000 0.616722
0.000000 1.000000 0.607546
0.201622 1.000000 0.594573
0.445986 1.000000 0.579702
0.690349 1.000000 0.564831
0.903517 1.000000 0.551858
1.000000 1.000000 0.542682
1.000000 1.000000 0.539202
0.000000 0.000000 0.962128
0.026563 0.000000 0.958648
0.177341 0.000000 0.949472
0.390509 0.000000 0.936499
0.634872 0.000000 0.921628
0.879235 0.000000 0.906757
1.000000 0.000000 0.893784
1.000000 0.000000 0.884609
1.000000 0.000000 0.881128
0.000000 0.020410 0.955283
0.018197 0.016543 0.951803
0.168975 0.006348 0.942627
0.382143 0.000000 0.929654
0.626506 0.000000 0.914783
0.870869 0.000000 0.899912
1.000000 0.000000 0.886939
1.000000 0.000000 0.877764
1.000000 0.000000 0.874283
0.000000 0.147625 0.937238
0.000000 0.143758 0.933757
0.146919 0.133563 0.924581
0.360087 0.119148 0.911609
0.604450 0.102625 0.896738
0.848813 0.086102 0.881866
1.000000 0.071687 0.868894
1.000000 0.061492 0.859718
1.000000 0.057625 0.856237
0.000000 0.327480 0.911725
0.000000 0.323613 0.908244
0.115736 0.313418 0.899068
0.328904 0.299004 0.886096
0.573268 0.282480 0.871225
0.817631 0.265957 0.856354
1.000000 0.251543 0.843381
1.000000 0.241348 0.834205
1.000000 0.237480 0.830725
0.000000 0.533656 0.882478
0.000000 0.529789 0.878998
0.079991 0.519594 0.869822
0.293159 0.505180 0.856849
0.537522 0.488656 0.841978
0.781885 0.472133 0.827107
0.995053 0.457719 0.814134
1.000000 0.447523 0.804959
1.000000 0.443656 0.801478
0.000000 0.739832 0.853232
0.000000 0.735965 0.849751
0.044245 0.725770 0.840575
0.257413 0.711355 0.827603
0.501776 0.694832 0.812732
0.746139 0.678309 0.797861
0.959307 0.663895 0.784888
1.000000 0.653699 0.775712
1.000000 0.649832 0.772232
0.000000 0.919688 0.827719
0.000000 0.915820 0.824238
0.013063 0.905625 0.815063
0.226230 0.891211 0.802090
0.470594 0.874687 0.787219
0.714957 0.858164 0.772348
0.928125 0.843750 0.759375
1.000000 0.833555 0.750199
1.000000 0.829687 0.746719
0.000000 1.000000 0.809673
0.000000 1.000000 0.806193
0.000000 1.000000 0.797017
0.204175 1.000000 0.784044
0.448538 1.000000 0.769173
0.692901 0.985379 0.754302
0.906069 0.970965 0.741329
1.000000 0.960770 0.732154
1.000000 0.956902 0.728673
0.000000 1.000000 0.802828
0.000000 1.000000 0.799348
0.000000 1.000000 0.790172
0.195809 1.000000 0.777199
0.440172 1.000000 0.762328
0.684535 1.000000 0.747457
0.897703 1.000000 0.734484
1.000000 1.000000 0.725309
1.000000 1.000000 0.721828
0.000000 0.000000 1.000000
0.022451 0.000000 1.000000
0.173229 0.000000 1.000000
0.386396 0.000000 1.000000
0.630760 0.000000 1.000000
0.875123 0.000000 1.000000
1.000000 0.000000 1.000000
1.000000 0.000000 1.000000
1.000000 0.000000 1.000000
0.000000 0.016672 1.000000
0.014085 0.012805 1.000000
0.164862 0.002609 1.000000
0.378030 0.000000 1.000000
0.622394 0.000000 1.000000
0.866757 0.000000 1.000000
1.000000 0.000000 1.000000
1.000000 0.000000 1.000000
1.000000 0.000000 1.000000
0.000000 0.143887 1.000000
0.000000 0.140020 1.000000
0.142807 0.129824 1.000000
0.355975 0.115410 1.000000
0.600338 0.098887 1.000000
0.844701 0.082363 1.000000
1.000000 0.067949 0.998068
1.000000 0.057754 0.988893
1.000000 0.053887 0.985412
0.000000 0.323742 1.000000
0.000000 0.319875 1.000000
0.111624 0.309680 1.000000
0.324792 0.295266 1.000000
0.569155 0.278742 1.000000
0.813519 0.262219 0.985528
1.000000 0.247805 0.972555
1.000000 0.237609 0.963380
1.000000 0.233742 0.959899
0.000000 0.529918 1.000000
0.000000 0.526051 1.000000
0.075879 0.515855 0.998996
0.289046 0.501441 0.986024
0.533410 0.484918 0.971153
0.777773 0.468395 0.956282
0.990941 0.453980 0.943309
1.000000 0.443785 0.934133
1.000000 0.439918 0.930653
0.000000 0.736094 0.982406
0.000000 0.732227 0.978926
0.040133 0.722031 0.969750
0.253301 0.707617 0.956777
0.497664 0.691094 0.941906
0.742027 0.674570 0.927035
0.955195 0.660156 0.914062
1.000000 0.649961 0.904887
1.000000 0.646094 0.901406
0.000000 0.915949 0.956893
0.000000 0.912082 0.953413
0.008950 0.901887 0.944237
0.222118 0.887473 0.931264
0.466482 0.870949 0.916393
0.710845 0.854426 0.901522
0.924013 0.840012 0.888550
1.000000 0.829816 0.879374
1.000000 0.825949 0.875893
0.000000 1.000000 0.938848
0.000000 1.000000 0.935367
0.000000 1.000000 0.926191
0.200062 1.000000 0.913219
0.444426 0.998164 0.898348
0.688789 0.981641 0.883477
0.901957 0.967227 0.870504
1.000000 0.957031 0.861328
1.000000 0.953164 0.857848
0.000000 1.000000 0.932003
0.000000 1.000000 0.928522
0.000000 1.000000 0.919347
0.191696 1.000000 0.906374
0.436060 1.000000 0.891503
0.680423 1.000000 0.876632
0.893591 1.000000 0.863659
1.000000 1.000000 0.854483
1.000000 1.000000 0.851003
0.000000 0.000000 1.000000
0.020891 0.000000 1.000000
0.171669 0.000000 1.000000
0.384837 0.000000 1.000000
0.629200 0.000000 1.000000
0.873563 0.000000 1.000000
1.000000 0.000000 1.000000
1.000000 0.000000 1.000000
1.000000 0.000000 1.000000
0.000000 0.015254 1.000000
0.012525 0.011387 1.000000
0.163303 0.001191 1.000000
0.376471 0.000000 1.000000
0.620834 0.000000 1.000000
0.865197 0.000000 1.000000
1.000000 0.000000 1.000000
1.000000 0.000000 1.000000
1.000000 0.000000 1.000000
0.000000 0.142469 1.000000
0.000000 0.138602 1.000000
0.141247 0.128406 1.000000
0.354415 0.113992 1.000000
0.598778 0.097469 1.000000
0.843141 0.080945 1.000000
1.000000 0.066531 1.000000
1.000000 0.056336 1.000000
1.000000 0.052469 1.000000
0.000000 0.322324 1.000000
0.000000 0.318457 1.000000
0.110064 0.308262 1.000000
0.323232 0.293848 1.000000
0.567596 0.277324 1.000000
0.811959 0.260801 1.000000
1.000000 0.246387 1.000000
1.000000 0.236191 1.000000
1.000000 0.232324 1.000000
0.000000 0.528500 1.000000
0.000000 0.524633 1.000000
0.074319 0.514437 1.000000
0.287487 0.500023 1.000000
0.531850 0.483500 1.000000
0.776213 0.466977 1.000000
0.989381 0.452563 0.992306
1.000000 0.442367 0.983130
1.000000 0.438500 0.979650
0.000000 0.734676 1.000000
0.000000 0.730809 1.000000
0.038573 0.720613 1.000000
0.251741 0.706199 1.000000
0.496104 0.689676 0.990903
0.740468 0.673152 0.976032
0.953636 0.658738 0.963060
1.000000 0.648543 0.953884
1.000000 0.644676 0.950404
0.000000 0.914531 1.000000
0.000000 0.910664 1.000000
0.007391 0.900469 0.993234
0.220559 0.886055 0.980262
0.464922 0.869531 0.965391
0.709285 0.853008 0.950520
0.922453 0.838594 0.937547
1.000000 0.828398 0.928371
1.000000 0.824531 0.924891
0.000000 1.000000 0.987845
0.000000 1.000000 0.984364
0.000000 1.000000 0.975189
0.198503 1.000000 0.962216
0.442866 0.996746 0.947345
0.687229 0.980223 0.932474
0.900397 0.965809 0.919501
1.000000 0.955613 0.910325
1.000000 0.951746 0.906845
0.000000 1.000000 0.981000
0.000000 1.000000 0.977520
0.000000 1.000000 0.968344
0.190137 1.000000 0.955371
0.434500 1.000000 0.940500
0.678863 1.000000 0.925629
0.892031 1.000000 0.912656
1.000000 1.000000 0.903480
1.000000 1.000000 0.900000
