luts/Kodachrome.cube
TITLE "Kodachrome"
LUT_3D_SIZE 33
DOMAIN_MIN 0.0 0.0 0.0
DOMAIN_MAX 1.0 1.0 1.0
0.000000 0.000000 0.000000
0.003818 0.000000 0.000000
0.014948 0.000000 0.000000
0.032901 0.000000 0.000000
0.057191 0.000000 0.000000
0.087331 0.000000 0.000000
0.122832 0.000000 0.000000
0.163207 0.000000 0.000000
0.207969 0.000000 0.000000
0.256630 0.000000 0.000000
0.308704 0.000000 0.000000
0.363702 0.000000 0.000000
0.421137 0.000000 0.000000
0.480522 0.000000 0.000000
0.541369 0.000000 0.000000
0.603191 0.000000 0.000000
0.665500 0.000000 0.000000
0.727809 0.000000 0.000000
0.789631 0.000000 0.000000
0.850478 0.000000 0.000000
0.909863 0.000000 0.000000
0.967298 0.000000 0.000000
1.000000 0.000000 0.000000
1.000000 0.000000 0.000000
1.000000 0.000000 0.000000
1.000000 0.000000 0.000000
1.000000 0.000000 0.000000
1.000000 0.000000 0.000000
1.000000 0.000000 0.000000
1.000000 0.000000 0.000000
1.000000 0.000000 0.000000
1.000000 0.000000 0.000000
1.000000 0.000000 0.000000
0.000000 0.003221 0.000000
0.003260 0.002963 0.000000
0.014389 0.002211 0.000000
0.032343 0.000997 0.000000
0.056633 0.000000 0.000000
0.086772 0.000000 0.000000
0.122273 0.000000 0.000000
0.162648 0.000000 0.000000
0.207410 0.000000 0.000000
0.256072 0.000000 0.000000
0.308145 0.000000 0.000000
0.363143 0.000000 0.000000
0.420578 0.000000 0.000000
0.479963 0.000000 0.000000
0.540810 0.000000 0.000000
0.602632 0.000000 0.000000
0.664941 0.000000 0.000000
0.727251 0.000000 0.000000
0.789073 0.000000 0.000000
0.849920 0.000000 0.000000
0.909305 0.000000 0.000000
0.966740 0.000000 0.000000
1.000000 0.000000 0.000000
1.000000 0.000000 0.000000
1.000000 0.000000 0.000000
1.000000 0.000000 0.000000
1.000000 0.000000 0.000000
1.000000 0.000000 0.000000
1.000000 0.000000 0.000000
1.000000 0.000000 0.000000
1.000000 0.000000 0.000000
1.000000 0.000000 0.000000
1.000000 0.000000 0.000000
0.000000 0.012612 0.000000
0.001632 0.012354 0.000000
0.012761 0.011601 0.000000
0.030715 0.010387 0.000000
0.055005 0.008745 0.000000
0.085144 0.006707 0.000000
0.120645 0.004306 0.000000
0.161020 0.001576 0.000000
0.205782 0.000000 0.000000
0.254444 0.000000 0.000000
0.306517 0.000000 0.000000
0.361515 0.000000 0.000000
0.418950 0.000000 0.000000
0.478335 0.000000 0.000000
0.539182 0.000000 0.000000
0.601004 0.000000 0.000000
0.663313 0.000000 0.000000
0.725623 0.000000 0.000000
0.787445 0.000000 0.000000
0.848292 0.000000 0.000000
0.907677 0.000000 0.000000
0.965112 0.000000 0.000000
1.000000 0.000000 0.000000
1.000000 0.000000 0.000000
1.000000 0.000000 0.000000
1.000000 0.000000 0.000000
1.000000 0.000000 0.000000
1.000000 0.000000 0.000000
1.000000 0.000000 0.000000
1.000000 0.000000 0.000000
1.000000 0.000000 0.000000
1.000000 0.000000 0.000000
1.000000 0.000000 0.000000
0.000000 0.027760 0.000000
0.000000 0.027502 0.000000
0.010135 0.026749 0.000000
0.028088 0.025535 0.000000
0.052379 0.023893 0.000000
0.082518 0.021855 0.000000
0.118019 0.019454 0.000000
0.158394 0.016724 0.000000
0.203156 0.013697 0.000000
0.251817 0.010407 0.000000
0.303891 0.006886 0.000000
0.358889 0.003167 0.000000
0.416324 0.000000 0.000000
0.475709 0.000000 0.000000
0.536556 0.000000 0.000000
0.598378 0.000000 0.000000
0.660687 0.000000 0.000000
0.722997 0.000000 0.000000
0.784819 0.000000 0.000000
0.845666 0.000000 0.000000
0.905050 0.000000 0.000000
0.962486 0.000000 0.000000
1.000000 0.000000 0.000000
1.000000 0.000000 0.000000
1.000000 0.000000 0.000000
1.000000 0.000000 0.000000
1.000000 0.000000 0.000000
1.000000 0.000000 0.000000
1.000000 0.000000 0.000000
1.000000 0.000000 0.000000
1.000000 0.000000 0.000000
1.000000 0.000000 0.000000
1.000000 0.000000 0.000000
0.000000 0.048254 0.000000
0.000000 0.047996 0.000000
0.006582 0.047243 0.000000
0.024535 0.046029 0.000000
0.048825 0.044387 0.000000
0.078965 0.042349 0.000000
0.114466 0.039948 0.000000
0.154841 0.037218 0.000000
0.199603 0.034191 0.000000
0.248264 0.030901 0.000000
0.300338 0.027380 0.000000
0.355336 0.023661 0.000000
0.412771 0.019777 0.000000
0.472156 0.015762 0.000000
0.533003 0.011647 0.000000
0.594825 0.007467 0.000000
0.657134 0.003254 0.000000
0.719443 0.000000 0.000000
0.781265 0.000000 0.000000
0.842112 0.000000 0.000000
0.901497 0.000000 0.000000
0.958932 0.000000 0.000000
1.000000 0.000000 0.000000
1.000000 0.000000 0.000000
1.000000 0.000000 0.000000
1.000000 0.000000 0.000000
1.000000 0.000000 0.000000
1.000000 0.000000 0.000000
1.000000 0.000000 0.000000
1.000000 0.000000 0.000000
1.000000 0.000000 0.000000
1.000000 0.000000 0.000000
1.000000 0.000000 0.000000
0.000000 0.073683 0.000000
0.000000 0.073425 0.000000
0.002173 0.072672 0.000000
0.020126 0.071458 0.000000
0.044417 0.069816 0.000000
0.074556 0.067778 0.000000
0.110057 0.065378 0.000000
0.150432 0.062647 0.000000
0.195194 0.059621 0.000000
0.243855 0.056330 0.000000
0.295929 0.052809 0.000000
0.350927 0.049090 0.000000
0.408362 0.045207 0.000000
0.467747 0.041191 0.000000
0.528594 0.037077 0.000000
0.590416 0.032896 0.000000
0.652725 0.028683 0.000000
0.715035 0.024470 0.000000
0.776857 0.020290 0.000000
0.837704 0.016175 0.000000
0.897088 0.012160 0.000000
0.954524 0.008276 0.000000
1.000000 0.004557 0.000000
1.000000 0.001036 0.000000
1.000000 0.000000 0.000000
1.000000 0.000000 0.000000
1.000000 0.000000 0.000000
1.000000 0.000000 0.000000
1.000000 0.000000 0.000000
1.000000 0.000000 0.000000
1.000000 0.000000 0.000000
1.000000 0.000000 0.000000
1.000000 0.000000 0.000000
0.000000 0.103636 0.000000
0.000000 0.103378 0.000000
0.000000 0.102625 0.000000
0.014933 0.101411 0.000000
0.039223 0.099769 0.000000
0.069363 0.097731 0.000000
0.104864 0.095331 0.000000
0.145239 0.092600 0.000000
0.190001 0.089574 0.000000
0.238662 0.086283 0.000000
0.290736 0.082762 0.000000
0.345734 0.079043 0.000000
0.403169 0.075160 0.000000
0.462554 0.071144 0.000000
0.523401 0.067030 0.000000
0.585223 0.062849 0.000000
0.647532 0.058636 0.000000
0.709841 0.054423 0.000000
0.771663 0.050243 0.000000
0.832511 0.046128 0.000000
0.891895 0.042113 0.000000
0.949331 0.038229 0.000000
1.000000 0.034510 0.000000
1.000000 0.030989 0.000000
1.000000 0.027699 0.000000
1.000000 0.024672 0.000000
1.000000 0.021942 0.000000
1.000000 0.019541 0.000000
1.000000 0.017503 0.000000
1.000000 0.015861 0.000000
1.000000 0.014647 0.000000
1.000000 0.013894 0.000000
1.000000 0.013636 0.000000
0.000000 0.137702 0.000000
0.000000 0.137444 0.000000
0.000000 0.136691 0.000000
0.009027 0.135477 0.000000
0.033317 0.133835 0.000000
0.063457 0.131797 0.000000
0.098958 0.129396 0.000000
0.139333 0.126666 0.000000
0.184095 0.123639 0.000000
0.232756 0.120349 0.000000
0.284830 0.116828 0.000000
0.339828 0.113109 0.000000
0.397263 0.109225 0.000000
0.456648 0.105210 0.000000
0.517495 0.101095 0.000000
0.579317 0.096915 0.000000
0.641626 0.092702 0.000000
0.703935 0.088489 0.000000
0.765757 0.084308 0.000000
0.826604 0.080194 0.000000
0.885989 0.076178 0.000000
0.943424 0.072295 0.000000
0.998422 0.068576 0.000000
1.000000 0.065055 0.000000
1.000000 0.061764 0.000000
1.000000 0.058738 0.000000
1.000000 0.056008 0.000000
1.000000 0.053607 0.000000
1.000000 0.051569 0.000000
1.000000 0.049927 0.000000
1.000000 0.048713 0.000000
1.000000 0.047960 0.000000
1.000000 0.047702 0.000000
0.000000 0.175469 0.000000
0.000000 0.175211 0.000000
0.000000 0.174458 0.000000
0.002479 0.173244 0.000000
0.026770 0.171602 0.000000
0.056909 0.169564 0.000000
0.092410 0.167163 0.000000
0.132785 0.164433 0.000000
0.177547 0.161406 0.000000
0.226208 0.158116 0.000000
0.278282 0.154595 0.000000
0.333280 0.150876 0.000000
0.390715 0.146992 0.000000
0.450100 0.142977 0.000000
0.510947 0.138862 0.000000
0.572769 0.134682 0.000000
0.635078 0.130469 0.000000
0.697388 0.126255 0.000000
0.759209 0.122075 0.000000
0.820057 0.117961 0.000000
0.879441 0.113945 0.000000
0.936877 0.110062 0.000000
0.991875 0.106343 0.000000
1.000000 0.102822 0.000000
1.000000 0.099531 0.000000
1.000000 0.096505 0.000000
1.000000 0.093774 0.000000
1.000000 0.091374 0.000000
1.000000 0.089336 0.000000
1.000000 0.087693 0.000000
1.000000 0.086479 0.000000
1.000000 0.085727 0.000000
1.000000 0.085469 0.000000
0.000000 0.216526 0.000000
0.000000 0.216268 0.000000
0.000000 0.215515 0.000000
0.000000 0.214301 0.000000
0.019651 0.212659 0.000000
0.049791 0.210621 0.000000
0.085291 0.208220 0.000000
0.125667 0.205490 0.000000
0.170429 0.202463 0.000000
0.219090 0.199173 0.000000
0.271163 0.195652 0.000000
0.326161 0.191933 0.000000
0.383597 0.188049 0.000000
0.442981 0.184034 0.000000
0.503829 0.179919 0.000000
0.565651 0.175739 0.000000
0.627960 0.171526 0.000000
0.690269 0.167312 0.000000
0.752091 0.163132 0.000000
0.812938 0.159018 0.000000
0.872323 0.155002 0.000000
0.929758 0.151119 0.000000
0.984756 0.147400 0.000000
1.000000 0.143879 0.000000
1.000000 0.140588 0.000000
1.000000 0.137561 0.000000
1.000000 0.134831 0.000000
1.000000 0.132431 0.000000
1.000000 0.130393 0.000000
1.000000 0.128750 0.000000
1.000000 0.127536 0.000000
1.000000 0.126784 0.000000
1.000000 0.126526 0.000000
0.000000 0.260461 0.000000
0.000000 0.260203 0.000000
0.000000 0.259451 0.000000
0.000000 0.258237 0.000000
0.012034 0.256594 0.000000
0.042173 0.254556 0.000000
0.077674 0.252156 0.000000
0.118049 0.249426 0.000000
0.162811 0.246399 0.000000
0.211473 0.243109 0.000000
0.263546 0.239587 0.000000
0.318544 0.235869 0.000000
0.375979 0.231985 0.000000
0.435364 0.227969 0.000000
0.496211 0.223855 0.000000
0.558033 0.219675 0.000000
0.620343 0.215461 0.000000
0.682652 0.211248 0.000000
0.744474 0.207068 0.000000
0.805321 0.202953 0.000000
0.864706 0.198938 0.000000
0.922141 0.195054 0.000000
0.977139 0.191335 0.000000
1.000000 0.187814 0.000000
1.000000 0.184524 0.000000
1.000000 0.181497 0.000000
1.000000 0.178767 0.000000
1.000000 0.176367 0.000000
1.000000 0.174329 0.000000
1.000000 0.172686 0.000000
1.000000 0.171472 0.000000
1.000000 0.170720 0.000000
1.000000 0.170461 0.000000
0.000000 0.306865 0.000000
0.000000 0.306607 0.000000
0.000000 0.305854 0.000000
0.000000 0.304640 0.000000
0.003989 0.302997 0.000000
0.034128 0.300960 0.000000
0.069629 0.298559 0.000000
0.110004 0.295829 0.000000
0.154766 0.292802 0.000000
0.203428 0.289512 0.000000
0.255501 0.285991 0.000000
0.310499 0.282272 0.000000
0.367934 0.278388 0.000000
0.427319 0.274373 0.000000
0.488166 0.270258 0.000000
0.549988 0.266078 0.000000
0.612297 0.261865 0.000000
0.674607 0.257651 0.000000
0.736429 0.253471 0.000000
0.797276 0.249357 0.000000
0.856661 0.245341 0.000000
0.914096 0.241458 0.000000
0.969094 0.237739 0.000000
1.000000 0.234218 0.000000
1.000000 0.230927 0.000000
1.000000 0.227900 0.000000
1.000000 0.225170 0.000000
1.000000 0.222770 0.000000
1.000000 0.220732 0.000000
1.000000 0.219089 0.000000
1.000000 0.217875 0.000000
1.000000 0.217123 0.000000
1.000000 0.216865 0.000000
0.000000 0.355324 0.000000
0.000000 0.355066 0.000000
0.000000 0.354313 0.000000
0.000000 0.353099 0.000000
0.000000 0.351457 0.000000
0.025726 0.349419 0.000000
0.061227 0.347019 0.000000
0.101602 0.344288 0.000000
0.146364 0.341262 0.000000
0.195026 0.337971 0.000000
0.247099 0.334450 0.000000
0.302097 0.330731 0.000000
0.359532 0.326848 0.000000
0.418917 0.322832 0.000000
0.479764 0.318718 0.000000
0.541586 0.314537 0.000000
0.603896 0.310324 0.000000
0.666205 0.306111 0.000000
0.728027 0.301931 0.000000
0.788874 0.297816 0.000000
0.848259 0.293801 0.000000
0.905694 0.289917 0.000000
0.960692 0.286198 0.000000
1.000000 0.282677 0.000000
1.000000 0.279387 0.000000
1.000000 0.276360 0.000000
1.000000 0.273630 0.000000
1.000000 0.271229 0.000000
1.000000 0.269191 0.000000
1.000000 0.267549 0.000000
1.000000 0.266335 0.000000
1.000000 0.265582 0.000000
1.000000 0.265324 0.000000
0.000000 0.405429 0.000000
0.000000 0.405171 0.000000
0.000000 0.404418 0.000000
0.000000 0.403204 0.000000
0.000000 0.401562 0.000000
0.017039 0.399524 0.000000
0.052540 0.397123 0.000000
0.092916 0.394393 0.000000
0.137678 0.391366 0.000000
0.186339 0.388076 0.000000
0.238412 0.384555 0.000000
0.293410 0.380836 0.000000
0.350846 0.376952 0.000000
0.410230 0.372937 0.000000
0.471077 0.368822 0.000000
0.532899 0.364642 0.000000
0.595209 0.360429 0.000000
0.657518 0.356216 0.000000
0.719340 0.352035 0.000000
0.780187 0.347921 0.000000
0.839572 0.343905 0.000000
0.897007 0.340022 0.000000
0.952005 0.336303 0.000000
1.000000 0.332782 0.000000
1.000000 0.329491 0.000000
1.000000 0.326465 0.000000
1.000000 0.323734 0.000000
1.000000 0.321334 0.000000
1.000000 0.319296 0.000000
1.000000 0.317654 0.000000
1.000000 0.316440 0.000000
1.000000 0.315687 0.000000
1.000000 0.315429 0.000000
0.000000 0.456767 0.000000
0.000000 0.456509 0.000000
0.000000 0.455756 0.000000
0.000000 0.454542 0.000000
0.000000 0.452900 0.000000
0.008139 0.450862 0.000000
0.043640 0.448461 0.000000
0.084015 0.445731 0.000000
0.128777 0.442705 0.000000
0.177438 0.439414 0.000000
0.229512 0.435893 0.000000
0.284510 0.432174 0.000000
0.341945 0.428291 0.000000
0.401330 0.424275 0.000000
0.462177 0.420161 0.000000
0.523999 0.415980 0.000000
0.586308 0.411767 0.000000
0.648617 0.407554 0.000000
0.710439 0.403374 0.000000
0.771286 0.399259 0.000000
0.830671 0.395244 0.000000
0.888106 0.391360 0.000000
0.943104 0.387641 0.000000
0.995178 0.384120 0.000000
1.000000 0.380830 0.000000
1.000000 0.377803 0.000000
1.000000 0.375073 0.000000
1.000000 0.372672 0.000000
1.000000 0.370634 0.000000
1.000000 0.368992 0.000000
1.000000 0.367778 0.000000
1.000000 0.367025 0.000000
1.000000 0.366767 0.000000
0.000000 0.508928 0.000000
0.000000 0.508670 0.000000
0.000000 0.507917 0.000000
0.000000 0.506703 0.000000
0.000000 0.505061 0.000000
0.000000 0.503023 0.000000
0.034596 0.500622 0.000000
0.074971 0.497892 0.000000
0.119733 0.494865 0.000000
0.168395 0.491575 0.000000
0.220468 0.488054 0.000000
0.275466 0.484335 0.000000
0.332901 0.480451 0.000000
0.392286 0.476436 0.000000
0.453133 0.472321 0.000000
0.514955 0.468141 0.000000
0.577265 0.463928 0.000000
0.639574 0.459715 0.000000
0.701396 0.455534 0.000000
0.762243 0.451420 0.000000
0.821628 0.447404 0.000000
0.879063 0.443521 0.000000
0.934061 0.439802 0.000000
0.986134 0.436281 0.000000
1.000000 0.432990 0.000000
1.000000 0.429964 0.000000
1.000000 0.427234 0.000000
1.000000 0.424833 0.000000
1.000000 0.422795 0.000000
1.000000 0.421153 0.000000
1.000000 0.419939 0.000000
1.000000 0.419186 0.000000
1.000000 0.418928 0.000000
0.000000 0.561500 0.000000
0.000000 0.561242 0.000000
0.000000 0.560489 0.000000
0.000000 0.559275 0.000000
0.000000 0.557633 0.000000
0.000000 0.555595 0.000000
0.025482 0.553194 0.000000
0.065857 0.550464 0.000000
0.110619 0.547437 0.000000
0.159280 0.544147 0.000000
0.211354 0.540626 0.000000
0.266352 0.536907 0.000000
0.323787 0.533023 0.000000
0.383172 0.529008 0.000000
0.444019 0.524894 0.000000
0.505841 0.520713 0.000000
0.568150 0.516500 0.000000
0.630459 0.512287 0.000000
0.692281 0.508106 0.000000
0.753128 0.503992 0.000000
0.812513 0.499977 0.000000
0.869948 0.496093 0.000000
0.924946 0.492374 0.000000
0.977020 0.488853 0.000000
1.000000 0.485563 0.000000
1.000000 0.482536 0.000000
1.000000 0.479806 0.000000
1.000000 0.477405 0.000000
1.000000 0.475367 0.000000
1.000000 0.473725 0.000000
1.000000 0.472511 0.000000
1.000000 0.471758 0.000000
1.000000 0.471500 0.000000
0.000000 0.614072 0.000000
0.000000 0.613814 0.000000
0.000000 0.613061 0.000000
0.000000 0.611847 0.000000
0.000000 0.610205 0.000000
0.000000 0.608167 0.000000
0.016367 0.605766 0.000000
0.056742 0.603036 0.000000
0.101504 0.600010 0.000000
0.150166 0.596719 0.000000
0.202239 0.593198 0.000000
0.257237 0.589479 0.000000
0.314672 0.585596 0.000000
0.374057 0.581580 0.000000
0.434904 0.577466 0.000000
0.496726 0.573285 0.000000
0.559035 0.569072 0.000000
0.621345 0.564859 0.000000
0.683167 0.560679 0.000000
0.744014 0.556564 0.000000
0.803399 0.552549 0.000000
0.860834 0.548665 0.000000
0.915832 0.544946 0.000000
0.967905 0.541425 0.000000
1.000000 0.538135 0.000000
1.000000 0.535108 0.000000
1.000000 0.532378 0.000000
1.000000 0.529977 0.000000
1.000000 0.527939 0.000000
1.000000 0.526297 0.000000
1.000000 0.525083 0.000000
1.000000 0.524330 0.000000
1.000000 0.524072 0.000000
0.000000 0.666233 0.000000
0.000000 0.665975 0.000000
0.000000 0.665222 0.000000
0.000000 0.664008 0.000000
0.000000 0.662366 0.000000
0.000000 0.660328 0.000000
0.007323 0.657927 0.000000
0.047699 0.655197 0.000000
0.092461 0.652170 0.000000
0.141122 0.648880 0.000000
0.193196 0.645359 0.000000
0.248194 0.641640 0.000000
0.305629 0.637756 0.000000
0.365013 0.633741 0.000000
0.425861 0.629626 0.000000
0.487683 0.625446 0.000000
0.549992 0.621233 0.000000
0.612301 0.617020 0.000000
0.674123 0.612839 0.000000
0.734970 0.608725 0.000000
0.794355 0.604709 0.000000
0.851790 0.600826 0.000000
0.906788 0.597107 0.000000
0.958862 0.593586 0.000000
1.000000 0.590295 0.000000
1.000000 0.587269 0.000000
1.000000 0.584539 0.000000
1.000000 0.582138 0.000000
1.000000 0.580100 0.000000
1.000000 0.578458 0.000000
1.000000 0.577244 0.000000
1.000000 0.576491 0.000000
1.000000 0.576233 0.000000
0.000000 0.717571 0.000000
0.000000 0.717313 0.000000
0.000000 0.716560 0.000000
0.000000 0.715347 0.000000
0.000000 0.713704 0.000000
0.000000 0.711666 0.000000
0.000000 0.709266 0.000000
0.038798 0.706535 0.000000
0.083560 0.703509 0.000000
0.132221 0.700218 0.000000
0.184295 0.696697 0.000000
0.239293 0.692978 0.000000
0.296728 0.689095 0.000000
0.356113 0.685079 0.000000
0.416960 0.680965 0.000000
0.478782 0.676784 0.000000
0.541091 0.672571 0.000000
0.603401 0.668358 0.000000
0.665223 0.664178 0.000000
0.726070 0.660063 0.000000
0.785454 0.656048 0.000000
0.842890 0.652164 0.000000
0.897888 0.648445 0.000000
0.949961 0.644924 0.000000
0.998622 0.641634 0.000000
1.000000 0.638607 0.000000
1.000000 0.635877 0.000000
1.000000 0.633476 0.000000
1.000000 0.631438 0.000000
1.000000 0.629796 0.000000
1.000000 0.628582 0.000000
1.000000 0.627829 0.000000
1.000000 0.627571 0.000000
0.000000 0.767676 0.000000
0.000000 0.767418 0.000000
0.000000 0.766665 0.000000
0.000000 0.765451 0.000000
0.000000 0.763809 0.000000
0.000000 0.761771 0.000000
0.000000 0.759370 0.000000
0.030111 0.756640 0.000000
0.074873 0.753613 0.000000
0.123534 0.750323 0.000000
0.175608 0.746802 0.000000
0.230606 0.743083 0.000000
0.288041 0.739199 0.000000
0.347426 0.735184 0.000000
0.408273 0.731069 0.000000
0.470095 0.726889 0.000000
0.532404 0.722676 0.000000
0.594714 0.718463 0.000000
0.656536 0.714282 0.000000
0.717383 0.710168 0.000000
0.776768 0.706152 0.000000
0.834203 0.702269 0.000000
0.889201 0.698550 0.000000
0.941274 0.695029 0.000000
0.989936 0.691738 0.000000
1.000000 0.688712 0.000000
1.000000 0.685981 0.000000
1.000000 0.683581 0.000000
1.000000 0.681543 0.000000
1.000000 0.679901 0.000000
1.000000 0.678686 0.000000
1.000000 0.677934 0.000000
1.000000 0.677676 0.000000
0.000000 0.816135 0.000000
0.000000 0.815877 0.000000
0.000000 0.815125 0.000000
0.000000 0.813911 0.000000
0.000000 0.812268 0.000000
0.000000 0.810230 0.000000
0.000000 0.807830 0.000000
0.021709 0.805100 0.000000
0.066471 0.802073 0.000000
0.115133 0.798782 0.000000
0.167206 0.795261 0.000000
0.222204 0.791542 0.000000
0.279639 0.787659 0.000000
0.339024 0.783643 0.000000
0.399871 0.779529 0.000000
0.461693 0.775349 0.000000
0.524003 0.771135 0.000000
0.586312 0.766922 0.000000
0.648134 0.762742 0.000000
0.708981 0.758627 0.000000
0.768366 0.754612 0.000000
0.825801 0.750728 0.000000
0.880799 0.747009 0.000000
0.932872 0.743488 0.000000
0.981534 0.740198 0.000000
1.000000 0.737171 0.000000
1.000000 0.734441 0.000000
1.000000 0.732040 0.000000
1.000000 0.730003 0.000000
1.000000 0.728360 0.000000
1.000000 0.727146 0.000000
1.000000 0.726394 0.000000
1.000000 0.726135 0.000000
0.000000 0.862539 0.000000
0.000000 0.862280 0.000000
0.000000 0.861528 0.000000
0.000000 0.860314 0.000000
0.000000 0.858671 0.000000
0.000000 0.856633 0.000000
0.000000 0.854233 0.000000
0.013664 0.851503 0.000000
0.058426 0.848476 0.000000
0.107088 0.845186 0.000000
0.159161 0.841665 0.000000
0.214159 0.837946 0.000000
0.271594 0.834062 0.000000
0.330979 0.830047 0.000000
0.391826 0.825932 0.000000
0.453648 0.821752 0.000000
0.515957 0.817539 0.000000
0.578267 0.813325 0.000000
0.640089 0.809145 0.000000
0.700936 0.805031 0.000000
0.760321 0.801015 0.000000
0.817756 0.797131 0.000000
0.872754 0.793413 0.000000
0.924827 0.789891 0.000000
0.973489 0.786601 0.000000
1.000000 0.783574 0.000000
1.000000 0.780844 0.000000
1.000000 0.778444 0.000000
1.000000 0.776406 0.000000
1.000000 0.774763 0.000000
1.000000 0.773549 0.000000
1.000000 0.772797 0.000000
1.000000 0.772539 0.000000
0.000000 0.906474 0.000000
0.000000 0.906216 0.000000
0.000000 0.905464 0.000000
0.000000 0.904250 0.000000
0.000000 0.902607 0.000000
0.000000 0.900569 0.000000
0.000000 0.898169 0.000000
0.006047 0.895439 0.000000
0.050809 0.892412 0.000000
0.099470 0.889121 0.000000
0.151544 0.885600 0.000000
0.206542 0.881881 0.000000
0.263977 0.877998 0.000000
0.323362 0.873982 0.000000
0.384209 0.869868 0.000000
0.446031 0.865688 0.000000
0.508340 0.861474 0.000000
0.570650 0.857261 0.000000
0.632471 0.853081 0.000000
0.693319 0.848966 0.000000
0.752703 0.844951 0.000000
0.810139 0.841067 0.000000
0.865137 0.837348 0.000000
0.917210 0.833827 0.000000
0.965871 0.830537 0.000000
1.000000 0.827510 0.000000
1.000000 0.824780 0.000000
1.000000 0.822379 0.000000
1.000000 0.820341 0.000000
1.000000 0.818699 0.000000
1.000000 0.817485 0.000000
1.000000 0.816732 0.000000
1.000000 0.816474 0.000000
0.000000 0.947531 0.000000
0.000000 0.947273 0.000000
0.000000 0.946521 0.000000
0.000000 0.945307 0.000000
0.000000 0.943664 0.000000
0.000000 0.941626 0.000000
0.000000 0.939226 0.000000
0.000000 0.936495 0.000000
0.043691 0.933469 0.000000
0.092352 0.930178 0.000000
0.144425 0.926657 0.000000
0.199423 0.922938 0.000000
0.256859 0.919055 0.000000
0.316243 0.915039 0.000000
0.377091 0.910925 0.000000
0.438912 0.906744 0.000000
0.501222 0.902531 0.000000
0.563531 0.898318 0.000000
0.625353 0.894138 0.000000
0.686200 0.890023 0.000000
0.745585 0.886008 0.000000
0.803020 0.882124 0.000000
0.858018 0.878405 0.000000
0.910092 0.874884 0.000000
0.958753 0.871594 0.000000
1.000000 0.868567 0.000000
1.000000 0.865837 0.000000
1.000000 0.863436 0.000000
1.000000 0.861398 0.000000
1.000000 0.859756 0.000000
1.000000 0.858542 0.000000
1.000000 0.857789 0.000000
1.000000 0.857531 0.000000
0.000000 0.985298 0.000000
0.000000 0.985040 0.000000
0.000000 0.984287 0.000000
0.000000 0.983073 0.000000
0.000000 0.981431 0.000000
0.000000 0.979393 0.000000
0.000000 0.976992 0.000000
0.000000 0.974262 0.000000
0.037143 0.971236 0.000000
0.085804 0.967945 0.000000
0.137878 0.964424 0.000000
0.192876 0.960705 0.000000
0.250311 0.956822 0.000000
0.309696 0.952806 0.000000
0.370543 0.948692 0.000000
0.432365 0.944511 0.000000
0.494674 0.940298 0.000000
0.556983 0.936085 0.000000
0.618805 0.931905 0.000000
0.679653 0.927790 0.000000
0.739037 0.923775 0.000000
0.796472 0.919891 0.000000
0.851470 0.916172 0.000000
0.903544 0.912651 0.000000
0.952205 0.909361 0.000000
0.996967 0.906334 0.000000
1.000000 0.903604 0.000000
1.000000 0.901203 0.000000
1.000000 0.899165 0.000000
1.000000 0.897523 0.000000
1.000000 0.896309 0.000000
1.000000 0.895556 0.000000
1.000000 0.895298 0.000000
0.000000 1.000000 0.000000
0.000000 1.000000 0.000000
0.000000 1.000000 0.000000
0.000000 1.000000 0.000000
0.000000 1.000000 0.000000
0.000000 1.000000 0.000000
0.000000 1.000000 0.000000
0.000000 1.000000 0.000000
0.031237 1.000000 0.000000
0.079898 1.000000 0.000000
0.131972 0.998490 0.000000
0.186970 0.994771 0.000000
0.244405 0.990887 0.000000
0.303789 0.986872 0.000000
0.364637 0.982757 0.000000
0.426459 0.978577 0.000000
0.488768 0.974364 0.000000
0.551077 0.970151 0.000000
0.612899 0.965970 0.000000
0.673746 0.961856 0.000000
0.733131 0.957840 0.000000
0.790566 0.953957 0.000000
0.845564 0.950238 0.000000
0.897638 0.946717 0.000000
0.946299 0.943426 0.000000
0.991061 0.940400 0.000000
1.000000 0.937669 0.000000
