luts/Kodachrome.3dl
0 31 63 95 127 159 191 223 255 287 319 351 383 415 447 479 511 543 575 607 639 671 703 735 767 799 831 863 895 927 959 991 1023
0 0 0
0 0 3
0 0 13
0 0 28
0 0 50
0 0 76
0 0 107
0 0 143
0 0 182
0 0 224
0 0 270
0 0 318
0 0 369
0 0 421
0 0 474
0 0 528
0 0 583
0 0 637
0 0 692
0 0 745
0 0 797
0 0 847
0 0 895
0 0 941
0 0 984
0 0 1023
0 0 1023
0 0 1023
0 0 1023
0 0 1023
0 0 1023
0 0 1023
0 0 1023
0 3 0
0 3 2
0 2 12
0 2 28
0 1 49
0 1 76
0 0 107
0 0 142
0 0 181
0 0 224
0 0 270
0 0 318
0 0 368
0 0 420
0 0 474
0 0 528
0 0 582
0 0 637
0 0 691
0 0 744
0 0 796
0 0 847
0 0 895
0 0 941
0 0 983
0 0 1023
0 0 1023
0 0 1023
0 0 1023
0 0 1023
0 0 1023
0 0 1023
0 0 1023
0 12 0
0 12 1
0 12 11
0 12 27
0 11 48
0 10 74
0 9 105
0 8 141
0 7 180
0 6 223
0 5 268
0 3 316
0 2 367
0 0 419
0 0 472
0 0 526
0 0 581
0 0 636
0 0 690
0 0 743
0 0 795
0 0 845
0 0 894
0 0 939
0 0 982
0 0 1021
0 0 1023
0 0 1023
0 0 1023
0 0 1023
0 0 1023
0 0 1023
0 0 1023
0 28 0
0 28 0
0 28 9
0 27 24
0 26 46
0 26 72
0 25 103
0 24 139
0 23 178
0 21 220
0 20 266
0 19 314
0 17 365
0 16 417
0 14 470
0 13 524
0 11 579
0 9 633
0 8 688
0 6 741
0 5 793
0 3 843
0 2 891
0 1 937
0 0 980
0 0 1019
0 0 1023
0 0 1023
0 0 1023
0 0 1023
0 0 1023
0 0 1023
0 0 1023
0 49 0
0 49 0
0 48 6
0 48 21
0 47 43
0 47 69
0 46 100
0 45 136
0 44 175
0 42 217
0 41 263
0 40 311
0 38 362
0 37 414
0 35 467
0 34 521
0 32 576
0 30 630
0 29 685
0 27 738
0 26 790
0 24 840
0 23 888
0 22 934
0 20 977
0 19 1016
0 18 1023
0 17 1023
0 17 1023
0 16 1023
0 15 1023
0 15 1023
0 15 1023
0 75 0
0 75 0
0 74 2
0 74 18
0 73 39
0 73 65
0 72 96
0 71 132
0 70 171
0 68 214
0 67 259
0 66 308
0 64 358
0 63 410
0 61 463
0 60 517
0 58 572
0 56 627
0 55 681
0 53 734
0 52 786
0 50 837
0 49 885
0 48 930
0 46 973
0 45 1012
0 44 1023
0 43 1023
0 43 1023
0 42 1023
0 41 1023
0 41 1023
0 41 1023
0 106 0
0 105 0
0 105 0
0 105 13
0 104 35
0 103 61
0 102 92
0 101 127
0 100 167
0 99 209
0 98 255
0 96 303
0 95 354
0 93 406
0 92 459
0 90 513
0 89 568
0 87 622
0 85 677
0 84 730
0 82 782
0 81 832
0 80 880
0 78 926
0 77 969
0 76 1008
0 75 1023
0 74 1023
0 73 1023
0 73 1023
0 72 1023
0 72 1023
0 72 1023
0 140 0
0 140 0
0 140 0
0 140 8
0 139 30
0 138 56
0 137 87
0 136 123
0 135 162
0 134 204
0 133 250
0 131 298
0 130 349
0 128 401
0 127 454
0 125 508
0 123 563
0 122 617
0 120 672
0 119 725
0 117 777
0 116 827
0 114 875
0 113 921
0 112 964
0 111 1003
0 110 1023
0 109 1023
0 108 1023
0 107 1023
0 107 1023
0 107 1023
0 107 1023
0 179 0
0 179 0
0 179 0
0 178 3
0 178 24
0 177 51
0 176 82
0 175 117
0 174 156
0 172 199
0 171 245
0 170 293
0 168 343
0 167 395
0 165 449
0 164 503
0 162 557
0 161 612
0 159 666
0 157 719
0 156 771
0 154 822
0 153 870
0 152 916
0 151 958
0 149 998
0 148 1023
0 147 1023
0 147 1023
0 146 1023
0 146 1023
0 145 1023
0 145 1023
0 221 0
0 221 0
0 221 0
0 220 0
0 220 18
0 219 45
0 218 76
0 217 111
0 216 150
0 214 193
0 213 239
0 212 287
0 210 337
0 209 389
0 207 443
0 206 497
0 204 551
0 203 606
0 201 660
0 199 713
0 198 766
0 196 816
0 195 864
0 194 910
0 193 952
0 191 992
0 190 1023
0 189 1023
0 189 1023
0 188 1023
0 188 1023
0 187 1023
0 187 1023
0 266 0
0 266 0
0 266 0
0 265 0
0 265 12
0 264 38
0 263 69
0 262 105
0 261 144
0 259 187
0 258 232
0 257 280
0 255 331
0 254 383
0 252 436
0 251 490
0 249 545
0 247 600
0 246 654
0 244 707
0 243 759
0 241 809
0 240 858
0 239 903
0 237 946
0 236 985
0 235 1021
0 234 1023
0 234 1023
0 233 1023
0 233 1023
0 232 1023
0 232 1023
0 313 0
0 313 0
0 313 0
0 313 0
0 312 5
0 311 32
0 310 63
0 309 98
0 308 137
0 307 180
0 306 226
0 304 274
0 303 324
0 301 376
0 300 429
0 298 484
0 297 538
0 295 593
0 293 647
0 292 700
0 290 752
0 289 803
0 287 851
0 286 897
0 285 939
0 284 978
0 283 1014
0 282 1023
0 281 1023
0 280 1023
0 280 1023
0 280 1023
0 280 1023
0 363 0
0 363 0
0 363 0
0 362 0
0 362 0
0 361 24
0 360 56
0 359 91
0 358 130
0 356 173
0 355 218
0 354 267
0 352 317
0 351 369
0 349 422
0 348 477
0 346 531
0 345 586
0 343 640
0 341 693
0 340 745
0 338 796
0 337 844
0 336 890
0 335 932
0 333 971
0 332 1007
0 331 1023
0 331 1023
0 330 1023
0 330 1023
0 329 1023
0 329 1023
0 414 0
0 414 0
0 414 0
0 413 0
0 413 0
0 412 17
0 411 48
0 410 84
0 409 123
0 408 166
0 406 211
0 405 259
0 404 310
0 402 362
0 401 415
0 399 469
0 397 524
0 396 579
0 394 633
0 393 686
0 391 738
0 390 788
0 388 837
0 387 882
0 386 925
0 385 964
0 384 1000
0 383 1023
0 382 1023
0 381 1023
0 381 1023
0 381 1023
0 380 1023
0 467 0
0 467 0
0 466 0
0 466 0
0 465 0
0 465 10
0 464 41
0 463 76
0 461 115
0 460 158
0 459 204
0 458 252
0 456 302
0 455 354
0 453 408
0 451 462
0 450 516
0 448 571
0 447 625
0 445 679
0 444 731
0 442 781
0 441 829
0 440 875
0 438 917
0 437 957
0 436 992
0 435 1023
0 434 1023
0 434 1023
0 433 1023
0 433 1023
0 433 1023
0 520 0
0 520 0
0 520 0
0 519 0
0 519 0
0 518 2
0 517 33
0 516 69
0 515 108
0 514 151
0 512 196
0 511 244
0 509 295
0 508 347
0 506 400
0 505 454
0 503 509
0 502 564
0 500 618
0 499 671
0 497 723
0 496 773
0 494 822
0 493 867
0 492 910
0 491 949
0 489 985
0 489 1016
0 488 1023
0 487 1023
0 487 1023
0 486 1023
0 486 1023
0 574 0
0 574 0
0 574 0
0 573 0
0 572 0
0 572 0
0 571 26
0 570 61
0 569 100
0 567 143
0 566 189
0 565 237
0 563 287
0 562 339
0 560 392
0 559 447
0 557 501
0 555 556
0 554 610
0 552 663
0 551 715
0 549 766
0 548 814
0 547 860
0 545 902
0 544 942
0 543 977
0 542 1008
0 542 1023
0 541 1023
0 541 1023
0 540 1023
0 540 1023
0 628 0
0 628 0
0 627 0
0 627 0
0 626 0
0 625 0
0 625 18
0 624 53
0 622 93
0 621 135
0 620 181
0 618 229
0 617 279
0 616 332
0 614 385
0 612 439
0 611 494
0 609 548
0 608 602
0 606 656
0 605 708
0 603 758
0 602 806
0 600 852
0 599 895
0 598 934
0 597 969
0 596 1000
0 595 1023
0 595 1023
0 594 1023
0 594 1023
0 594 1023
0 681 0
0 681 0
0 681 0
0 680 0
0 680 0
0 679 0
0 678 10
0 677 46
0 676 85
0 675 128
0 673 173
0 672 222
0 670 272
0 669 324
0 667 377
0 666 431
0 664 486
0 663 541
0 661 595
0 659 648
0 658 700
0 657 751
0 655 799
0 654 844
0 653 887
0 651 926
0 650 962
0 650 993
0 649 1019
0 648 1023
0 648 1023
0 647 1023
0 647 1023
0 734 0
0 733 0
0 733 0
0 733 0
0 732 0
0 731 0
0 730 3
0 729 38
0 728 78
0 727 120
0 726 166
0 724 214
0 723 264
0 721 317
0 720 370
0 718 424
0 717 479
0 715 533
0 714 587
0 712 641
0 710 693
0 709 743
0 708 791
0 706 837
0 705 880
0 704 919
0 703 954
0 702 985
0 701 1012
0 701 1023
0 700 1023
0 700 1023
0 700 1023
0 785 0
0 785 0
0 784 0
0 784 0
0 783 0
0 783 0
0 782 0
0 781 31
0 780 70
0 778 113
0 777 159
0 776 207
0 774 257
0 773 309
0 771 363
0 770 417
0 768 471
0 766 526
0 765 580
0 763 633
0 762 686
0 760 736
0 759 784
0 758 830
0 756 872
0 755 912
0 754 947
0 753 978
0 753 1005
0 752 1023
0 751 1023
0 751 1023
0 751 1023
0 834 0
0 834 0
0 834 0
0 834 0
0 833 0
0 832 0
0 831 0
0 830 24
0 829 63
0 828 106
0 827 152
0 825 200
0 824 250
0 822 302
0 821 356
0 819 410
0 818 464
0 816 519
0 814 573
0 813 626
0 811 678
0 810 729
0 808 777
0 807 823
0 806 865
0 805 905
0 804 940
0 803 971
0 802 997
0 801 1019
0 801 1023
0 801 1023
0 801 1023
0 882 0
0 882 0
0 881 0
0 881 0
0 880 0
0 880 0
0 879 0
0 878 17
0 877 57
0 875 99
0 874 145
0 873 193
0 871 243
0 870 295
0 868 349
0 867 403
0 865 458
0 863 512
0 862 566
0 860 620
0 859 672
0 857 722
0 856 770
0 855 816
0 853 859
0 852 898
0 851 933
0 850 964
0 850 991
0 849 1012
0 848 1023
0 848 1023
0 848 1023
0 927 0
0 927 0
0 926 0
0 926 0
0 925 0
0 925 0
0 924 0
0 923 11
0 922 50
0 920 93
0 919 139
0 918 187
0 916 237
0 915 289
0 913 342
0 912 397
0 910 451
0 908 506
0 907 560
0 905 613
0 904 665
0 902 716
0 901 764
0 900 810
0 898 852
0 897 891
0 896 927
0 895 958
0 895 984
0 894 1006
0 893 1021
0 893 1023
0 893 1023
0 969 0
0 969 0
0 968 0
0 968 0
0 967 0
0 967 0
0 966 0
0 965 5
0 964 44
0 962 87
0 961 133
0 960 181
0 958 231
0 957 283
0 955 336
0 954 391
0 952 445
0 950 500
0 949 554
0 947 607
0 946 659
0 944 710
0 943 758
0 942 804
0 940 846
0 939 885
0 938 921
0 937 952
0 937 978
0 936 1000
0 935 1015
0 935 1023
0 935 1023
0 1007 0
0 1007 0
0 1007 0
0 1007 0
0 1006 0
0 1005 0
0 1004 0
0 1003 0
0 1002 39
0 1001 81
0 1000 127
0 998 175
0 997 226
0 995 278
0 994 331
0 992 385
0 991 440
0 989 494
0 987 549
0 986 602
0 984 654
0 983 704
0 982 752
0 980 798
0 979 841
0 978 880
0 977 915
0 976 947
0 975 973
0 975 994
0 974 1010
0 974 1020
0 974 1023
0 1023 0
0 1023 0
0 1023 0
0 1023 0
0 1023 0
0 1023 0
0 1023 0
0 1023 0
0 1023 34
0 1023 76
0 1023 122
0 1023 170
0 1023 221
0 1023 273
0 1023 326
0 1023 380
0 1023 435
0 1023 489
0 1022 544
0 1021 597
0 1019 649
0 1018 699
0 1016 748
0 1015 793
0 1014 836
0 1013 875
0 1012 910
0 1011 942
0 1010 968
0 1009 989
0 1009 1005
0 1009 1015
0 1009 1018
0 1023 0
0 1023 0
0 1023 0
0 1023 0
0 1023 0
0 1023 0
0 1023 0
0 1023 0
0 1023 29
