luts/Sepia.cube
TITLE "Sepia"
LUT_3D_SIZE 5
DOMAIN_MIN 0.0 0.0 0.0
DOMAIN_MAX 1.0 1.0 1.0
0.000000 0.000000 0.000000
0.143775 0.061075 0.047600
0.287550 0.122150 0.095200
0.431325 0.183225 0.142800
0.575100 0.244300 0.190400
0.134575 0.195050 0.093450
0.278350 0.256125 0.141050
0.422125 0.317200 0.188650
0.565900 0.378275 0.236250
0.709675 0.439350 0.283850
0.269150 0.390100 0.186900
0.412925 0.451175 0.234500
0.556700 0.512250 0.282100
0.700475 0.573325 0.329700
0.844250 0.634400 0.377300
0.403725 0.585150 0.280350
0.547500 0.646225 0.327950
0.691275 0.707300 0.375550
0.835050 0.768375 0.423150
0.978825 0.829450 0.470750
0.538300 0.780200 0.373800
0.682075 0.841275 0.421400
0.825850 0.902350 0.469000
0.969625 0.963425 0.516600
1.000000 1.000000 0.564200
0.033075 0.029400 0.097925
0.176850 0.090475 0.145525
0.320625 0.151550 0.193125
0.464400 0.212625 0.240725
0.608175 0.273700 0.288325
0.167650 0.224450 0.191375
0.311425 0.285525 0.238975
0.455200 0.346600 0.286575
0.598975 0.407675 0.334175
0.742750 0.468750 0.381775
0.302225 0.419500 0.284825
0.446000 0.480575 0.332425
0.589775 0.541650 0.380025
0.733550 0.602725 0.427625
0.877325 0.663800 0.475225
0.436800 0.614550 0.378275
0.580575 0.675625 0.425875
0.724350 0.736700 0.473475
0.868125 0.797775 0.521075
1.000000 0.858850 0.568675
0.571375 0.809600 0.471725
0.715150 0.870675 0.519325
0.858925 0.931750 0.566925
1.000000 0.992825 0.614525
1.000000 1.000000 0.662125
0.066150 0.058800 0.195850
0.209925 0.119875 0.243450
0.353700 0.180950 0.291050
0.497475 0.242025 0.338650
0.641250 0.303100 0.386250
0.200725 0.253850 0.289300
0.344500 0.314925 0.336900
0.488275 0.376000 0.384500
0.632050 0.437075 0.432100
0.775825 0.498150 0.479700
0.335300 0.448900 0.382750
0.479075 0.509975 0.430350
0.622850 0.571050 0.477950
0.766625 0.632125 0.525550
0.910400 0.693200 0.573150
0.469875 0.643950 0.476200
0.613650 0.705025 0.523800
0.757425 0.766100 0.571400
0.901200 0.827175 0.619000
1.000000 0.888250 0.666600
0.604450 0.839000 0.569650
0.748225 0.900075 0.617250
0.892000 0.961150 0.664850
1.000000 1.000000 0.712450
1.000000 1.000000 0.760050
0.099225 0.088200 0.293775
0.243000 0.149275 0.341375
0.386775 0.210350 0.388975
0.530550 0.271425 0.436575
0.674325 0.332500 0.484175
0.233800 0.283250 0.387225
0.377575 0.344325 0.434825
0.521350 0.405400 0.482425
0.665125 0.466475 0.530025
0.808900 0.527550 0.577625
0.368375 0.478300 0.480675
0.512150 0.539375 0.528275
0.655925 0.600450 0.575875
0.799700 0.661525 0.623475
0.943475 0.722600 0.671075
0.502950 0.673350 0.574125
0.646725 0.734425 0.621725
0.790500 0.795500 0.669325
0.934275 0.856575 0.716925
1.000000 0.917650 0.764525
0.637525 0.868400 0.667575
0.781300 0.929475 0.715175
0.925075 0.990550 0.762775
1.000000 1.000000 0.810375
1.000000 1.000000 0.857975
0.132300 0.117600 0.391700
0.276075 0.178675 0.439300
0.419850 0.239750 0.486900
0.563625 0.300825 0.534500
0.707400 0.361900 0.582100
0.266875 0.312650 0.485150
0.410650 0.373725 0.532750
0.554425 0.434800 0.580350
0.698200 0.495875 0.627950
0.841975 0.556950 0.675550
0.401450 0.507700 0.578600
0.545225 0.568775 0.626200
0.689000 0.629850 0.673800
0.832775 0.690925 0.721400
0.976550 0.752000 0.769000
0.536025 0.702750 0.672050
0.679800 0.763825 0.719650
0.823575 0.824900 0.767250
0.967350 0.885975 0.814850
1.000000 0.947050 0.862450
0.670600 0.897800 0.765500
0.814375 0.958875 0.813100
0.958150 1.000000 0.860700
1.000000 1.000000 0.908300
1.000000 1.000000 0.955900
