luts/Sepia.cube
TITLE "Sepia"
LUT_3D_SIZE 33
DOMAIN_MIN 0.0 0.0 0.0
DOMAIN_MAX 1.0 1.0 1.0
0.000000 0.000000 0.000000
0.017972 0.007634 0.005950
0.035944 0.015269 0.011900
0.053916 0.022903 0.017850
0.071888 0.030537 0.023800
0.089859 0.038172 0.029750
0.107831 0.045806 0.035700
0.125803 0.053441 0.041650
0.143775 0.061075 0.047600
0.161747 0.068709 0.053550
0.179719 0.076344 0.059500
0.197691 0.083978 0.065450
0.215663 0.091612 0.071400
0.233634 0.099247 0.077350
0.251606 0.106881 0.083300
0.269578 0.114516 0.089250
0.287550 0.122150 0.095200
0.305522 0.129784 0.101150
0.323494 0.137419 0.107100
0.341466 0.145053 0.113050
0.359438 0.152687 0.119000
0.377409 0.160322 0.124950
0.395381 0.167956 0.130900
0.413353 0.175591 0.136850
0.431325 0.183225 0.142800
0.449297 0.190859 0.148750
0.467269 0.198494 0.154700
0.485241 0.206128 0.160650
0.503213 0.213762 0.166600
0.521184 0.221397 0.172550
0.539156 0.229031 0.178500
0.557128 0.236666 0.184450
0.575100 0.244300 0.190400
0.016822 0.024381 0.011681
0.034794 0.032016 0.017631
0.052766 0.039650 0.023581
0.070738 0.047284 0.029531
0.088709 0.054919 0.035481
0.106681 0.062553 0.041431
0.124653 0.070187 0.047381
0.142625 0.077822 0.053331
0.160597 0.085456 0.059281
0.178569 0.093091 0.065231
0.196541 0.100725 0.071181
0.214513 0.108359 0.077131
0.232484 0.115994 0.083081
0.250456 0.123628 0.089031
0.268428 0.131262 0.094981
0.286400 0.138897 0.100931
0.304372 0.146531 0.106881
0.322344 0.154166 0.112831
0.340316 0.161800 0.118781
0.358288 0.169434 0.124731
0.376259 0.177069 0.130681
0.394231 0.184703 0.136631
0.412203 0.192337 0.142581
0.430175 0.199972 0.148531
0.448147 0.207606 0.154481
0.466119 0.215241 0.160431
0.484091 0.222875 0.166381
0.502063 0.230509 0.172331
0.520034 0.238144 0.178281
0.538006 0.245778 0.184231
0.555978 0.253412 0.190181
0.573950 0.261047 0.196131
0.591922 0.268681 0.202081
0.033644 0.048763 0.023363
0.051616 0.056397 0.029312
0.069587 0.064031 0.035263
0.087559 0.071666 0.041212
0.105531 0.079300 0.047163
0.123503 0.086934 0.053112
0.141475 0.094569 0.059062
0.159447 0.102203 0.065013
0.177419 0.109837 0.070962
0.195391 0.117472 0.076913
0.213363 0.125106 0.082863
0.231334 0.132741 0.088813
0.249306 0.140375 0.094763
0.267278 0.148009 0.100713
0.285250 0.155644 0.106663
0.303222 0.163278 0.112612
0.321194 0.170912 0.118562
0.339166 0.178547 0.124512
0.357137 0.186181 0.130463
0.375109 0.193816 0.136412
0.393081 0.201450 0.142363
0.411053 0.209084 0.148313
0.429025 0.216719 0.154262
0.446997 0.224353 0.160212
0.464969 0.231987 0.166162
0.482941 0.239622 0.172113
0.500913 0.247256 0.178063
0.518884 0.254891 0.184012
0.536856 0.262525 0.189963
0.554828 0.270159 0.195913
0.572800 0.277794 0.201862
0.590772 0.285428 0.207812
0.608744 0.293062 0.213762
0.050466 0.073144 0.035044
0.068437 0.080778 0.040994
0.086409 0.088413 0.046944
0.104381 0.096047 0.052894
0.122353 0.103681 0.058844
0.140325 0.111316 0.064794
0.158297 0.118950 0.070744
0.176269 0.126584 0.076694
0.194241 0.134219 0.082644
0.212212 0.141853 0.088594
0.230184 0.149487 0.094544
0.248156 0.157122 0.100494
0.266128 0.164756 0.106444
0.284100 0.172391 0.112394
0.302072 0.180025 0.118344
0.320044 0.187659 0.124294
0.338016 0.195294 0.130244
0.355988 0.202928 0.136194
0.373959 0.210562 0.142144
0.391931 0.218197 0.148094
0.409903 0.225831 0.154044
0.427875 0.233466 0.159994
0.445847 0.241100 0.165944
0.463819 0.248734 0.171894
0.481791 0.256369 0.177844
0.499762 0.264003 0.183794
0.517734 0.271637 0.189744
0.535706 0.279272 0.195694
0.553678 0.286906 0.201644
0.571650 0.294541 0.207594
0.589622 0.302175 0.213544
0.607594 0.309809 0.219494
0.625566 0.317444 0.225444
0.067288 0.097525 0.046725
0.085259 0.105159 0.052675
0.103231 0.112794 0.058625
0.121203 0.120428 0.064575
0.139175 0.128063 0.070525
0.157147 0.135697 0.076475
0.175119 0.143331 0.082425
0.193091 0.150966 0.088375
0.211063 0.158600 0.094325
0.229034 0.166234 0.100275
0.247006 0.173869 0.106225
0.264978 0.181503 0.112175
0.282950 0.189138 0.118125
0.300922 0.196772 0.124075
0.318894 0.204406 0.130025
0.336866 0.212041 0.135975
0.354838 0.219675 0.141925
0.372809 0.227309 0.147875
0.390781 0.234944 0.153825
0.408753 0.242578 0.159775
0.426725 0.250213 0.165725
0.444697 0.257847 0.171675
0.462669 0.265481 0.177625
0.480641 0.273116 0.183575
0.498613 0.280750 0.189525
0.516584 0.288384 0.195475
0.534556 0.296019 0.201425
0.552528 0.303653 0.207375
0.570500 0.311287 0.213325
0.588472 0.318922 0.219275
0.606444 0.326556 0.225225
0.624416 0.334191 0.231175
0.642388 0.341825 0.237125
0.084109 0.121906 0.058406
0.102081 0.129541 0.064356
0.120053 0.137175 0.070306
0.138025 0.144809 0.076256
0.155997 0.152444 0.082206
0.173969 0.160078 0.088156
0.191941 0.167712 0.094106
0.209913 0.175347 0.100056
0.227884 0.182981 0.106006
0.245856 0.190616 0.111956
0.263828 0.198250 0.117906
0.281800 0.205884 0.123856
0.299772 0.213519 0.129806
0.317744 0.221153 0.135756
0.335716 0.228787 0.141706
0.353688 0.236422 0.147656
0.371659 0.244056 0.153606
0.389631 0.251691 0.159556
0.407603 0.259325 0.165506
0.425575 0.266959 0.171456
0.443547 0.274594 0.177406
0.461519 0.282228 0.183356
0.479491 0.289862 0.189306
0.497463 0.297497 0.195256
0.515434 0.305131 0.201206
0.533406 0.312766 0.207156
0.551378 0.320400 0.213106
0.569350 0.328034 0.219056
0.587322 0.335669 0.225006
0.605294 0.343303 0.230956
0.623266 0.350937 0.236906
0.641237 0.358572 0.242856
0.659209 0.366206 0.248806
0.100931 0.146288 0.070087
0.118903 0.153922 0.076037
0.136875 0.161556 0.081988
0.154847 0.169191 0.087938
0.172819 0.176825 0.093887
0.190791 0.184459 0.099837
0.208762 0.192094 0.105788
0.226734 0.199728 0.111738
0.244706 0.207363 0.117688
0.262678 0.214997 0.123638
0.280650 0.222631 0.129587
0.298622 0.230266 0.135537
0.316594 0.237900 0.141487
0.334566 0.245534 0.147437
0.352538 0.253169 0.153388
0.370509 0.260803 0.159337
0.388481 0.268437 0.165288
0.406453 0.276072 0.171238
0.424425 0.283706 0.177188
0.442397 0.291341 0.183137
0.460369 0.298975 0.189087
0.478341 0.306609 0.195038
0.496313 0.314244 0.200988
0.514284 0.321878 0.206937
0.532256 0.329513 0.212888
0.550228 0.337147 0.218838
0.568200 0.344781 0.224788
0.586172 0.352416 0.230737
0.604144 0.360050 0.236687
0.622116 0.367684 0.242638
0.640088 0.375319 0.248587
0.658059 0.382953 0.254538
0.676031 0.390587 0.260488
0.117753 0.170669 0.081769
0.135725 0.178303 0.087719
0.153697 0.185938 0.093669
0.171669 0.193572 0.099619
0.189641 0.201206 0.105569
0.207612 0.208841 0.111519
0.225584 0.216475 0.117469
0.243556 0.224109 0.123419
0.261528 0.231744 0.129369
0.279500 0.239378 0.135319
0.297472 0.247012 0.141269
0.315444 0.254647 0.147219
0.333416 0.262281 0.153169
0.351388 0.269916 0.159119
0.369359 0.277550 0.165069
0.387331 0.285184 0.171019
0.405303 0.292819 0.176969
0.423275 0.300453 0.182919
0.441247 0.308087 0.188869
0.459219 0.315722 0.194819
0.477191 0.323356 0.200769
0.495163 0.330991 0.206719
0.513134 0.338625 0.212669
0.531106 0.346259 0.218619
0.549078 0.353894 0.224569
0.567050 0.361528 0.230519
0.585022 0.369163 0.236469
0.602994 0.376797 0.242419
0.620966 0.384431 0.248369
0.638938 0.392066 0.254319
0.656909 0.399700 0.260269
0.674881 0.407334 0.266219
0.692853 0.414969 0.272169
0.134575 0.195050 0.093450
0.152547 0.202684 0.099400
0.170519 0.210319 0.105350
0.188491 0.217953 0.111300
0.206462 0.225587 0.117250
0.224434 0.233222 0.123200
0.242406 0.240856 0.129150
0.260378 0.248491 0.135100
0.278350 0.256125 0.141050
0.296322 0.263759 0.147000
0.314294 0.271394 0.152950
0.332266 0.279028 0.158900
0.350237 0.286663 0.164850
0.368209 0.294297 0.170800
0.386181 0.301931 0.176750
0.404153 0.309566 0.182700
0.422125 0.317200 0.188650
0.440097 0.324834 0.194600
0.458069 0.332469 0.200550
0.476041 0.340103 0.206500
0.494012 0.347737 0.212450
0.511984 0.355372 0.218400
0.529956 0.363006 0.224350
0.547928 0.370641 0.230300
0.565900 0.378275 0.236250
0.583872 0.385909 0.242200
0.601844 0.393544 0.248150
0.619816 0.401178 0.254100
0.637788 0.408812 0.260050
0.655759 0.416447 0.266000
0.673731 0.424081 0.271950
0.691703 0.431716 0.277900
0.709675 0.439350 0.283850
0.151397 0.219431 0.105131
0.169369 0.227066 0.111081
0.187341 0.234700 0.117031
0.205312 0.242334 0.122981
0.223284 0.249969 0.128931
0.241256 0.257603 0.134881
0.259228 0.265238 0.140831
0.277200 0.272872 0.146781
0.295172 0.280506 0.152731
0.313144 0.288141 0.158681
0.331116 0.295775 0.164631
0.349087 0.303409 0.170581
0.367059 0.311044 0.176531
0.385031 0.318678 0.182481
0.403003 0.326312 0.188431
0.420975 0.333947 0.194381
0.438947 0.341581 0.200331
0.456919 0.349216 0.206281
0.474891 0.356850 0.212231
0.492863 0.364484 0.218181
0.510834 0.372119 0.224131
0.528806 0.379753 0.230081
0.546778 0.387387 0.236031
0.564750 0.395022 0.241981
0.582722 0.402656 0.247931
0.600694 0.410291 0.253881
0.618666 0.417925 0.259831
0.636637 0.425559 0.265781
0.654609 0.433194 0.271731
0.672581 0.440828 0.277681
0.690553 0.448462 0.283631
0.708525 0.456097 0.289581
0.726497 0.463731 0.295531
0.168219 0.243812 0.116812
0.186191 0.251447 0.122762
0.204163 0.259081 0.128713
0.222134 0.266716 0.134662
0.240106 0.274350 0.140613
0.258078 0.281984 0.146562
0.276050 0.289619 0.152512
0.294022 0.297253 0.158462
0.311994 0.304888 0.164412
0.329966 0.312522 0.170363
0.347938 0.320156 0.176313
0.365909 0.327791 0.182262
0.383881 0.335425 0.188212
0.401853 0.343059 0.194163
0.419825 0.350694 0.200112
0.437797 0.358328 0.206062
0.455769 0.365962 0.212012
0.473741 0.373597 0.217963
0.491712 0.381231 0.223912
0.509684 0.388866 0.229862
0.527656 0.396500 0.235813
0.545628 0.404134 0.241762
0.563600 0.411769 0.247712
0.581572 0.419403 0.253663
0.599544 0.427038 0.259612
0.617516 0.434672 0.265562
0.635487 0.442306 0.271512
0.653459 0.449941 0.277463
0.671431 0.457575 0.283412
0.689403 0.465209 0.289363
0.707375 0.472844 0.295312
0.725347 0.480478 0.301262
0.743319 0.488112 0.307212
0.185041 0.268194 0.128494
0.203012 0.275828 0.134444
0.220984 0.283463 0.140394
0.238956 0.291097 0.146344
0.256928 0.298731 0.152294
0.274900 0.306366 0.158244
0.292872 0.314000 0.164194
0.310844 0.321634 0.170144
0.328816 0.329269 0.176094
0.346787 0.336903 0.182044
0.364759 0.344537 0.187994
0.382731 0.352172 0.193944
0.400703 0.359806 0.199894
0.418675 0.367441 0.205844
0.436647 0.375075 0.211794
0.454619 0.382709 0.217744
0.472591 0.390344 0.223694
0.490563 0.397978 0.229644
0.508534 0.405612 0.235594
0.526506 0.413247 0.241544
0.544478 0.420881 0.247494
0.562450 0.428516 0.253444
0.580422 0.436150 0.259394
0.598394 0.443784 0.265344
0.616366 0.451419 0.271294
0.634337 0.459053 0.277244
0.652309 0.466688 0.283194
0.670281 0.474322 0.289144
0.688253 0.481956 0.295094
0.706225 0.489591 0.301044
0.724197 0.497225 0.306994
0.742169 0.504859 0.312944
0.760141 0.512494 0.318894
0.201862 0.292575 0.140175
0.219834 0.300209 0.146125
0.237806 0.307844 0.152075
0.255778 0.315478 0.158025
0.273750 0.323113 0.163975
0.291722 0.330747 0.169925
0.309694 0.338381 0.175875
0.327666 0.346016 0.181825
0.345637 0.353650 0.187775
0.363609 0.361284 0.193725
0.381581 0.368919 0.199675
0.399553 0.376553 0.205625
0.417525 0.384188 0.211575
0.435497 0.391822 0.217525
0.453469 0.399456 0.223475
0.471441 0.407091 0.229425
0.489413 0.414725 0.235375
0.507384 0.422359 0.241325
0.525356 0.429994 0.247275
0.543328 0.437628 0.253225
0.561300 0.445263 0.259175
0.579272 0.452897 0.265125
0.597244 0.460531 0.271075
0.615216 0.468166 0.277025
0.633188 0.475800 0.282975
0.651159 0.483434 0.288925
0.669131 0.491069 0.294875
0.687103 0.498703 0.300825
0.705075 0.506337 0.306775
0.723047 0.513972 0.312725
0.741019 0.521606 0.318675
0.758991 0.529241 0.324625
0.776963 0.536875 0.330575
0.218684 0.316956 0.151856
0.236656 0.324591 0.157806
0.254628 0.332225 0.163756
0.272600 0.339859 0.169706
0.290572 0.347494 0.175656
0.308544 0.355128 0.181606
0.326516 0.362762 0.187556
0.344488 0.370397 0.193506
0.362459 0.378031 0.199456
0.380431 0.385666 0.205406
0.398403 0.393300 0.211356
0.416375 0.400934 0.217306
0.434347 0.408569 0.223256
0.452319 0.416203 0.229206
0.470291 0.423837 0.235156
0.488263 0.431472 0.241106
0.506234 0.439106 0.247056
0.524206 0.446741 0.253006
0.542178 0.454375 0.258956
0.560150 0.462009 0.264906
0.578122 0.469644 0.270856
0.596094 0.477278 0.276806
0.614066 0.484912 0.282756
0.632038 0.492547 0.288706
0.650009 0.500181 0.294656
0.667981 0.507816 0.300606
0.685953 0.515450 0.306556
0.703925 0.523084 0.312506
0.721897 0.530719 0.318456
0.739869 0.538353 0.324406
0.757841 0.545987 0.330356
0.775813 0.553622 0.336306
0.793784 0.561256 0.342256
0.235506 0.341338 0.163538
0.253478 0.348972 0.169488
0.271450 0.356606 0.175438
0.289422 0.364241 0.181388
0.307394 0.371875 0.187337
0.325366 0.379509 0.193288
0.343338 0.387144 0.199238
0.361309 0.394778 0.205187
0.379281 0.402413 0.211138
0.397253 0.410047 0.217088
0.415225 0.417681 0.223038
0.433197 0.425316 0.228987
0.451169 0.432950 0.234938
0.469141 0.440584 0.240888
0.487113 0.448219 0.246837
0.505084 0.455853 0.252787
0.523056 0.463488 0.258738
0.541028 0.471122 0.264688
0.559000 0.478756 0.270638
0.576972 0.486391 0.276588
0.594944 0.494025 0.282537
0.612916 0.501659 0.288488
0.630888 0.509294 0.294438
0.648859 0.516928 0.300388
0.666831 0.524563 0.306337
0.684803 0.532197 0.312287
0.702775 0.539831 0.318238
0.720747 0.547466 0.324187
0.738719 0.555100 0.330138
0.756691 0.562734 0.336087
0.774663 0.570369 0.342037
0.792634 0.578003 0.347988
0.810606 0.585638 0.353937
0.252328 0.365719 0.175219
0.270300 0.373353 0.181169
0.288272 0.380988 0.187119
0.306244 0.388622 0.193069
0.324216 0.396256 0.199019
0.342187 0.403891 0.204969
0.360159 0.411525 0.210919
0.378131 0.419159 0.216869
0.396103 0.426794 0.222819
0.414075 0.434428 0.228769
0.432047 0.442063 0.234719
0.450019 0.449697 0.240669
0.467991 0.457331 0.246619
0.485962 0.464966 0.252569
0.503934 0.472600 0.258519
0.521906 0.480234 0.264469
0.539878 0.487869 0.270419
0.557850 0.495503 0.276369
0.575822 0.503138 0.282319
0.593794 0.510772 0.288269
0.611766 0.518406 0.294219
0.629738 0.526041 0.300169
0.647709 0.533675 0.306119
0.665681 0.541309 0.312069
0.683653 0.548944 0.318019
0.701625 0.556578 0.323969
0.719597 0.564213 0.329919
0.737569 0.571847 0.335869
0.755541 0.579481 0.341819
0.773513 0.587116 0.347769
0.791484 0.594750 0.353719
0.809456 0.602384 0.359669
0.827428 0.610019 0.365619
0.269150 0.390100 0.186900
0.287122 0.397734 0.192850
0.305094 0.405369 0.198800
0.323066 0.413003 0.204750
0.341037 0.420637 0.210700
0.359009 0.428272 0.216650
0.376981 0.435906 0.222600
0.394953 0.443541 0.228550
0.412925 0.451175 0.234500
0.430897 0.458809 0.240450
0.448869 0.466444 0.246400
0.466841 0.474078 0.252350
0.484812 0.481713 0.258300
0.502784 0.489347 0.264250
0.520756 0.496981 0.270200
0.538728 0.504616 0.276150
0.556700 0.512250 0.282100
0.574672 0.519884 0.288050
0.592644 0.527519 0.294000
0.610616 0.535153 0.299950
0.628588 0.542787 0.305900
0.646559 0.550422 0.311850
0.664531 0.558056 0.317800
0.682503 0.565691 0.323750
0.700475 0.573325 0.329700
0.718447 0.580959 0.335650
0.736419 0.588594 0.341600
0.754391 0.596228 0.347550
0.772363 0.603862 0.353500
0.790334 0.611497 0.359450
0.808306 0.619131 0.365400
0.826278 0.626766 0.371350
0.844250 0.634400 0.377300
0.285972 0.414481 0.198581
0.303944 0.422116 0.204531
0.321916 0.429750 0.210481
0.339888 0.437384 0.216431
0.357859 0.445019 0.222381
0.375831 0.452653 0.228331
0.393803 0.460287 0.234281
0.411775 0.467922 0.240231
0.429747 0.475556 0.246181
0.447719 0.483191 0.252131
0.465691 0.490825 0.258081
0.483662 0.498459 0.264031
0.501634 0.506094 0.269981
0.519606 0.513728 0.275931
0.537578 0.521363 0.281881
0.555550 0.528997 0.287831
0.573522 0.536631 0.293781
0.591494 0.544266 0.299731
0.609466 0.551900 0.305681
0.627437 0.559534 0.311631
0.645409 0.567169 0.317581
0.663381 0.574803 0.323531
0.681353 0.582437 0.329481
0.699325 0.590072 0.335431
0.717297 0.597706 0.341381
0.735269 0.605341 0.347331
0.753241 0.612975 0.353281
0.771213 0.620609 0.359231
0.789184 0.628244 0.365181
0.807156 0.635878 0.371131
0.825128 0.643512 0.377081
0.843100 0.651147 0.383031
0.861072 0.658781 0.388981
0.302794 0.438862 0.210262
0.320766 0.446497 0.216213
0.338737 0.454131 0.222162
0.356709 0.461766 0.228112
0.374681 0.469400 0.234062
0.392653 0.477034 0.240012
0.410625 0.484669 0.245962
0.428597 0.492303 0.251912
0.446569 0.499937 0.257862
0.464541 0.507572 0.263813
0.482513 0.515206 0.269763
0.500484 0.522841 0.275712
0.518456 0.530475 0.281662
0.536428 0.538109 0.287612
0.554400 0.545744 0.293563
0.572372 0.553378 0.299512
0.590344 0.561013 0.305462
0.608316 0.568647 0.311412
0.626287 0.576281 0.317362
0.644259 0.583916 0.323313
0.662231 0.591550 0.329262
0.680203 0.599184 0.335213
0.698175 0.606819 0.341162
0.716147 0.614453 0.347112
0.734119 0.622087 0.353063
0.752091 0.629722 0.359012
0.770062 0.637356 0.364963
0.788034 0.644991 0.370912
0.806006 0.652625 0.376862
0.823978 0.660259 0.382812
0.841950 0.667894 0.388762
0.859922 0.675528 0.394712
0.877894 0.683162 0.400663
0.319616 0.463244 0.221944
0.337588 0.470878 0.227894
0.355559 0.478513 0.233844
0.373531 0.486147 0.239794
0.391503 0.493781 0.245744
0.409475 0.501416 0.251694
0.427447 0.509050 0.257644
0.445419 0.516684 0.263594
0.463391 0.524319 0.269544
0.481363 0.531953 0.275494
0.499334 0.539588 0.281444
0.517306 0.547222 0.287394
0.535278 0.554856 0.293344
0.553250 0.562491 0.299294
0.571222 0.570125 0.305244
0.589194 0.577759 0.311194
0.607166 0.585394 0.317144
0.625138 0.593028 0.323094
0.643109 0.600663 0.329044
0.661081 0.608297 0.334994
0.679053 0.615931 0.340944
0.697025 0.623566 0.346894
0.714997 0.631200 0.352844
0.732969 0.638834 0.358794
0.750941 0.646469 0.364744
0.768912 0.654103 0.370694
0.786884 0.661738 0.376644
0.804856 0.669372 0.382594
0.822828 0.677006 0.388544
0.840800 0.684641 0.394494
0.858772 0.692275 0.400444
0.876744 0.699909 0.406394
0.894716 0.707544 0.412344
0.336438 0.487625 0.233625
0.354409 0.495259 0.239575
0.372381 0.502894 0.245525
0.390353 0.510528 0.251475
0.408325 0.518162 0.257425
0.426297 0.525797 0.263375
0.444269 0.533431 0.269325
0.462241 0.541066 0.275275
0.480212 0.548700 0.281225
0.498184 0.556334 0.287175
0.516156 0.563969 0.293125
0.534128 0.571603 0.299075
0.552100 0.579238 0.305025
0.570072 0.586872 0.310975
0.588044 0.594506 0.316925
0.606016 0.602141 0.322875
0.623987 0.609775 0.328825
0.641959 0.617409 0.334775
0.659931 0.625044 0.340725
0.677903 0.632678 0.346675
0.695875 0.640312 0.352625
0.713847 0.647947 0.358575
0.731819 0.655581 0.364525
0.749791 0.663216 0.370475
0.767763 0.670850 0.376425
0.785734 0.678484 0.382375
0.803706 0.686119 0.388325
0.821678 0.693753 0.394275
0.839650 0.701387 0.400225
0.857622 0.709022 0.406175
0.875594 0.716656 0.412125
0.893566 0.724291 0.418075
0.911538 0.731925 0.424025
0.353259 0.512006 0.245306
0.371231 0.519641 0.251256
0.389203 0.527275 0.257206
0.407175 0.534909 0.263156
0.425147 0.542544 0.269106
0.443119 0.550178 0.275056
0.461091 0.557813 0.281006
0.479063 0.565447 0.286956
0.497034 0.573081 0.292906
0.515006 0.580716 0.298856
0.532978 0.588350 0.304806
0.550950 0.595984 0.310756
0.568922 0.603619 0.316706
0.586894 0.611253 0.322656
0.604866 0.618888 0.328606
0.622838 0.626522 0.334556
0.640809 0.634156 0.340506
0.658781 0.641791 0.346456
0.676753 0.649425 0.352406
0.694725 0.657059 0.358356
0.712697 0.664694 0.364306
0.730669 0.672328 0.370256
0.748641 0.679963 0.376206
0.766613 0.687597 0.382156
0.784584 0.695231 0.388106
0.802556 0.702866 0.394056
0.820528 0.710500 0.400006
0.838500 0.718134 0.405956
0.856472 0.725769 0.411906
0.874444 0.733403 0.417856
0.892416 0.741037 0.423806
0.910388 0.748672 0.429756
0.928359 0.756306 0.435706
0.370081 0.536388 0.256988
0.388053 0.544022 0.262937
0.406025 0.551656 0.268888
0.423997 0.559291 0.274838
0.441969 0.566925 0.280788
0.459941 0.574559 0.286737
0.477913 0.582194 0.292687
0.495884 0.589828 0.298638
0.513856 0.597463 0.304588
0.531828 0.605097 0.310538
0.549800 0.612731 0.316488
0.567772 0.620366 0.322438
0.585744 0.628000 0.328387
0.603716 0.635634 0.334338
0.621688 0.643269 0.340288
0.639659 0.650903 0.346238
0.657631 0.658537 0.352187
0.675603 0.666172 0.358137
0.693575 0.673806 0.364088
0.711547 0.681441 0.370037
0.729519 0.689075 0.375988
0.747491 0.696709 0.381937
0.765463 0.704344 0.387887
0.783434 0.711978 0.393838
0.801406 0.719612 0.399788
0.819378 0.727247 0.405738
0.837350 0.734881 0.411687
0.855322 0.742516 0.417638
0.873294 0.750150 0.423588
0.891266 0.757784 0.429538
0.909237 0.765419 0.435488
0.927209 0.773053 0.441437
0.945181 0.780687 0.447387
0.386903 0.560769 0.268669
0.404875 0.568403 0.274619
0.422847 0.576037 0.280569
0.440819 0.583672 0.286519
0.458791 0.591306 0.292469
0.476762 0.598941 0.298419
0.494734 0.606575 0.304369
0.512706 0.614209 0.310319
0.530678 0.621844 0.316269
0.548650 0.629478 0.322219
0.566622 0.637113 0.328169
0.584594 0.644747 0.334119
0.602566 0.652381 0.340069
0.620537 0.660016 0.346019
0.638509 0.667650 0.351969
0.656481 0.675284 0.357919
0.674453 0.682919 0.363869
0.692425 0.690553 0.369819
0.710397 0.698188 0.375769
0.728369 0.705822 0.381719
0.746341 0.713456 0.387669
0.764313 0.721091 0.393619
0.782284 0.728725 0.399569
0.800256 0.736359 0.405519
0.818228 0.743994 0.411469
0.836200 0.751628 0.417419
0.854172 0.759263 0.423369
0.872144 0.766897 0.429319
0.890116 0.774531 0.435269
0.908088 0.782166 0.441219
0.926059 0.789800 0.447169
0.944031 0.797434 0.453119
0.962003 0.805069 0.459069
0.403725 0.585150 0.280350
0.421697 0.592784 0.286300
0.439669 0.600419 0.292250
0.457641 0.608053 0.298200
0.475612 0.615688 0.304150
0.493584 0.623322 0.310100
0.511556 0.630956 0.316050
0.529528 0.638591 0.322000
0.547500 0.646225 0.327950
0.565472 0.653859 0.333900
0.583444 0.661494 0.339850
0.601416 0.669128 0.345800
0.619387 0.676763 0.351750
0.637359 0.684397 0.357700
0.655331 0.692031 0.363650
0.673303 0.699666 0.369600
0.691275 0.707300 0.375550
0.709247 0.714934 0.381500
0.727219 0.722569 0.387450
0.745191 0.730203 0.393400
0.763162 0.737838 0.399350
0.781134 0.745472 0.405300
0.799106 0.753106 0.411250
0.817078 0.760741 0.417200
0.835050 0.768375 0.423150
0.853022 0.776009 0.429100
0.870994 0.783644 0.435050
0.888966 0.791278 0.441000
0.906938 0.798912 0.446950
0.924909 0.806547 0.452900
0.942881 0.814181 0.458850
0.960853 0.821816 0.464800
0.978825 0.829450 0.470750
0.420547 0.609531 0.292031
0.438519 0.617166 0.297981
0.456491 0.624800 0.303931
0.474462 0.632434 0.309881
0.492434 0.640069 0.315831
0.510406 0.647703 0.321781
0.528378 0.655338 0.327731
0.546350 0.662972 0.333681
0.564322 0.670606 0.339631
0.582294 0.678241 0.345581
0.600266 0.685875 0.351531
0.618237 0.693509 0.357481
0.636209 0.701144 0.363431
0.654181 0.708778 0.369381
0.672153 0.716413 0.375331
0.690125 0.724047 0.381281
0.708097 0.731681 0.387231
0.726069 0.739316 0.393181
0.744041 0.746950 0.399131
0.762012 0.754584 0.405081
0.779984 0.762219 0.411031
0.797956 0.769853 0.416981
0.815928 0.777487 0.422931
0.833900 0.785122 0.428881
0.851872 0.792756 0.434831
0.869844 0.800391 0.440781
0.887816 0.808025 0.446731
0.905788 0.815659 0.452681
0.923759 0.823294 0.458631
0.941731 0.830928 0.464581
0.959703 0.838562 0.470531
0.977675 0.846197 0.476481
0.995647 0.853831 0.482431
0.437369 0.633913 0.303712
0.455341 0.641547 0.309663
0.473312 0.649181 0.315613
0.491284 0.656816 0.321563
0.509256 0.664450 0.327512
0.527228 0.672084 0.333462
0.545200 0.679719 0.339413
0.563172 0.687353 0.345362
0.581144 0.694987 0.351313
0.599116 0.702622 0.357262
0.617088 0.710256 0.363212
0.635059 0.717891 0.369163
0.653031 0.725525 0.375112
0.671003 0.733159 0.381063
0.688975 0.740794 0.387012
0.706947 0.748428 0.392962
0.724919 0.756063 0.398913
0.742891 0.763697 0.404863
0.760862 0.771331 0.410813
0.778834 0.778966 0.416762
0.796806 0.786600 0.422712
0.814778 0.794234 0.428663
0.832750 0.801869 0.434613
0.850722 0.809503 0.440562
0.868694 0.817138 0.446512
0.886666 0.824772 0.452462
0.904637 0.832406 0.458413
0.922609 0.840041 0.464363
