luts/Sepia.cube
TITLE "Sepia"
LUT_3D_SIZE 9
DOMAIN_MIN 0.0 0.0 0.0
DOMAIN_MAX 1.0 1.0 1.0
0.000000 0.000000 0.000000
0.071888 0.030537 0.023800
0.143775 0.061075 0.047600
0.215663 0.091612 0.071400
0.287550 0.122150 0.095200
0.359438 0.152687 0.119000
0.431325 0.183225 0.142800
0.503213 0.213762 0.166600
0.575100 0.244300 0.190400
0.067288 0.097525 0.046725
0.139175 0.128063 0.070525
0.211063 0.158600 0.094325
0.282950 0.189138 0.118125
0.354838 0.219675 0.141925
0.426725 0.250213 0.165725
0.498613 0.280750 0.189525
0.570500 0.311287 0.213325
0.642388 0.341825 0.237125
0.134575 0.195050 0.093450
0.206462 0.225587 0.117250
0.278350 0.256125 0.141050
0.350237 0.286663 0.164850
0.422125 0.317200 0.188650
0.494012 0.347737 0.212450
0.565900 0.378275 0.236250
0.637788 0.408812 0.260050
0.709675 0.439350 0.283850
0.201862 0.292575 0.140175
0.273750 0.323113 0.163975
0.345637 0.353650 0.187775
0.417525 0.384188 0.211575
0.489413 0.414725 0.235375
0.561300 0.445263 0.259175
0.633188 0.475800 0.282975
0.705075 0.506337 0.306775
0.776963 0.536875 0.330575
0.269150 0.390100 0.186900
0.341037 0.420637 0.210700
0.412925 0.451175 0.234500
0.484812 0.481713 0.258300
0.556700 0.512250 0.282100
0.628588 0.542787 0.305900
0.700475 0.573325 0.329700
0.772363 0.603862 0.353500
0.844250 0.634400 0.377300
0.336438 0.487625 0.233625
0.408325 0.518162 0.257425
0.480212 0.548700 0.281225
0.552100 0.579238 0.305025
0.623987 0.609775 0.328825
0.695875 0.640312 0.352625
0.767763 0.670850 0.376425
0.839650 0.701387 0.400225
0.911538 0.731925 0.424025
0.403725 0.585150 0.280350
0.475612 0.615688 0.304150
0.547500 0.646225 0.327950
0.619387 0.676763 0.351750
0.691275 0.707300 0.375550
0.763162 0.737838 0.399350
0.835050 0.768375 0.423150
0.906938 0.798912 0.446950
0.978825 0.829450 0.470750
0.471012 0.682675 0.327075
0.542900 0.713213 0.350875
0.614788 0.743750 0.374675
0.686675 0.774288 0.398475
0.758563 0.804825 0.422275
0.830450 0.835363 0.446075
0.902338 0.865900 0.469875
0.974225 0.896437 0.493675
1.000000 0.926975 0.517475
0.538300 0.780200 0.373800
0.610187 0.810738 0.397600
0.682075 0.841275 0.421400
0.753963 0.871812 0.445200
0.825850 0.902350 0.469000
0.897738 0.932888 0.492800
0.969625 0.963425 0.516600
1.000000 0.993962 0.540400
1.000000 1.000000 0.564200
0.016538 0.014700 0.048963
0.088425 0.045237 0.072763
0.160313 0.075775 0.096562
0.232200 0.106312 0.120363
0.304088 0.136850 0.144163
0.375975 0.167387 0.167963
0.447863 0.197925 0.191763
0.519750 0.228462 0.215563
0.591638 0.259000 0.239363
0.083825 0.112225 0.095688
0.155712 0.142763 0.119488
0.227600 0.173300 0.143288
0.299488 0.203838 0.167087
0.371375 0.234375 0.190888
0.443263 0.264912 0.214688
0.515150 0.295450 0.238488
0.587038 0.325987 0.262288
0.658925 0.356525 0.286087
0.151113 0.209750 0.142412
0.223000 0.240288 0.166213
0.294887 0.270825 0.190013
0.366775 0.301362 0.213813
0.438663 0.331900 0.237612
0.510550 0.362438 0.261412
0.582437 0.392975 0.285213
0.654325 0.423512 0.309013
0.726213 0.454050 0.332812
0.218400 0.307275 0.189138
0.290288 0.337813 0.212937
0.362175 0.368350 0.236738
0.434063 0.398888 0.260538
0.505950 0.429425 0.284338
0.577838 0.459963 0.308137
0.649725 0.490500 0.331937
0.721612 0.521037 0.355738
0.793500 0.551575 0.379538
0.285687 0.404800 0.235863
0.357575 0.435337 0.259663
0.429463 0.465875 0.283462
0.501350 0.496413 0.307262
0.573237 0.526950 0.331063
0.645125 0.557488 0.354863
0.717013 0.588025 0.378663
0.788900 0.618562 0.402463
0.860788 0.649100 0.426262
0.352975 0.502325 0.282587
0.424863 0.532863 0.306388
0.496750 0.563400 0.330187
0.568638 0.593938 0.353988
0.640525 0.624475 0.377788
0.712413 0.655012 0.401587
0.784300 0.685550 0.425387
0.856187 0.716087 0.449187
0.928075 0.746625 0.472988
0.420262 0.599850 0.329313
0.492150 0.630388 0.353113
0.564037 0.660925 0.376912
0.635925 0.691463 0.400713
0.707812 0.722000 0.424512
0.779700 0.752538 0.448313
0.851587 0.783075 0.472113
0.923475 0.813613 0.495913
0.995363 0.844150 0.519713
0.487550 0.697375 0.376038
0.559437 0.727913 0.399838
0.631325 0.758450 0.423638
0.703213 0.788988 0.447438
0.775100 0.819525 0.471238
0.846988 0.850063 0.495038
0.918875 0.880600 0.518838
0.990763 0.911138 0.542637
1.000000 0.941675 0.566438
0.554837 0.794900 0.422763
0.626725 0.825438 0.446563
0.698613 0.855975 0.470363
0.770500 0.886513 0.494162
0.842387 0.917050 0.517962
0.914275 0.947588 0.541763
0.986163 0.978125 0.565562
1.000000 1.000000 0.589363
1.000000 1.000000 0.613162
0.033075 0.029400 0.097925
0.104963 0.059937 0.121725
0.176850 0.090475 0.145525
0.248738 0.121012 0.169325
0.320625 0.151550 0.193125
0.392513 0.182087 0.216925
0.464400 0.212625 0.240725
0.536288 0.243162 0.264525
0.608175 0.273700 0.288325
0.100362 0.126925 0.144650
0.172250 0.157463 0.168450
0.244138 0.188000 0.192250
0.316025 0.218537 0.216050
0.387912 0.249075 0.239850
0.459800 0.279612 0.263650
0.531688 0.310150 0.287450
0.603575 0.340687 0.311250
0.675463 0.371225 0.335050
0.167650 0.224450 0.191375
0.239538 0.254988 0.215175
0.311425 0.285525 0.238975
0.383313 0.316063 0.262775
0.455200 0.346600 0.286575
0.527088 0.377137 0.310375
0.598975 0.407675 0.334175
0.670863 0.438212 0.357975
0.742750 0.468750 0.381775
0.234937 0.321975 0.238100
0.306825 0.352513 0.261900
0.378713 0.383050 0.285700
0.450600 0.413587 0.309500
0.522487 0.444125 0.333300
0.594375 0.474662 0.357100
0.666262 0.505200 0.380900
0.738150 0.535737 0.404700
0.810038 0.566275 0.428500
0.302225 0.419500 0.284825
0.374113 0.450037 0.308625
0.446000 0.480575 0.332425
0.517887 0.511113 0.356225
0.589775 0.541650 0.380025
0.661663 0.572188 0.403825
0.733550 0.602725 0.427625
0.805438 0.633262 0.451425
0.877325 0.663800 0.475225
0.369512 0.517025 0.331550
0.441400 0.547563 0.355350
0.513288 0.578100 0.379150
0.585175 0.608638 0.402950
0.657062 0.639175 0.426750
0.728950 0.669713 0.450550
0.800838 0.700250 0.474350
0.872725 0.730787 0.498150
0.944613 0.761325 0.521950
0.436800 0.614550 0.378275
0.508687 0.645088 0.402075
0.580575 0.675625 0.425875
0.652463 0.706163 0.449675
0.724350 0.736700 0.473475
0.796237 0.767238 0.497275
0.868125 0.797775 0.521075
0.940013 0.828313 0.544875
1.000000 0.858850 0.568675
0.504088 0.712075 0.425000
0.575975 0.742613 0.448800
0.647863 0.773150 0.472600
0.719750 0.803688 0.496400
0.791637 0.834225 0.520200
0.863525 0.864763 0.544000
0.935412 0.895300 0.567800
1.000000 0.925838 0.591600
1.000000 0.956375 0.615400
0.571375 0.809600 0.471725
0.643262 0.840138 0.495525
0.715150 0.870675 0.519325
0.787038 0.901213 0.543125
0.858925 0.931750 0.566925
0.930813 0.962288 0.590725
1.000000 0.992825 0.614525
1.000000 1.000000 0.638325
1.000000 1.000000 0.662125
0.049612 0.044100 0.146888
0.121500 0.074637 0.170688
0.193387 0.105175 0.194488
0.265275 0.135712 0.218288
0.337163 0.166250 0.242088
0.409050 0.196787 0.265888
0.480938 0.227325 0.289688
0.552825 0.257862 0.313488
0.624713 0.288400 0.337287
0.116900 0.141625 0.193613
0.188787 0.172162 0.217413
0.260675 0.202700 0.241213
0.332562 0.233238 0.265012
0.404450 0.263775 0.288813
0.476337 0.294312 0.312612
0.548225 0.324850 0.336413
0.620113 0.355387 0.360213
0.692000 0.385925 0.384012
0.184187 0.239150 0.240338
0.256075 0.269687 0.264138
0.327962 0.300225 0.287937
0.399850 0.330763 0.311738
0.471738 0.361300 0.335538
0.543625 0.391838 0.359337
0.615513 0.422375 0.383138
0.687400 0.452912 0.406938
0.759288 0.483450 0.430737
0.251475 0.336675 0.287062
0.323362 0.367213 0.310863
0.395250 0.397750 0.334662
0.467137 0.428288 0.358463
0.539025 0.458825 0.382263
0.610913 0.489363 0.406062
0.682800 0.519900 0.429862
0.754687 0.550437 0.453662
0.826575 0.580975 0.477463
0.318762 0.434200 0.333788
0.390650 0.464738 0.357588
0.462537 0.495275 0.381387
0.534425 0.525813 0.405187
0.606313 0.556350 0.428987
0.678200 0.586888 0.452788
0.750088 0.617425 0.476588
0.821975 0.647962 0.500387
0.893863 0.678500 0.524188
0.386050 0.531725 0.380512
0.457937 0.562262 0.404312
0.529825 0.592800 0.428113
0.601712 0.623337 0.451912
0.673600 0.653875 0.475712
0.745487 0.684412 0.499513
0.817375 0.714950 0.523312
0.889263 0.745487 0.547113
0.961150 0.776025 0.570912
0.453337 0.629250 0.427238
0.525225 0.659788 0.451037
0.597112 0.690325 0.474838
0.669000 0.720862 0.498638
0.740888 0.751400 0.522437
0.812775 0.781937 0.546237
0.884662 0.812475 0.570037
0.956550 0.843012 0.593838
1.000000 0.873550 0.617638
0.520625 0.726775 0.473963
0.592512 0.757313 0.497762
0.664400 0.787850 0.521562
0.736288 0.818388 0.545362
0.808175 0.848925 0.569163
0.880062 0.879463 0.592963
0.951950 0.910000 0.616763
1.000000 0.940538 0.640563
1.000000 0.971075 0.664363
0.587912 0.824300 0.520687
0.659800 0.854838 0.544488
0.731688 0.885375 0.568288
0.803575 0.915913 0.592087
0.875463 0.946450 0.615888
0.947350 0.976988 0.639688
1.000000 1.000000 0.663488
1.000000 1.000000 0.687288
1.000000 1.000000 0.711087
0.066150 0.058800 0.195850
0.138038 0.089337 0.219650
0.209925 0.119875 0.243450
0.281813 0.150412 0.267250
0.353700 0.180950 0.291050
0.425588 0.211487 0.314850
0.497475 0.242025 0.338650
0.569363 0.272562 0.362450
0.641250 0.303100 0.386250
0.133437 0.156325 0.242575
0.205325 0.186863 0.266375
0.277212 0.217400 0.290175
0.349100 0.247938 0.313975
0.420988 0.278475 0.337775
0.492875 0.309013 0.361575
0.564763 0.339550 0.385375
0.636650 0.370088 0.409175
0.708538 0.400625 0.432975
0.200725 0.253850 0.289300
0.272613 0.284388 0.313100
0.344500 0.314925 0.336900
0.416388 0.345463 0.360700
0.488275 0.376000 0.384500
0.560163 0.406537 0.408300
0.632050 0.437075 0.432100
0.703938 0.467612 0.455900
0.775825 0.498150 0.479700
0.268012 0.351375 0.336025
0.339900 0.381912 0.359825
0.411788 0.412450 0.383625
0.483675 0.442988 0.407425
0.555562 0.473525 0.431225
0.627450 0.504062 0.455025
0.699337 0.534600 0.478825
0.771225 0.565137 0.502625
0.843113 0.595675 0.526425
0.335300 0.448900 0.382750
0.407188 0.479438 0.406550
0.479075 0.509975 0.430350
0.550963 0.540512 0.454150
0.622850 0.571050 0.477950
0.694738 0.601587 0.501750
0.766625 0.632125 0.525550
0.838512 0.662662 0.549350
0.910400 0.693200 0.573150
0.402587 0.546425 0.429475
0.474475 0.576962 0.453275
0.546363 0.607500 0.477075
0.618250 0.638038 0.500875
0.690137 0.668575 0.524675
0.762025 0.699112 0.548475
0.833913 0.729650 0.572275
0.905800 0.760187 0.596075
0.977688 0.790725 0.619875
0.469875 0.643950 0.476200
0.541762 0.674488 0.500000
0.613650 0.705025 0.523800
0.685538 0.735562 0.547600
0.757425 0.766100 0.571400
0.829313 0.796638 0.595200
0.901200 0.827175 0.619000
0.973088 0.857712 0.642800
1.000000 0.888250 0.666600
0.537162 0.741475 0.522925
0.609050 0.772013 0.546725
0.680937 0.802550 0.570525
0.752825 0.833087 0.594325
0.824712 0.863625 0.618125
0.896600 0.894163 0.641925
0.968487 0.924700 0.665725
1.000000 0.955237 0.689525
1.000000 0.985775 0.713325
0.604450 0.839000 0.569650
0.676337 0.869538 0.593450
0.748225 0.900075 0.617250
0.820113 0.930612 0.641050
0.892000 0.961150 0.664850
0.963888 0.991688 0.688650
1.000000 1.000000 0.712450
1.000000 1.000000 0.736250
1.000000 1.000000 0.760050
0.082687 0.073500 0.244813
0.154575 0.104038 0.268613
0.226463 0.134575 0.292413
0.298350 0.165112 0.316213
0.370237 0.195650 0.340013
0.442125 0.226187 0.363813
0.514012 0.256725 0.387613
0.585900 0.287262 0.411413
0.657788 0.317800 0.435213
0.149975 0.171025 0.291538
0.221863 0.201563 0.315338
0.293750 0.232100 0.339138
0.365637 0.262638 0.362938
0.437525 0.293175 0.386738
0.509413 0.323712 0.410538
0.581300 0.354250 0.434338
0.653188 0.384787 0.458137
0.725075 0.415325 0.481938
0.217262 0.268550 0.338263
0.289150 0.299087 0.362063
0.361038 0.329625 0.385863
0.432925 0.360162 0.409663
0.504813 0.390700 0.433462
0.576700 0.421237 0.457263
0.648588 0.451775 0.481063
0.720475 0.482312 0.504863
0.792363 0.512850 0.528663
0.284550 0.366075 0.384988
0.356438 0.396613 0.408787
0.428325 0.427150 0.432588
0.500212 0.457688 0.456388
0.572100 0.488225 0.480188
0.643988 0.518763 0.503988
0.715875 0.549300 0.527788
0.787763 0.579837 0.551588
0.859650 0.610375 0.575388
0.351837 0.463600 0.431713
0.423725 0.494138 0.455513
0.495613 0.524675 0.479313
0.567500 0.555212 0.503113
0.639387 0.585750 0.526913
0.711275 0.616287 0.550713
0.783162 0.646825 0.574512
0.855050 0.677362 0.598313
0.926938 0.707900 0.622113
0.419125 0.561125 0.478438
0.491013 0.591662 0.502238
0.562900 0.622200 0.526037
0.634788 0.652737 0.549837
0.706675 0.683275 0.573638
0.778563 0.713812 0.597438
0.850450 0.744350 0.621237
0.922338 0.774887 0.645038
0.994225 0.805425 0.668837
0.486412 0.658650 0.525162
0.558300 0.689188 0.548963
0.630188 0.719725 0.572763
0.702075 0.750263 0.596563
0.773962 0.780800 0.620363
0.845850 0.811338 0.644162
0.917737 0.841875 0.667963
0.989625 0.872413 0.691763
1.000000 0.902950 0.715563
0.553700 0.756175 0.571888
0.625587 0.786713 0.595688
0.697475 0.817250 0.619488
0.769363 0.847788 0.643288
0.841250 0.878325 0.667088
0.913137 0.908863 0.690888
0.985025 0.939400 0.714688
1.000000 0.969938 0.738487
1.000000 1.000000 0.762288
0.620988 0.853700 0.618613
0.692875 0.884238 0.642413
0.764763 0.914775 0.666213
0.836650 0.945312 0.690013
0.908537 0.975850 0.713812
0.980425 1.000000 0.737613
1.000000 1.000000 0.761412
1.000000 1.000000 0.785212
1.000000 1.000000 0.809013
0.099225 0.088200 0.293775
0.171113 0.118737 0.317575
0.243000 0.149275 0.341375
0.314887 0.179812 0.365175
0.386775 0.210350 0.388975
0.458662 0.240888 0.412775
0.530550 0.271425 0.436575
0.602438 0.301962 0.460375
0.674325 0.332500 0.484175
0.166512 0.185725 0.340500
0.238400 0.216262 0.364300
0.310287 0.246800 0.388100
0.382175 0.277338 0.411900
0.454063 0.307875 0.435700
0.525950 0.338413 0.459500
0.597838 0.368950 0.483300
0.669725 0.399487 0.507100
0.741613 0.430025 0.530900
0.233800 0.283250 0.387225
0.305688 0.313787 0.411025
0.377575 0.344325 0.434825
0.449462 0.374862 0.458625
0.521350 0.405400 0.482425
0.593238 0.435937 0.506225
0.665125 0.466475 0.530025
0.737013 0.497012 0.553825
0.808900 0.527550 0.577625
0.301087 0.380775 0.433950
0.372975 0.411312 0.457750
0.444862 0.441850 0.481550
0.516750 0.472388 0.505350
0.588637 0.502925 0.529150
0.660525 0.533462 0.552950
0.732412 0.564000 0.576750
0.804300 0.594537 0.600550
0.876188 0.625075 0.624350
0.368375 0.478300 0.480675
0.440263 0.508838 0.504475
0.512150 0.539375 0.528275
0.584037 0.569913 0.552075
0.655925 0.600450 0.575875
0.727812 0.630988 0.599675
0.799700 0.661525 0.623475
0.871588 0.692062 0.647275
0.943475 0.722600 0.671075
0.435663 0.575825 0.527400
0.507550 0.606363 0.551200
0.579438 0.636900 0.575000
0.651325 0.667438 0.598800
0.723213 0.697975 0.622600
0.795100 0.728512 0.646400
0.866988 0.759050 0.670200
0.938875 0.789587 0.694000
1.000000 0.820125 0.717800
0.502950 0.673350 0.574125
0.574837 0.703887 0.597925
0.646725 0.734425 0.621725
0.718612 0.764962 0.645525
0.790500 0.795500 0.669325
0.862387 0.826037 0.693125
0.934275 0.856575 0.716925
1.000000 0.887112 0.740725
1.000000 0.917650 0.764525
0.570237 0.770875 0.620850
0.642125 0.801413 0.644650
0.714012 0.831950 0.668450
0.785900 0.862488 0.692250
0.857788 0.893025 0.716050
0.929675 0.923563 0.739850
1.000000 0.954100 0.763650
1.000000 0.984638 0.787450
1.000000 1.000000 0.811250
0.637525 0.868400 0.667575
0.709413 0.898938 0.691375
0.781300 0.929475 0.715175
0.853187 0.960013 0.738975
0.925075 0.990550 0.762775
0.996963 1.000000 0.786575
1.000000 1.000000 0.810375
1.000000 1.000000 0.834175
1.000000 1.000000 0.857975
0.115762 0.102900 0.342738
0.187650 0.133438 0.366538
0.259537 0.163975 0.390338
0.331425 0.194512 0.414138
0.403313 0.225050 0.437938
0.475200 0.255588 0.461738
0.547087 0.286125 0.485538
0.618975 0.316662 0.509337
0.690863 0.347200 0.533138
0.183050 0.200425 0.389463
0.254937 0.230963 0.413263
0.326825 0.261500 0.437063
0.398713 0.292038 0.460863
0.470600 0.322575 0.484663
0.542488 0.353113 0.508463
0.614375 0.383650 0.532263
0.686262 0.414187 0.556063
0.758150 0.444725 0.579862
0.250337 0.297950 0.436188
0.322225 0.328488 0.459988
0.394112 0.359025 0.483788
0.466000 0.389563 0.507588
0.537887 0.420100 0.531388
0.609775 0.450638 0.555187
0.681662 0.481175 0.578987
0.753550 0.511713 0.602788
0.825438 0.542250 0.626588
0.317625 0.395475 0.482913
0.389512 0.426013 0.506713
0.461400 0.456550 0.530512
0.533287 0.487088 0.554312
0.605175 0.517625 0.578113
0.677063 0.548162 0.601913
0.748950 0.578700 0.625713
0.820837 0.609237 0.649513
0.892725 0.639775 0.673313
0.384912 0.493000 0.529637
0.456800 0.523537 0.553438
0.528687 0.554075 0.577238
0.600575 0.584612 0.601038
0.672462 0.615150 0.624838
0.744350 0.645687 0.648638
0.816237 0.676225 0.672438
0.888125 0.706762 0.696238
0.960013 0.737300 0.720038
0.452200 0.590525 0.576362
0.524087 0.621062 0.600163
0.595975 0.651600 0.623963
0.667862 0.682138 0.647763
0.739750 0.712675 0.671563
0.811638 0.743212 0.695363
0.883525 0.773750 0.719162
0.955413 0.804287 0.742962
1.000000 0.834825 0.766763
0.519487 0.688050 0.623088
0.591375 0.718588 0.646888
0.663263 0.749125 0.670688
0.735150 0.779662 0.694488
0.807037 0.810200 0.718287
0.878925 0.840738 0.742088
0.950813 0.871275 0.765888
1.000000 0.901813 0.789688
1.000000 0.932350 0.813488
0.586775 0.785575 0.669813
0.658662 0.816113 0.693613
0.730550 0.846650 0.717413
0.802438 0.877188 0.741213
0.874325 0.907725 0.765013
0.946212 0.938263 0.788813
1.000000 0.968800 0.812613
1.000000 0.999337 0.836413
1.000000 1.000000 0.860213
0.654062 0.883100 0.716538
0.725950 0.913638 0.740338
0.797837 0.944175 0.764138
0.869725 0.974712 0.787938
0.941613 1.000000 0.811738
1.000000 1.000000 0.835538
1.000000 1.000000 0.859337
1.000000 1.000000 0.883138
1.000000 1.000000 0.906938
0.132300 0.117600 0.391700
0.204187 0.148138 0.415500
0.276075 0.178675 0.439300
0.347962 0.209212 0.463100
0.419850 0.239750 0.486900
0.491738 0.270287 0.510700
0.563625 0.300825 0.534500
0.635513 0.331362 0.558300
0.707400 0.361900 0.582100
0.199588 0.215125 0.438425
0.271475 0.245663 0.462225
0.343363 0.276200 0.486025
0.415250 0.306737 0.509825
0.487138 0.337275 0.533625
0.559025 0.367812 0.557425
0.630912 0.398350 0.581225
0.702800 0.428887 0.605025
0.774688 0.459425 0.628825
0.266875 0.312650 0.485150
0.338762 0.343188 0.508950
0.410650 0.373725 0.532750
0.482537 0.404262 0.556550
0.554425 0.434800 0.580350
0.626313 0.465338 0.604150
0.698200 0.495875 0.627950
0.770088 0.526412 0.651750
0.841975 0.556950 0.675550
0.334162 0.410175 0.531875
0.406050 0.440713 0.555675
0.477938 0.471250 0.579475
0.549825 0.501788 0.603275
0.621713 0.532325 0.627075
0.693600 0.562863 0.650875
0.765487 0.593400 0.674675
0.837375 0.623938 0.698475
0.909263 0.654475 0.722275
0.401450 0.507700 0.578600
0.473337 0.538238 0.602400
0.545225 0.568775 0.626200
0.617112 0.599313 0.650000
0.689000 0.629850 0.673800
0.760888 0.660388 0.697600
0.832775 0.690925 0.721400
0.904663 0.721463 0.745200
0.976550 0.752000 0.769000
0.468737 0.605225 0.625325
0.540625 0.635763 0.649125
0.612513 0.666300 0.672925
0.684400 0.696837 0.696725
0.756288 0.727375 0.720525
0.828175 0.757912 0.744325
0.900062 0.788450 0.768125
0.971950 0.818987 0.791925
1.000000 0.849525 0.815725
0.536025 0.702750 0.672050
0.607912 0.733288 0.695850
0.679800 0.763825 0.719650
0.751687 0.794363 0.743450
0.823575 0.824900 0.767250
0.895462 0.855438 0.791050
0.967350 0.885975 0.814850
1.000000 0.916513 0.838650
1.000000 0.947050 0.862450
0.603312 0.800275 0.718775
0.675200 0.830813 0.742575
0.747088 0.861350 0.766375
0.818975 0.891888 0.790175
0.890863 0.922425 0.813975
0.962750 0.952963 0.837775
1.000000 0.983500 0.861575
1.000000 1.000000 0.885375
1.000000 1.000000 0.909175
0.670600 0.897800 0.765500
0.742487 0.928338 0.789300
0.814375 0.958875 0.813100
0.886262 0.989413 0.836900
0.958150 1.000000 0.860700
1.000000 1.000000 0.884500
1.000000 1.000000 0.908300
1.000000 1.000000 0.932100
1.000000 1.000000 0.955900
