luts/Warm.cube
TITLE "Warm Look"
LUT_3D_SIZE 33
DOMAIN_MIN 0.0 0.0 0.0
DOMAIN_MAX 1.0 1.0 1.0
0.050000 0.020000 0.000000
0.084375 0.020000 0.000000
0.118750 0.020000 0.000000
0.153125 0.020000 0.000000
0.187500 0.020000 0.000000
0.221875 0.020000 0.000000
0.256250 0.020000 0.000000
0.290625 0.020000 0.000000
0.325000 0.020000 0.000000
0.359375 0.020000 0.000000
0.393750 0.020000 0.000000
0.428125 0.020000 0.000000
0.462500 0.020000 0.000000
0.496875 0.020000 0.000000
0.531250 0.020000 0.000000
0.565625 0.020000 0.000000
0.600000 0.020000 0.000000
0.634375 0.020000 0.000000
0.668750 0.020000 0.000000
0.703125 0.020000 0.000000
0.737500 0.020000 0.000000
0.771875 0.020000 0.000000
0.806250 0.020000 0.000000
0.840625 0.020000 0.000000
0.875000 0.020000 0.000000
0.909375 0.020000 0.000000
0.943750 0.020000 0.000000
0.978125 0.020000 0.000000
1.000000 0.020000 0.000000
1.000000 0.020000 0.000000
1.000000 0.020000 0.000000
1.000000 0.020000 0.000000
1.000000 0.020000 0.000000
0.050000 0.052812 0.000000
0.084375 0.052812 0.000000
0.118750 0.052812 0.000000
0.153125 0.052812 0.000000
0.187500 0.052812 0.000000
0.221875 0.052812 0.000000
0.256250 0.052812 0.000000
0.290625 0.052812 0.000000
0.325000 0.052812 0.000000
0.359375 0.052812 0.000000
0.393750 0.052812 0.000000
0.428125 0.052812 0.000000
0.462500 0.052812 0.000000
0.496875 0.052812 0.000000
0.531250 0.052812 0.000000
0.565625 0.052812 0.000000
0.600000 0.052812 0.000000
0.634375 0.052812 0.000000
0.668750 0.052812 0.000000
0.703125 0.052812 0.000000
0.737500 0.052812 0.000000
0.771875 0.052812 0.000000
0.806250 0.052812 0.000000
0.840625 0.052812 0.000000
0.875000 0.052812 0.000000
0.909375 0.052812 0.000000
0.943750 0.052812 0.000000
0.978125 0.052812 0.000000
1.000000 0.052812 0.000000
1.000000 0.052812 0.000000
1.000000 0.052812 0.000000
1.000000 0.052812 0.000000
1.000000 0.052812 0.000000
0.050000 0.085625 0.000000
0.084375 0.085625 0.000000
0.118750 0.085625 0.000000
0.153125 0.085625 0.000000
0.187500 0.085625 0.000000
0.221875 0.085625 0.000000
0.256250 0.085625 0.000000
0.290625 0.085625 0.000000
0.325000 0.085625 0.000000
0.359375 0.085625 0.000000
0.393750 0.085625 0.000000
0.428125 0.085625 0.000000
0.462500 0.085625 0.000000
0.496875 0.085625 0.000000
0.531250 0.085625 0.000000
0.565625 0.085625 0.000000
0.600000 0.085625 0.000000
0.634375 0.085625 0.000000
0.668750 0.085625 0.000000
0.703125 0.085625 0.000000
0.737500 0.085625 0.000000
0.771875 0.085625 0.000000
0.806250 0.085625 0.000000
0.840625 0.085625 0.000000
0.875000 0.085625 0.000000
0.909375 0.085625 0.000000
0.943750 0.085625 0.000000
0.978125 0.085625 0.000000
1.000000 0.085625 0.000000
1.000000 0.085625 0.000000
1.000000 0.085625 0.000000
1.000000 0.085625 0.000000
1.000000 0.085625 0.000000
0.050000 0.118438 0.000000
0.084375 0.118438 0.000000
0.118750 0.118438 0.000000
0.153125 0.118438 0.000000
0.187500 0.118438 0.000000
0.221875 0.118438 0.000000
0.256250 0.118438 0.000000
0.290625 0.118438 0.000000
0.325000 0.118438 0.000000
0.359375 0.118438 0.000000
0.393750 0.118438 0.000000
0.428125 0.118438 0.000000
0.462500 0.118438 0.000000
0.496875 0.118438 0.000000
0.531250 0.118438 0.000000
0.565625 0.118438 0.000000
0.600000 0.118438 0.000000
0.634375 0.118438 0.000000
0.668750 0.118438 0.000000
0.703125 0.118438 0.000000
0.737500 0.118438 0.000000
0.771875 0.118438 0.000000
0.806250 0.118438 0.000000
0.840625 0.118438 0.000000
0.875000 0.118438 0.000000
0.909375 0.118438 0.000000
0.943750 0.118438 0.000000
0.978125 0.118438 0.000000
1.000000 0.118438 0.000000
1.000000 0.118438 0.000000
1.000000 0.118438 0.000000
1.000000 0.118438 0.000000
1.000000 0.118438 0.000000
0.050000 0.151250 0.000000
0.084375 0.151250 0.000000
0.118750 0.151250 0.000000
0.153125 0.151250 0.000000
0.187500 0.151250 0.000000
0.221875 0.151250 0.000000
0.256250 0.151250 0.000000
0.290625 0.151250 0.000000
0.325000 0.151250 0.000000
0.359375 0.151250 0.000000
0.393750 0.151250 0.000000
0.428125 0.151250 0.000000
0.462500 0.151250 0.000000
0.496875 0.151250 0.000000
0.531250 0.151250 0.000000
0.565625 0.151250 0.000000
0.600000 0.151250 0.000000
0.634375 0.151250 0.000000
0.668750 0.151250 0.000000
0.703125 0.151250 0.000000
0.737500 0.151250 0.000000
0.771875 0.151250 0.000000
0.806250 0.151250 0.000000
0.840625 0.151250 0.000000
0.875000 0.151250 0.000000
0.909375 0.151250 0.000000
0.943750 0.151250 0.000000
0.978125 0.151250 0.000000
1.000000 0.151250 0.000000
1.000000 0.151250 0.000000
1.000000 0.151250 0.000000
1.000000 0.151250 0.000000
1.000000 0.151250 0.000000
0.050000 0.184062 0.000000
0.084375 0.184062 0.000000
0.118750 0.184062 0.000000
0.153125 0.184062 0.000000
0.187500 0.184062 0.000000
0.221875 0.184062 0.000000
0.256250 0.184062 0.000000
0.290625 0.184062 0.000000
0.325000 0.184062 0.000000
0.359375 0.184062 0.000000
0.393750 0.184062 0.000000
0.428125 0.184062 0.000000
0.462500 0.184062 0.000000
0.496875 0.184062 0.000000
0.531250 0.184062 0.000000
0.565625 0.184062 0.000000
0.600000 0.184062 0.000000
0.634375 0.184062 0.000000
0.668750 0.184062 0.000000
0.703125 0.184062 0.000000
0.737500 0.184062 0.000000
0.771875 0.184062 0.000000
0.806250 0.184062 0.000000
0.840625 0.184062 0.000000
0.875000 0.184062 0.000000
0.909375 0.184062 0.000000
0.943750 0.184062 0.000000
0.978125 0.184062 0.000000
1.000000 0.184062 0.000000
1.000000 0.184062 0.000000
1.000000 0.184062 0.000000
1.000000 0.184062 0.000000
1.000000 0.184062 0.000000
0.050000 0.216875 0.000000
0.084375 0.216875 0.000000
0.118750 0.216875 0.000000
0.153125 0.216875 0.000000
0.187500 0.216875 0.000000
0.221875 0.216875 0.000000
0.256250 0.216875 0.000000
0.290625 0.216875 0.000000
0.325000 0.216875 0.000000
0.359375 0.216875 0.000000
0.393750 0.216875 0.000000
0.428125 0.216875 0.000000
0.462500 0.216875 0.000000
0.496875 0.216875 0.000000
0.531250 0.216875 0.000000
0.565625 0.216875 0.000000
0.600000 0.216875 0.000000
0.634375 0.216875 0.000000
0.668750 0.216875 0.000000
0.703125 0.216875 0.000000
0.737500 0.216875 0.000000
0.771875 0.216875 0.000000
0.806250 0.216875 0.000000
0.840625 0.216875 0.000000
0.875000 0.216875 0.000000
0.909375 0.216875 0.000000
0.943750 0.216875 0.000000
0.978125 0.216875 0.000000
1.000000 0.216875 0.000000
1.000000 0.216875 0.000000
1.000000 0.216875 0.000000
1.000000 0.216875 0.000000
1.000000 0.216875 0.000000
0.050000 0.249688 0.000000
0.084375 0.249688 0.000000
0.118750 0.249688 0.000000
0.153125 0.249688 0.000000
0.187500 0.249688 0.000000
0.221875 0.249688 0.000000
0.256250 0.249688 0.000000
0.290625 0.249688 0.000000
0.325000 0.249688 0.000000
0.359375 0.249688 0.000000
0.393750 0.249688 0.000000
0.428125 0.249688 0.000000
0.462500 0.249688 0.000000
0.496875 0.249688 0.000000
0.531250 0.249688 0.000000
0.565625 0.249688 0.000000
0.600000 0.249688 0.000000
0.634375 0.249688 0.000000
0.668750 0.249688 0.000000
0.703125 0.249688 0.000000
0.737500 0.249688 0.000000
0.771875 0.249688 0.000000
0.806250 0.249688 0.000000
0.840625 0.249688 0.000000
0.875000 0.249688 0.000000
0.909375 0.249688 0.000000
0.943750 0.249688 0.000000
0.978125 0.249688 0.000000
1.000000 0.249688 0.000000
1.000000 0.249688 0.000000
1.000000 0.249688 0.000000
1.000000 0.249688 0.000000
1.000000 0.249688 0.000000
0.050000 0.282500 0.000000
0.084375 0.282500 0.000000
0.118750 0.282500 0.000000
0.153125 0.282500 0.000000
0.187500 0.282500 0.000000
0.221875 0.282500 0.000000
0.256250 0.282500 0.000000
0.290625 0.282500 0.000000
0.325000 0.282500 0.000000
0.359375 0.282500 0.000000
0.393750 0.282500 0.000000
0.428125 0.282500 0.000000
0.462500 0.282500 0.000000
0.496875 0.282500 0.000000
0.531250 0.282500 0.000000
0.565625 0.282500 0.000000
0.600000 0.282500 0.000000
0.634375 0.282500 0.000000
0.668750 0.282500 0.000000
0.703125 0.282500 0.000000
0.737500 0.282500 0.000000
0.771875 0.282500 0.000000
0.806250 0.282500 0.000000
0.840625 0.282500 0.000000
0.875000 0.282500 0.000000
0.909375 0.282500 0.000000
0.943750 0.282500 0.000000
0.978125 0.282500 0.000000
1.000000 0.282500 0.000000
1.000000 0.282500 0.000000
1.000000 0.282500 0.000000
1.000000 0.282500 0.000000
1.000000 0.282500 0.000000
0.050000 0.315313 0.000000
0.084375 0.315313 0.000000
0.118750 0.315313 0.000000
0.153125 0.315313 0.000000
0.187500 0.315313 0.000000
0.221875 0.315313 0.000000
0.256250 0.315313 0.000000
0.290625 0.315313 0.000000
0.325000 0.315313 0.000000
0.359375 0.315313 0.000000
0.393750 0.315313 0.000000
0.428125 0.315313 0.000000
0.462500 0.315313 0.000000
0.496875 0.315313 0.000000
0.531250 0.315313 0.000000
0.565625 0.315313 0.000000
0.600000 0.315313 0.000000
0.634375 0.315313 0.000000
0.668750 0.315313 0.000000
0.703125 0.315313 0.000000
0.737500 0.315313 0.000000
0.771875 0.315313 0.000000
0.806250 0.315313 0.000000
0.840625 0.315313 0.000000
0.875000 0.315313 0.000000
0.909375 0.315313 0.000000
0.943750 0.315313 0.000000
0.978125 0.315313 0.000000
1.000000 0.315313 0.000000
1.000000 0.315313 0.000000
1.000000 0.315313 0.000000
1.000000 0.315313 0.000000
1.000000 0.315313 0.000000
0.050000 0.348125 0.000000
0.084375 0.348125 0.000000
0.118750 0.348125 0.000000
0.153125 0.348125 0.000000
0.187500 0.348125 0.000000
0.221875 0.348125 0.000000
0.256250 0.348125 0.000000
0.290625 0.348125 0.000000
0.325000 0.348125 0.000000
0.359375 0.348125 0.000000
0.393750 0.348125 0.000000
0.428125 0.348125 0.000000
0.462500 0.348125 0.000000
0.496875 0.348125 0.000000
0.531250 0.348125 0.000000
0.565625 0.348125 0.000000
0.600000 0.348125 0.000000
0.634375 0.348125 0.000000
0.668750 0.348125 0.000000
0.703125 0.348125 0.000000
0.737500 0.348125 0.000000
0.771875 0.348125 0.000000
0.806250 0.348125 0.000000
0.840625 0.348125 0.000000
0.875000 0.348125 0.000000
0.909375 0.348125 0.000000
0.943750 0.348125 0.000000
0.978125 0.348125 0.000000
1.000000 0.348125 0.000000
1.000000 0.348125 0.000000
1.000000 0.348125 0.000000
1.000000 0.348125 0.000000
1.000000 0.348125 0.000000
0.050000 0.380938 0.000000
0.084375 0.380938 0.000000
0.118750 0.380938 0.000000
0.153125 0.380938 0.000000
0.187500 0.380938 0.000000
0.221875 0.380938 0.000000
0.256250 0.380938 0.000000
0.290625 0.380938 0.000000
0.325000 0.380938 0.000000
0.359375 0.380938 0.000000
0.393750 0.380938 0.000000
0.428125 0.380938 0.000000
0.462500 0.380938 0.000000
0.496875 0.380938 0.000000
0.531250 0.380938 0.000000
0.565625 0.380938 0.000000
0.600000 0.380938 0.000000
0.634375 0.380938 0.000000
0.668750 0.380938 0.000000
0.703125 0.380938 0.000000
0.737500 0.380938 0.000000
0.771875 0.380938 0.000000
0.806250 0.380938 0.000000
0.840625 0.380938 0.000000
0.875000 0.380938 0.000000
0.909375 0.380938 0.000000
0.943750 0.380938 0.000000
0.978125 0.380938 0.000000
1.000000 0.380938 0.000000
1.000000 0.380938 0.000000
1.000000 0.380938 0.000000
1.000000 0.380938 0.000000
1.000000 0.380938 0.000000
0.050000 0.413750 0.000000
0.084375 0.413750 0.000000
0.118750 0.413750 0.000000
0.153125 0.413750 0.000000
0.187500 0.413750 0.000000
0.221875 0.413750 0.000000
0.256250 0.413750 0.000000
0.290625 0.413750 0.000000
0.325000 0.413750 0.000000
0.359375 0.413750 0.000000
0.393750 0.413750 0.000000
0.428125 0.413750 0.000000
0.462500 0.413750 0.000000
0.496875 0.413750 0.000000
0.531250 0.413750 0.000000
0.565625 0.413750 0.000000
0.600000 0.413750 0.000000
0.634375 0.413750 0.000000
0.668750 0.413750 0.000000
0.703125 0.413750 0.000000
0.737500 0.413750 0.000000
0.771875 0.413750 0.000000
0.806250 0.413750 0.000000
0.840625 0.413750 0.000000
0.875000 0.413750 0.000000
0.909375 0.413750 0.000000
0.943750 0.413750 0.000000
0.978125 0.413750 0.000000
1.000000 0.413750 0.000000
1.000000 0.413750 0.000000
1.000000 0.413750 0.000000
1.000000 0.413750 0.000000
1.000000 0.413750 0.000000
0.050000 0.446563 0.000000
0.084375 0.446563 0.000000
0.118750 0.446563 0.000000
0.153125 0.446563 0.000000
0.187500 0.446563 0.000000
0.221875 0.446563 0.000000
0.256250 0.446563 0.000000
0.290625 0.446563 0.000000
0.325000 0.446563 0.000000
0.359375 0.446563 0.000000
0.393750 0.446563 0.000000
0.428125 0.446563 0.000000
0.462500 0.446563 0.000000
0.496875 0.446563 0.000000
0.531250 0.446563 0.000000
0.565625 0.446563 0.000000
0.600000 0.446563 0.000000
0.634375 0.446563 0.000000
0.668750 0.446563 0.000000
0.703125 0.446563 0.000000
0.737500 0.446563 0.000000
0.771875 0.446563 0.000000
0.806250 0.446563 0.000000
0.840625 0.446563 0.000000
0.875000 0.446563 0.000000
0.909375 0.446563 0.000000
0.943750 0.446563 0.000000
0.978125 0.446563 0.000000
1.000000 0.446563 0.000000
1.000000 0.446563 0.000000
1.000000 0.446563 0.000000
1.000000 0.446563 0.000000
1.000000 0.446563 0.000000
0.050000 0.479375 0.000000
0.084375 0.479375 0.000000
0.118750 0.479375 0.000000
0.153125 0.479375 0.000000
0.187500 0.479375 0.000000
0.221875 0.479375 0.000000
0.256250 0.479375 0.000000
0.290625 0.479375 0.000000
0.325000 0.479375 0.000000
0.359375 0.479375 0.000000
0.393750 0.479375 0.000000
0.428125 0.479375 0.000000
0.462500 0.479375 0.000000
0.496875 0.479375 0.000000
0.531250 0.479375 0.000000
0.565625 0.479375 0.000000
0.600000 0.479375 0.000000
0.634375 0.479375 0.000000
0.668750 0.479375 0.000000
0.703125 0.479375 0.000000
0.737500 0.479375 0.000000
0.771875 0.479375 0.000000
0.806250 0.479375 0.000000
0.840625 0.479375 0.000000
0.875000 0.479375 0.000000
0.909375 0.479375 0.000000
0.943750 0.479375 0.000000
0.978125 0.479375 0.000000
1.000000 0.479375 0.000000
1.000000 0.479375 0.000000
1.000000 0.479375 0.000000
1.000000 0.479375 0.000000
1.000000 0.479375 0.000000
0.050000 0.512188 0.000000
0.084375 0.512188 0.000000
0.118750 0.512188 0.000000
0.153125 0.512188 0.000000
0.187500 0.512188 0.000000
0.221875 0.512188 0.000000
0.256250 0.512188 0.000000
0.290625 0.512188 0.000000
0.325000 0.512188 0.000000
0.359375 0.512188 0.000000
0.393750 0.512188 0.000000
0.428125 0.512188 0.000000
0.462500 0.512188 0.000000
0.496875 0.512188 0.000000
0.531250 0.512188 0.000000
0.565625 0.512188 0.000000
0.600000 0.512188 0.000000
0.634375 0.512188 0.000000
0.668750 0.512188 0.000000
0.703125 0.512188 0.000000
0.737500 0.512188 0.000000
0.771875 0.512188 0.000000
0.806250 0.512188 0.000000
0.840625 0.512188 0.000000
0.875000 0.512188 0.000000
0.909375 0.512188 0.000000
0.943750 0.512188 0.000000
0.978125 0.512188 0.000000
1.000000 0.512188 0.000000
1.000000 0.512188 0.000000
1.000000 0.512188 0.000000
1.000000 0.512188 0.000000
1.000000 0.512188 0.000000
0.050000 0.545000 0.000000
0.084375 0.545000 0.000000
0.118750 0.545000 0.000000
0.153125 0.545000 0.000000
0.187500 0.545000 0.000000
0.221875 0.545000 0.000000
0.256250 0.545000 0.000000
0.290625 0.545000 0.000000
0.325000 0.545000 0.000000
0.359375 0.545000 0.000000
0.393750 0.545000 0.000000
0.428125 0.545000 0.000000
0.462500 0.545000 0.000000
0.496875 0.545000 0.000000
0.531250 0.545000 0.000000
0.565625 0.545000 0.000000
0.600000 0.545000 0.000000
0.634375 0.545000 0.000000
0.668750 0.545000 0.000000
0.703125 0.545000 0.000000
0.737500 0.545000 0.000000
0.771875 0.545000 0.000000
0.806250 0.545000 0.000000
0.840625 0.545000 0.000000
0.875000 0.545000 0.000000
0.909375 0.545000 0.000000
0.943750 0.545000 0.000000
0.978125 0.545000 0.000000
1.000000 0.545000 0.000000
1.000000 0.545000 0.000000
1.000000 0.545000 0.000000
1.000000 0.545000 0.000000
1.000000 0.545000 0.000000
0.050000 0.577813 0.000000
0.084375 0.577813 0.000000
0.118750 0.577813 0.000000
0.153125 0.577813 0.000000
0.187500 0.577813 0.000000
0.221875 0.577813 0.000000
0.256250 0.577813 0.000000
0.290625 0.577813 0.000000
0.325000 0.577813 0.000000
0.359375 0.577813 0.000000
0.393750 0.577813 0.000000
0.428125 0.577813 0.000000
0.462500 0.577813 0.000000
0.496875 0.577813 0.000000
0.531250 0.577813 0.000000
0.565625 0.577813 0.000000
0.600000 0.577813 0.000000
0.634375 0.577813 0.000000
0.668750 0.577813 0.000000
0.703125 0.577813 0.000000
0.737500 0.577813 0.000000
0.771875 0.577813 0.000000
0.806250 0.577813 0.000000
0.840625 0.577813 0.000000
0.875000 0.577813 0.000000
0.909375 0.577813 0.000000
0.943750 0.577813 0.000000
0.978125 0.577813 0.000000
1.000000 0.577813 0.000000
1.000000 0.577813 0.000000
1.000000 0.577813 0.000000
1.000000 0.577813 0.000000
1.000000 0.577813 0.000000
0.050000 0.610625 0.000000
0.084375 0.610625 0.000000
0.118750 0.610625 0.000000
0.153125 0.610625 0.000000
0.187500 0.610625 0.000000
0.221875 0.610625 0.000000
0.256250 0.610625 0.000000
0.290625 0.610625 0.000000
0.325000 0.610625 0.000000
0.359375 0.610625 0.000000
0.393750 0.610625 0.000000
0.428125 0.610625 0.000000
0.462500 0.610625 0.000000
0.496875 0.610625 0.000000
0.531250 0.610625 0.000000
0.565625 0.610625 0.000000
0.600000 0.610625 0.000000
0.634375 0.610625 0.000000
0.668750 0.610625 0.000000
0.703125 0.610625 0.000000
0.737500 0.610625 0.000000
0.771875 0.610625 0.000000
0.806250 0.610625 0.000000
0.840625 0.610625 0.000000
0.875000 0.610625 0.000000
0.909375 0.610625 0.000000
0.943750 0.610625 0.000000
0.978125 0.610625 0.000000
1.000000 0.610625 0.000000
1.000000 0.610625 0.000000
1.000000 0.610625 0.000000
1.000000 0.610625 0.000000
1.000000 0.610625 0.000000
0.050000 0.643437 0.000000
0.084375 0.643437 0.000000
0.118750 0.643437 0.000000
0.153125 0.643437 0.000000
0.187500 0.643437 0.000000
0.221875 0.643437 0.000000
0.256250 0.643437 0.000000
0.290625 0.643437 0.000000
0.325000 0.643437 0.000000
0.359375 0.643437 0.000000
0.393750 0.643437 0.000000
0.428125 0.643437 0.000000
0.462500 0.643437 0.000000
0.496875 0.643437 0.000000
0.531250 0.643437 0.000000
0.565625 0.643437 0.000000
0.600000 0.643437 0.000000
0.634375 0.643437 0.000000
0.668750 0.643437 0.000000
0.703125 0.643437 0.000000
0.737500 0.643437 0.000000
0.771875 0.643437 0.000000
0.806250 0.643437 0.000000
0.840625 0.643437 0.000000
0.875000 0.643437 0.000000
0.909375 0.643437 0.000000
0.943750 0.643437 0.000000
0.978125 0.643437 0.000000
1.000000 0.643437 0.000000
1.000000 0.643437 0.000000
1.000000 0.643437 0.000000
1.000000 0.643437 0.000000
1.000000 0.643437 0.000000
0.050000 0.676250 0.000000
0.084375 0.676250 0.000000
0.118750 0.676250 0.000000
0.153125 0.676250 0.000000
0.187500 0.676250 0.000000
0.221875 0.676250 0.000000
0.256250 0.676250 0.000000
0.290625 0.676250 0.000000
0.325000 0.676250 0.000000
0.359375 0.676250 0.000000
0.393750 0.676250 0.000000
0.428125 0.676250 0.000000
0.462500 0.676250 0.000000
0.496875 0.676250 0.000000
0.531250 0.676250 0.000000
0.565625 0.676250 0.000000
0.600000 0.676250 0.000000
0.634375 0.676250 0.000000
0.668750 0.676250 0.000000
0.703125 0.676250 0.000000
0.737500 0.676250 0.000000
0.771875 0.676250 0.000000
0.806250 0.676250 0.000000
0.840625 0.676250 0.000000
0.875000 0.676250 0.000000
0.909375 0.676250 0.000000
0.943750 0.676250 0.000000
0.978125 0.676250 0.000000
1.000000 0.676250 0.000000
1.000000 0.676250 0.000000
1.000000 0.676250 0.000000
1.000000 0.676250 0.000000
1.000000 0.676250 0.000000
0.050000 0.709063 0.000000
0.084375 0.709063 0.000000
0.118750 0.709063 0.000000
0.153125 0.709063 0.000000
0.187500 0.709063 0.000000
0.221875 0.709063 0.000000
0.256250 0.709063 0.000000
0.290625 0.709063 0.000000
0.325000 0.709063 0.000000
0.359375 0.709063 0.000000
0.393750 0.709063 0.000000
0.428125 0.709063 0.000000
0.462500 0.709063 0.000000
0.496875 0.709063 0.000000
0.531250 0.709063 0.000000
0.565625 0.709063 0.000000
0.600000 0.709063 0.000000
0.634375 0.709063 0.000000
0.668750 0.709063 0.000000
0.703125 0.709063 0.000000
0.737500 0.709063 0.000000
0.771875 0.709063 0.000000
0.806250 0.709063 0.000000
0.840625 0.709063 0.000000
0.875000 0.709063 0.000000
0.909375 0.709063 0.000000
0.943750 0.709063 0.000000
0.978125 0.709063 0.000000
1.000000 0.709063 0.000000
1.000000 0.709063 0.000000
1.000000 0.709063 0.000000
1.000000 0.709063 0.000000
1.000000 0.709063 0.000000
0.050000 0.741875 0.000000
0.084375 0.741875 0.000000
0.118750 0.741875 0.000000
0.153125 0.741875 0.000000
0.187500 0.741875 0.000000
0.221875 0.741875 0.000000
0.256250 0.741875 0.000000
0.290625 0.741875 0.000000
0.325000 0.741875 0.000000
0.359375 0.741875 0.000000
0.393750 0.741875 0.000000
0.428125 0.741875 0.000000
0.462500 0.741875 0.000000
0.496875 0.741875 0.000000
0.531250 0.741875 0.000000
0.565625 0.741875 0.000000
0.600000 0.741875 0.000000
0.634375 0.741875 0.000000
0.668750 0.741875 0.000000
0.703125 0.741875 0.000000
0.737500 0.741875 0.000000
0.771875 0.741875 0.000000
0.806250 0.741875 0.000000
0.840625 0.741875 0.000000
0.875000 0.741875 0.000000
0.909375 0.741875 0.000000
0.943750 0.741875 0.000000
0.978125 0.741875 0.000000
1.000000 0.741875 0.000000
1.000000 0.741875 0.000000
1.000000 0.741875 0.000000
1.000000 0.741875 0.000000
1.000000 0.741875 0.000000
0.050000 0.774688 0.000000
0.084375 0.774688 0.000000
0.118750 0.774688 0.000000
0.153125 0.774688 0.000000
0.187500 0.774688 0.000000
0.221875 0.774688 0.000000
0.256250 0.774688 0.000000
0.290625 0.774688 0.000000
0.325000 0.774688 0.000000
0.359375 0.774688 0.000000
0.393750 0.774688 0.000000
0.428125 0.774688 0.000000
0.462500 0.774688 0.000000
0.496875 0.774688 0.000000
0.531250 0.774688 0.000000
0.565625 0.774688 0.000000
0.600000 0.774688 0.000000
0.634375 0.774688 0.000000
0.668750 0.774688 0.000000
0.703125 0.774688 0.000000
0.737500 0.774688 0.000000
0.771875 0.774688 0.000000
0.806250 0.774688 0.000000
0.840625 0.774688 0.000000
0.875000 0.774688 0.000000
0.909375 0.774688 0.000000
0.943750 0.774688 0.000000
0.978125 0.774688 0.000000
1.000000 0.774688 0.000000
1.000000 0.774688 0.000000
1.000000 0.774688 0.000000
1.000000 0.774688 0.000000
1.000000 0.774688 0.000000
0.050000 0.807500 0.000000
0.084375 0.807500 0.000000
0.118750 0.807500 0.000000
0.153125 0.807500 0.000000
0.187500 0.807500 0.000000
0.221875 0.807500 0.000000
0.256250 0.807500 0.000000
0.290625 0.807500 0.000000
0.325000 0.807500 0.000000
0.359375 0.807500 0.000000
0.393750 0.807500 0.000000
0.428125 0.807500 0.000000
0.462500 0.807500 0.000000
0.496875 0.807500 0.000000
0.531250 0.807500 0.000000
0.565625 0.807500 0.000000
0.600000 0.807500 0.000000
0.634375 0.807500 0.000000
0.668750 0.807500 0.000000
0.703125 0.807500 0.000000
0.737500 0.807500 0.000000
0.771875 0.807500 0.000000
0.806250 0.807500 0.000000
0.840625 0.807500 0.000000
0.875000 0.807500 0.000000
0.909375 0.807500 0.000000
0.943750 0.807500 0.000000
0.978125 0.807500 0.000000
1.000000 0.807500 0.000000
1.000000 0.807500 0.000000
1.000000 0.807500 0.000000
1.000000 0.807500 0.000000
1.000000 0.807500 0.000000
0.050000 0.840313 0.000000
0.084375 0.840313 0.000000
0.118750 0.840313 0.000000
0.153125 0.840313 0.000000
0.187500 0.840313 0.000000
0.221875 0.840313 0.000000
0.256250 0.840313 0.000000
0.290625 0.840313 0.000000
0.325000 0.840313 0.000000
0.359375 0.840313 0.000000
0.393750 0.840313 0.000000
0.428125 0.840313 0.000000
0.462500 0.840313 0.000000
0.496875 0.840313 0.000000
0.531250 0.840313 0.000000
0.565625 0.840313 0.000000
0.600000 0.840313 0.000000
0.634375 0.840313 0.000000
0.668750 0.840313 0.000000
0.703125 0.840313 0.000000
0.737500 0.840313 0.000000
0.771875 0.840313 0.000000
0.806250 0.840313 0.000000
0.840625 0.840313 0.000000
0.875000 0.840313 0.000000
0.909375 0.840313 0.000000
0.943750 0.840313 0.000000
0.978125 0.840313 0.000000
1.000000 0.840313 0.000000
1.000000 0.840313 0.000000
1.000000 0.840313 0.000000
1.000000 0.840313 0.000000
1.000000 0.840313 0.000000
0.050000 0.873125 0.000000
0.084375 0.873125 0.000000
0.118750 0.873125 0.000000
0.153125 0.873125 0.000000
0.187500 0.873125 0.000000
0.221875 0.873125 0.000000
0.256250 0.873125 0.000000
0.290625 0.873125 0.000000
0.325000 0.873125 0.000000
0.359375 0.873125 0.000000
0.393750 0.873125 0.000000
0.428125 0.873125 0.000000
0.462500 0.873125 0.000000
0.496875 0.873125 0.000000
0.531250 0.873125 0.000000
0.565625 0.873125 0.000000
0.600000 0.873125 0.000000
0.634375 0.873125 0.000000
0.668750 0.873125 0.000000
0.703125 0.873125 0.000000
0.737500 0.873125 0.000000
0.771875 0.873125 0.000000
0.806250 0.873125 0.000000
0.840625 0.873125 0.000000
0.875000 0.873125 0.000000
0.909375 0.873125 0.000000
0.943750 0.873125 0.000000
